;FLAVOR:Marlin
;TIME:4019
;Filament used: 2.78655m
;Layer height: 0.2
;MINX:38.825
;MINY:38.571
;MINZ:0.2
;MAXX:196.152
;MAXY:196.401
;MAXZ:4
;Generated with Cura_SteamEngine 5.0.0
M140 S70
M105
M190 S70
M104 S200
M105
M109 S200
M82 ;absolute extrusion mode
; Ender 3 Custom Start G-code
G28 ; Home all axes
M420 S1; Bed Leveling On
G92 E0 ; Reset Extruder
G1 Z2.0 F3000 ; Move Z Axis up little to prevent scratching of Heat Bed
G1 X0.1 Y20 Z0.3 F5000.0 ; Move to start position
G1 X0.1 Y200.0 Z0.3 F1500.0 E15 ; Draw the first line
G1 X0.4 Y200.0 Z0.3 F5000.0 ; Move to side a little
G1 X0.4 Y20 Z0.3 F1500.0 E30 ; Draw the second line
G92 E0 ; Reset Extruder
G1 Z2.0 F3000 ; Move Z Axis up little to prevent scratching of Heat Bed
G1 X5 Y20 Z0.3 F5000.0 ; Move over to prevent blob squish
G92 E0
G92 E0
G1 F2700 E-5
;LAYER_COUNT:20
;LAYER:0
M107
G0 F6000 X40.944 Y41.017 Z0.2
G0 X38.825 Y46
;TYPE:SKIRT
G1 F2700 E0
G1 F1200 X38.902 Y45.214 E0.02627
G1 X39.059 Y44.44 E0.05254
G1 X39.293 Y43.686 E0.07879
G1 X39.602 Y42.959 E0.10507
G1 X39.983 Y42.267 E0.13134
G1 X40.432 Y41.618 E0.15759
G1 X40.944 Y41.017 E0.18385
G1 X41.515 Y40.471 E0.21013
G1 X42.137 Y39.985 E0.23638
G1 X42.806 Y39.565 E0.26265
G1 X43.514 Y39.215 E0.28892
G1 X44.253 Y38.938 E0.31517
G1 X45.017 Y38.737 E0.34144
G1 X45.797 Y38.614 E0.36771
G1 X46.585 Y38.571 E0.39396
G1 X47.374 Y38.608 E0.42023
G1 X48.155 Y38.724 E0.44649
G1 X48.921 Y38.919 E0.47278
G1 X49.662 Y39.19 E0.49902
G1 X50.373 Y39.535 E0.52531
G1 X51.045 Y39.95 E0.55158
G1 X51.671 Y40.431 E0.57783
G1 X51.988 Y40.716 E0.59201
G1 X115.032 Y100.605 E3.48416
G1 X115.576 Y101.177 E3.51041
G1 X115.721 Y101.346 E3.51782
G1 X116.482 Y101.982 E3.55081
G1 X150.589 Y134.385 E5.11553
G1 X156.401 Y139.932 E5.38275
G1 X159.997 Y143.393 E5.54875
G1 X160.537 Y143.969 E5.57501
G1 X160.65 Y144.117 E5.58121
G1 X161.47 Y144.81 E5.61691
G1 X164.955 Y148.201 E5.77864
G1 X168.572 Y151.759 E5.94739
G1 X172.229 Y155.398 E6.11898
G1 X175.06 Y158.245 E6.25252
G1 X178.412 Y161.656 E6.41158
G1 X181.412 Y164.765 E6.55528
G1 X183.335 Y166.798 E6.64836
G1 X185.127 Y168.725 E6.73588
G1 X186.688 Y170.44 E6.81301
G1 X188.131 Y172.07 E6.88542
G1 X189.368 Y173.509 E6.94853
G1 X190.477 Y174.846 E7.00631
G1 X191.459 Y176.082 E7.05881
G1 X192.333 Y177.241 E7.10709
G1 X193.049 Y178.254 E7.14835
G1 X193.499 Y178.936 E7.17553
G1 X193.909 Y179.604 E7.2016
G1 X194.291 Y180.28 E7.22742
G1 X194.627 Y180.933 E7.25185
G1 X194.797 Y181.29 E7.265
G1 X194.969 Y181.676 E7.27905
G1 X195.247 Y182.352 E7.30336
G1 X195.431 Y182.846 E7.3209
G1 X195.547 Y183.193 E7.33307
G1 X195.675 Y183.617 E7.3478
G1 X195.767 Y183.955 E7.35945
G1 X195.869 Y184.373 E7.37376
G1 X195.934 Y184.677 E7.3841
G1 X196.045 Y185.335 E7.40629
G1 X196.086 Y185.661 E7.41722
G1 X196.145 Y186.462 E7.44393
G1 X196.152 Y186.78 E7.45451
G1 X196.13 Y187.57 E7.4808
G1 X196.037 Y188.335 E7.50643
G1 X195.89 Y189.11 E7.53267
G1 X195.602 Y190.041 E7.56508
G1 X195.49 Y190.336 E7.57558
G1 X195.173 Y191.059 E7.60183
G1 X194.784 Y191.746 E7.62809
G1 X194.395 Y192.304 E7.65071
G1 X194.21 Y192.546 E7.66085
G1 X193.699 Y193.148 E7.68711
G1 X193.13 Y193.696 E7.71338
G1 X192.697 Y194.046 E7.7319
G1 X192.432 Y194.245 E7.74292
G1 X191.777 Y194.687 E7.76921
G1 X191.089 Y195.056 E7.79517
G1 X190.743 Y195.22 E7.80791
G1 X189.821 Y195.588 E7.84093
G1 X189.404 Y195.724 E7.85551
G1 X188.865 Y195.878 E7.87416
G1 X188.418 Y195.989 E7.88948
G1 X187.927 Y196.094 E7.90618
G1 X187.347 Y196.199 E7.92578
G1 X186.806 Y196.278 E7.94397
G1 X186.349 Y196.328 E7.95926
G1 X185.84 Y196.367 E7.97624
G1 X185.173 Y196.396 E7.99844
G1 X184.346 Y196.401 E8.02595
G1 X183.575 Y196.374 E8.05161
G1 X182.825 Y196.326 E8.0766
G1 X182.026 Y196.25 E8.1033
G1 X181.091 Y196.131 E8.13465
G1 X180.008 Y195.957 E8.17113
G1 X178.988 Y195.757 E8.2057
G1 X177.614 Y195.44 E8.2526
G1 X177.298 Y195.36 E8.26344
G1 X175.657 Y194.903 E8.3201
G1 X174.073 Y194.399 E8.37539
G1 X172.558 Y193.864 E8.42883
G1 X171.124 Y193.313 E8.47992
G1 X169.766 Y192.754 E8.52876
G1 X168.511 Y192.207 E8.5743
G1 X167.374 Y191.688 E8.61587
G1 X166.351 Y191.205 E8.6535
G1 X164.456 Y190.263 E8.72388
G1 X162.525 Y189.247 E8.79645
G1 X161.417 Y188.638 E8.83851
G1 X160.431 Y188.082 E8.87616
G1 X159.357 Y187.461 E8.91742
G1 X158.273 Y186.819 E8.95932
G1 X157.235 Y186.19 E8.99969
G1 X156.122 Y185.499 E9.04326
G1 X154.983 Y184.776 E9.08813
G1 X153.835 Y184.032 E9.13363
G1 X152.737 Y183.305 E9.17743
G1 X151.559 Y182.507 E9.22476
G1 X150.363 Y181.681 E9.2731
G1 X149.154 Y180.829 E9.32229
G1 X148.002 Y180.003 E9.36944
G1 X146.766 Y179.098 E9.42039
G1 X145.508 Y178.162 E9.47254
G1 X144.233 Y177.194 E9.52579
G1 X142.957 Y176.206 E9.57946
G1 X141.667 Y175.19 E9.63408
G1 X140.481 Y174.242 E9.68458
G1 X139.89 Y173.718 E9.71085
G1 X139.699 Y173.511 E9.72022
G1 X139.181 Y173.17 E9.74084
G1 X138.806 Y172.876 E9.75669
G1 X137.27 Y171.599 E9.82313
G1 X135.712 Y170.28 E9.89102
G1 X134.135 Y168.92 E9.96029
G1 X132.542 Y167.52 E10.03082
G1 X130.935 Y166.082 E10.10255
G1 X129.312 Y164.603 E10.17558
G1 X127.666 Y163.079 E10.25019
G1 X125.991 Y161.498 E10.3268
G1 X122.701 Y158.318 E10.47898
G1 X119.301 Y154.922 E10.63881
G1 X116.094 Y151.622 E10.79187
G1 X112.933 Y148.277 E10.94494
G1 X109.816 Y144.892 E11.09798
G1 X106.738 Y141.465 E11.25119
G1 X103.716 Y138.016 E11.40371
G1 X100.74 Y134.544 E11.55581
G1 X97.819 Y131.059 E11.70705
G1 X94.947 Y127.564 E11.85751
G1 X92.133 Y124.069 E12.00675
G1 X89.568 Y120.821 E12.1444
G1 X89.11 Y120.177 E12.17068
G1 X88.972 Y119.935 E12.17995
G1 X88.668 Y119.631 E12.19425
G1 X88.269 Y119.154 E12.21493
G1 X85.837 Y115.992 E12.34761
G1 X83.665 Y113.126 E12.46721
G1 X81.371 Y110.059 E12.5946
G1 X79.251 Y107.187 E12.71333
G1 X77.205 Y104.384 E12.82875
G1 X75.16 Y101.546 E12.9451
G1 X72.444 Y97.731 E13.10086
G1 X69.948 Y94.175 E13.24536
G1 X67.606 Y90.792 E13.38221
G1 X65.022 Y87.014 E13.53444
G1 X61.733 Y82.141 E13.72998
G1 X54.254 Y71.017 E14.17582
G1 X49.827 Y64.49 E14.43813
G1 X46.879 Y60.191 E14.6115
G1 X44.847 Y57.264 E14.73002
G1 X42.906 Y54.507 E14.84216
G1 X41.447 Y52.473 E14.92542
G1 X40.717 Y51.491 E14.96611
G1 X40.461 Y51.162 E14.97998
G1 X40.008 Y50.515 E15.00625
G1 X39.623 Y49.826 E15.0325
G1 X39.309 Y49.101 E15.05878
G1 X39.071 Y48.348 E15.08504
G1 X38.909 Y47.575 E15.11131
G1 X38.827 Y46.789 E15.1376
G1 X38.825 Y46 E15.16384
G0 F6000 X39.221 Y46.648
G1 F1200 X39.232 Y45.879 E15.18942
G1 X39.323 Y45.115 E15.21501
G1 X39.493 Y44.365 E15.24059
G1 X39.74 Y43.637 E15.26616
G1 X40.061 Y42.938 E15.29174
G1 X40.452 Y42.276 E15.31731
G1 X40.911 Y41.658 E15.34291
G1 X41.431 Y41.091 E15.3685
G1 X42.007 Y40.582 E15.39407
G1 X42.633 Y40.135 E15.41965
G1 X43.302 Y39.755 E15.44524
G1 X44.006 Y39.446 E15.47081
G1 X44.739 Y39.213 E15.4964
G1 X45.492 Y39.057 E15.52197
G1 X46.258 Y38.98 E15.54758
G1 X47.027 Y38.982 E15.57316
G1 X47.791 Y39.065 E15.59872
G1 X48.543 Y39.226 E15.62429
G1 X49.275 Y39.465 E15.64991
G1 X49.977 Y39.778 E15.67547
G1 X50.643 Y40.163 E15.70106
G1 X51.266 Y40.614 E15.72664
G1 X51.713 Y41.006 E15.74641
G1 X114.757 Y100.895 E18.63856
G1 X115.286 Y101.453 E18.66413
G1 X115.431 Y101.642 E18.67206
G1 X115.707 Y101.838 E18.68331
G1 X116.207 Y102.272 E18.70534
G1 X150.313 Y134.675 E20.27004
G1 X156.124 Y140.22 E20.53719
G1 X159.72 Y143.681 E20.70319
G1 X160.245 Y144.243 E20.72877
G1 X160.388 Y144.431 E20.73662
G1 X160.628 Y144.602 E20.74642
G1 X161.191 Y145.097 E20.77136
G1 X164.674 Y148.486 E20.93299
G1 X168.29 Y152.042 E21.10167
G1 X171.946 Y155.68 E21.27322
G1 X174.775 Y158.525 E21.40666
G1 X178.124 Y161.934 E21.5656
G1 X181.121 Y165.04 E21.70916
G1 X183.042 Y167.071 E21.80214
G1 X184.831 Y168.994 E21.8895
G1 X186.389 Y170.705 E21.96647
G1 X187.828 Y172.331 E22.03868
G1 X189.06 Y173.765 E22.10156
G1 X190.164 Y175.096 E22.15908
G1 X191.14 Y176.324 E22.21125
G1 X192.007 Y177.472 E22.2591
G1 X192.716 Y178.475 E22.29995
G1 X193.159 Y179.148 E22.32675
G1 X193.562 Y179.804 E22.35236
G1 X193.937 Y180.466 E22.37766
G1 X194.266 Y181.104 E22.40154
G1 X194.436 Y181.461 E22.41469
G1 X194.599 Y181.829 E22.42808
G1 X194.877 Y182.505 E22.45239
G1 X195.051 Y182.973 E22.46899
G1 X195.167 Y183.32 E22.48116
G1 X195.289 Y183.723 E22.49517
G1 X195.381 Y184.061 E22.50682
G1 X195.542 Y184.761 E22.53071
G1 X195.648 Y185.385 E22.55176
G1 X195.689 Y185.711 E22.56269
G1 X195.745 Y186.471 E22.58803
G1 X195.752 Y186.789 E22.59861
G1 X195.729 Y187.558 E22.6242
G1 X195.641 Y188.28 E22.64839
G1 X195.497 Y189.036 E22.67399
G1 X195.228 Y189.899 E22.70406
G1 X195.116 Y190.194 E22.71455
G1 X194.806 Y190.897 E22.74011
G1 X194.425 Y191.565 E22.76568
G1 X194.077 Y192.061 E22.78584
G1 X193.892 Y192.303 E22.79597
G1 X193.394 Y192.889 E22.82155
G1 X192.837 Y193.42 E22.84714
G1 X192.457 Y193.726 E22.86337
G1 X192.192 Y193.925 E22.87439
G1 X191.553 Y194.355 E22.90001
G1 X190.918 Y194.695 E22.92396
G1 X190.572 Y194.859 E22.9367
G1 X189.696 Y195.207 E22.96805
G1 X189.279 Y195.343 E22.98264
G1 X188.768 Y195.49 E23.00032
G1 X188.321 Y195.601 E23.01564
G1 X187.856 Y195.701 E23.03146
G1 X187.276 Y195.806 E23.05107
G1 X186.763 Y195.88 E23.06831
G1 X186.306 Y195.93 E23.0836
G1 X185.822 Y195.967 E23.09974
G1 X185.155 Y195.996 E23.12195
G1 X184.347 Y196.001 E23.14882
G1 X183.591 Y195.975 E23.17398
G1 X182.852 Y195.927 E23.19861
G1 X182.065 Y195.852 E23.22491
G1 X181.143 Y195.734 E23.25582
G1 X180.083 Y195.564 E23.29153
G1 X179.078 Y195.368 E23.32559
G1 X177.704 Y195.051 E23.37249
G1 X177.404 Y194.975 E23.38278
G1 X175.777 Y194.522 E23.43895
G1 X174.205 Y194.022 E23.49382
G1 X172.701 Y193.491 E23.54687
G1 X171.276 Y192.943 E23.59765
G1 X169.925 Y192.387 E23.64624
G1 X168.677 Y191.843 E23.69152
G1 X167.544 Y191.326 E23.73294
G1 X166.529 Y190.846 E23.77028
G1 X164.642 Y189.909 E23.84036
G1 X162.718 Y188.896 E23.91268
G1 X161.614 Y188.289 E23.95458
G1 X160.631 Y187.735 E23.99211
G1 X159.561 Y187.117 E24.03321
G1 X158.481 Y186.477 E24.07496
G1 X157.446 Y185.85 E24.11521
G1 X156.336 Y185.161 E24.15866
G1 X155.2 Y184.441 E24.2034
G1 X154.056 Y183.698 E24.24877
G1 X152.962 Y182.973 E24.29242
G1 X151.786 Y182.177 E24.33965
G1 X150.593 Y181.354 E24.38785
G1 X149.387 Y180.504 E24.43693
G1 X148.238 Y179.68 E24.48396
G1 X147.004 Y178.777 E24.53481
G1 X145.75 Y177.843 E24.58682
G1 X144.478 Y176.878 E24.63992
G1 X143.205 Y175.891 E24.6935
G1 X141.917 Y174.877 E24.74802
G1 X140.731 Y173.929 E24.79852
G1 X140.156 Y173.419 E24.82408
G1 X139.954 Y173.197 E24.83407
G1 X139.822 Y173.123 E24.8391
G1 X139.062 Y172.569 E24.87038
G1 X137.528 Y171.293 E24.93675
G1 X135.973 Y169.977 E25.0045
G1 X134.399 Y168.619 E25.07364
G1 X132.809 Y167.222 E25.14404
G1 X131.204 Y165.786 E25.21567
G1 X129.583 Y164.31 E25.28859
G1 X127.94 Y162.788 E25.36308
G1 X126.269 Y161.211 E25.4395
G1 X122.983 Y158.035 E25.59149
G1 X119.588 Y154.643 E25.75111
G1 X116.385 Y151.348 E25.90395
G1 X113.228 Y148.006 E26.05686
G1 X110.114 Y144.624 E26.20977
G1 X107.039 Y141.202 E26.36278
G1 X104.019 Y137.756 E26.51518
G1 X101.047 Y134.287 E26.66712
G1 X98.128 Y130.805 E26.81824
G1 X95.259 Y127.314 E26.96853
G1 X92.447 Y123.821 E27.11768
G1 X89.882 Y120.573 E27.25533
G1 X89.437 Y119.946 E27.2809
G1 X89.307 Y119.714 E27.28975
G1 X88.586 Y118.91 E27.32567
G1 X86.156 Y115.751 E27.45823
G1 X83.986 Y112.886 E27.57776
G1 X81.692 Y109.822 E27.70507
G1 X79.574 Y106.951 E27.82373
G1 X77.529 Y104.15 E27.93908
G1 X75.486 Y101.314 E28.05533
G1 X72.772 Y97.502 E28.21097
G1 X70.277 Y93.947 E28.35543
G1 X67.936 Y90.566 E28.4922
G1 X65.353 Y86.79 E28.64437
G1 X62.065 Y81.918 E28.83986
G1 X54.586 Y70.794 E29.28569
G1 X50.136 Y64.233 E29.54937
G1 X47.209 Y59.965 E29.7215
G1 X45.146 Y56.994 E29.8418
G1 X43.231 Y54.274 E29.95244
G1 X41.759 Y52.222 E30.03644
G1 X41.05 Y51.268 E30.07597
G1 X40.776 Y50.916 E30.09081
G1 X40.336 Y50.285 E30.11639
G1 X39.964 Y49.612 E30.14197
G1 X39.663 Y48.904 E30.16756
G1 X39.438 Y48.169 E30.19312
G1 X39.29 Y47.414 E30.21871
G1 X39.221 Y46.648 E30.24429
G0 F6000 X39.617 Y46.51
G1 F1200 X39.642 Y45.763 E30.26915
G1 X39.747 Y45.022 E30.29404
G1 X39.93 Y44.297 E30.31891
G1 X40.19 Y43.595 E30.34381
G1 X40.523 Y42.925 E30.3687
G1 X40.925 Y42.295 E30.39355
G1 X41.393 Y41.711 E30.41845
G1 X41.92 Y41.18 E30.44333
G1 X42.501 Y40.708 E30.46823
G1 X43.129 Y40.302 E30.4931
G1 X43.796 Y39.964 E30.51797
G1 X44.496 Y39.7 E30.54285
G1 X45.22 Y39.512 E30.56773
G1 X45.96 Y39.402 E30.59261
G1 X46.708 Y39.372 E30.61751
G1 X47.454 Y39.421 E30.64238
G1 X48.191 Y39.55 E30.66726
G1 X48.91 Y39.757 E30.69215
G1 X49.602 Y40.04 E30.71701
G1 X50.261 Y40.395 E30.74191
G1 X50.878 Y40.818 E30.76679
G1 X51.437 Y41.296 E30.79125
G1 X114.481 Y101.185 E33.6834
G1 X114.995 Y101.728 E33.70827
G1 X115.141 Y101.92 E33.71629
G1 X115.931 Y102.562 E33.75015
G1 X150.037 Y134.964 E35.31483
G1 X155.846 Y140.508 E35.58191
G1 X159.442 Y143.969 E35.74791
G1 X159.953 Y144.516 E35.77281
G1 X160.099 Y144.711 E35.78091
G1 X160.601 Y145.098 E35.80199
G1 X160.912 Y145.383 E35.81602
G1 X164.394 Y148.772 E35.97763
G1 X168.008 Y152.326 E36.14622
G1 X171.662 Y155.963 E36.31769
G1 X174.49 Y158.806 E36.45106
G1 X177.836 Y162.211 E36.60984
G1 X180.831 Y165.315 E36.7533
G1 X182.749 Y167.343 E36.84614
G1 X184.535 Y169.263 E36.93336
G1 X186.089 Y170.971 E37.01016
G1 X187.525 Y172.591 E37.08217
G1 X188.753 Y174.021 E37.14486
G1 X189.851 Y175.345 E37.20207
G1 X190.821 Y176.566 E37.25393
G1 X191.681 Y177.704 E37.30138
G1 X192.383 Y178.696 E37.3418
G1 X192.82 Y179.359 E37.36821
G1 X193.216 Y180.004 E37.39338
G1 X193.583 Y180.651 E37.41812
G1 X193.905 Y181.276 E37.4415
G1 X194.075 Y181.633 E37.45466
G1 X194.229 Y181.981 E37.46731
G1 X194.507 Y182.657 E37.49162
G1 X194.672 Y183.1 E37.50735
G1 X194.788 Y183.447 E37.51952
G1 X194.903 Y183.828 E37.53275
G1 X195.086 Y184.54 E37.5572
G1 X195.151 Y184.844 E37.56754
G1 X195.251 Y185.435 E37.58748
G1 X195.292 Y185.761 E37.59841
G1 X195.345 Y186.48 E37.62239
G1 X195.352 Y186.798 E37.63297
G1 X195.289 Y187.906 E37.66988
G1 X195.245 Y188.226 E37.68062
G1 X195.103 Y188.96 E37.70549
G1 X194.854 Y189.757 E37.73326
G1 X194.742 Y190.052 E37.74375
G1 X194.44 Y190.736 E37.76862
G1 X194.066 Y191.384 E37.79351
G1 X193.759 Y191.818 E37.81119
G1 X193.574 Y192.06 E37.82132
G1 X193.089 Y192.629 E37.84619
G1 X192.545 Y193.144 E37.8711
G1 X192.216 Y193.406 E37.88509
G1 X191.951 Y193.605 E37.89611
G1 X191.33 Y194.022 E37.92099
G1 X190.746 Y194.333 E37.943
G1 X190.4 Y194.497 E37.95573
G1 X189.572 Y194.827 E37.98538
G1 X189.155 Y194.963 E37.99997
G1 X188.672 Y195.102 E38.01669
G1 X188.225 Y195.213 E38.032
G1 X187.785 Y195.307 E38.04697
G1 X187.205 Y195.412 E38.06657
G1 X186.719 Y195.482 E38.0829
G1 X186.262 Y195.532 E38.0982
G1 X185.805 Y195.567 E38.11344
G1 X184.803 Y195.603 E38.14679
G1 X184.09 Y195.595 E38.1705
G1 X183.418 Y195.565 E38.19288
G1 X182.671 Y195.51 E38.21779
G1 X181.876 Y195.427 E38.24438
G1 X181.004 Y195.309 E38.27364
G1 X180.157 Y195.171 E38.30219
G1 X179.168 Y194.978 E38.3357
G1 X177.794 Y194.661 E38.3826
G1 X176.144 Y194.213 E38.43947
G1 X174.552 Y193.716 E38.49494
G1 X173.028 Y193.185 E38.54861
G1 X171.428 Y192.573 E38.60559
G1 X170.085 Y192.021 E38.65388
G1 X168.843 Y191.479 E38.69896
G1 X167.715 Y190.964 E38.7402
G1 X166.706 Y190.488 E38.7773
G1 X164.828 Y189.555 E38.84705
G1 X162.91 Y188.546 E38.91913
G1 X161.81 Y187.941 E38.96089
G1 X160.831 Y187.389 E38.99827
G1 X159.764 Y186.773 E39.03925
G1 X158.688 Y186.135 E39.08085
G1 X157.657 Y185.51 E39.12095
G1 X156.55 Y184.823 E39.16429
G1 X155.418 Y184.105 E39.20887
G1 X154.277 Y183.364 E39.25412
G1 X153.186 Y182.642 E39.29763
G1 X152.013 Y181.848 E39.34475
G1 X150.823 Y181.027 E39.39283
G1 X149.62 Y180.179 E39.44178
G1 X148.474 Y179.357 E39.48869
G1 X147.243 Y178.456 E39.53943
G1 X145.992 Y177.524 E39.59132
G1 X144.723 Y176.561 E39.6443
G1 X143.452 Y175.577 E39.69776
G1 X142.166 Y174.565 E39.75219
G1 X140.98 Y173.617 E39.80269
G1 X140.422 Y173.119 E39.82757
G1 X140.202 Y172.877 E39.83844
G1 X139.814 Y172.638 E39.8536
G1 X139.317 Y172.261 E39.87435
G1 X137.787 Y170.988 E39.94055
G1 X136.235 Y169.674 E40.00818
G1 X134.663 Y168.319 E40.07721
G1 X133.076 Y166.924 E40.14749
G1 X131.473 Y165.49 E40.21902
