;FLAVOR:Marlin
;TIME:9215
;Filament used: 6.43803m
;Layer height: 0.2
;MINX:37.533
;MINY:62.462
;MINZ:0.2
;MAXX:197.467
;MAXY:157.732
;MAXZ:3
;Generated with Cura_SteamEngine 5.0.0
M140 S70
M105
M190 S70
M104 S200
M105
M109 S200
M82 ;absolute extrusion mode
; Ender 3 Custom Start G-code
G28 ; Home all axes
M420 S1; Bed Leveling On
G92 E0 ; Reset Extruder
G1 Z2.0 F3000 ; Move Z Axis up little to prevent scratching of Heat Bed
G1 X0.1 Y20 Z0.3 F5000.0 ; Move to start position
G1 X0.1 Y200.0 Z0.3 F1500.0 E15 ; Draw the first line
G1 X0.4 Y200.0 Z0.3 F5000.0 ; Move to side a little
G1 X0.4 Y20 Z0.3 F1500.0 E30 ; Draw the second line
G92 E0 ; Reset Extruder
G1 Z2.0 F3000 ; Move Z Axis up little to prevent scratching of Heat Bed
G1 X5 Y20 Z0.3 F5000.0 ; Move over to prevent blob squish
G92 E0
G92 E0
G1 F2700 E-5
;LAYER_COUNT:15
;LAYER:0
M107
G0 F6000 X41.894 Y81.415 Z0.2
G0 X37.533 Y88.416
;TYPE:SKIRT
G1 F2700 E0
G1 F1200 X37.573 Y87.627 E0.02628
G1 X37.692 Y86.847 E0.05252
G1 X37.89 Y86.082 E0.0788
G1 X38.164 Y85.342 E0.10505
G1 X38.512 Y84.633 E0.13132
G1 X38.93 Y83.962 E0.15761
G1 X39.413 Y83.338 E0.18385
G1 X39.956 Y82.765 E0.21011
G1 X40.555 Y82.25 E0.23638
G1 X41.203 Y81.799 E0.26264
G1 X41.894 Y81.415 E0.28894
G1 X42.619 Y81.103 E0.31519
G1 X43.372 Y80.866 E0.34144
G1 X44.146 Y80.707 E0.36773
G1 X44.931 Y80.626 E0.39397
G1 X45.333 Y80.616 E0.40735
G1 X65.2 Y80.616 E1.06813
G1 X65.2 Y71.843 E1.35992
G1 X65.24 Y71.054 E1.38619
G1 X65.359 Y70.274 E1.41244
G1 X65.557 Y69.509 E1.43872
G1 X65.831 Y68.769 E1.46497
G1 X66.179 Y68.06 E1.49123
G1 X66.597 Y67.389 E1.51753
G1 X67.08 Y66.765 E1.54377
G1 X67.623 Y66.192 E1.57003
G1 X68.222 Y65.677 E1.5963
G1 X68.716 Y65.325 E1.61648
G1 X69.104 Y65.07 E1.63192
G1 X69.445 Y64.858 E1.64528
G1 X69.94 Y64.568 E1.66436
G1 X70.432 Y64.303 E1.68294
G1 X70.963 Y64.041 E1.70264
G1 X71.386 Y63.848 E1.7181
G1 X71.792 Y63.677 E1.73275
G1 X72.206 Y63.516 E1.74753
G1 X72.771 Y63.315 E1.76747
G1 X73.312 Y63.144 E1.78635
G1 X73.867 Y62.991 E1.80549
G1 X74.636 Y62.81 E1.83177
G1 X75.073 Y62.725 E1.84658
G1 X75.878 Y62.602 E1.87366
G1 X76.356 Y62.547 E1.88966
G1 X76.743 Y62.512 E1.90259
G1 X77.516 Y62.469 E1.92834
G1 X77.821 Y62.462 E1.93849
G1 X78.61 Y62.484 E1.96474
G1 X78.998 Y62.534 E1.97775
G1 X79.598 Y62.472 E1.99781
G1 X80 Y62.462 E2.01119
G1 X133.333 Y62.462 E3.78505
G1 X134.122 Y62.502 E3.81133
G1 X134.331 Y62.534 E3.81836
G1 X134.931 Y62.472 E3.83842
G1 X135.333 Y62.462 E3.85179
G1 X162 Y62.462 E4.73874
G1 X162.789 Y62.502 E4.76502
G1 X163.569 Y62.621 E4.79126
G1 X164.334 Y62.819 E4.81754
G1 X165.074 Y63.093 E4.84379
G1 X165.783 Y63.441 E4.87006
G1 X166.454 Y63.859 E4.89635
G1 X167.078 Y64.342 E4.9226
G1 X167.651 Y64.885 E4.94885
G1 X168.166 Y65.484 E4.97513
G1 X168.617 Y66.132 E5.00139
G1 X169.001 Y66.823 E5.02768
G1 X169.313 Y67.548 E5.05393
G1 X169.55 Y68.301 E5.08019
G1 X169.709 Y69.075 E5.10647
G1 X169.79 Y69.86 E5.13272
G1 X169.8 Y70.262 E5.14609
G1 X169.8 Y80.616 E5.49047
G1 X182.667 Y80.616 E5.91842
G1 X183.456 Y80.656 E5.9447
G1 X183.665 Y80.688 E5.95173
G1 X184.265 Y80.626 E5.9718
G1 X184.962 Y80.622 E5.99498
G1 X185.701 Y80.65 E6.01957
G1 X186.25 Y80.69 E6.03788
G1 X186.893 Y80.76 E6.0594
G1 X187.409 Y80.834 E6.07673
G1 X188.047 Y80.947 E6.09828
G1 X188.57 Y81.058 E6.11607
G1 X189.197 Y81.214 E6.13756
G1 X189.708 Y81.36 E6.15523
G1 X190.325 Y81.559 E6.17679
G1 X190.826 Y81.739 E6.1945
G1 X191.429 Y81.98 E6.2161
G1 X191.925 Y82.199 E6.23413
G1 X192.507 Y82.48 E6.25563
G1 X192.969 Y82.722 E6.27297
G1 X193.52 Y83.035 E6.29405
G1 X194.186 Y83.459 E6.32031
G1 X194.805 Y83.949 E6.34657
G1 X195.372 Y84.498 E6.37282
G1 X195.881 Y85.102 E6.39909
G1 X196.326 Y85.755 E6.42537
G1 X196.702 Y86.449 E6.45163
G1 X197.007 Y87.178 E6.47791
G1 X197.236 Y87.933 E6.50415
G1 X197.388 Y88.708 E6.53042
G1 X197.467 Y89.817 E6.5674
G1 X197.467 Y104.337 E7.05033
G1 X197.427 Y105.126 E7.07661
G1 X197.308 Y105.906 E7.10285
G1 X197.11 Y106.671 E7.12913
G1 X196.883 Y107.284 E7.15088
G1 X196.884 Y127.667 E7.82882
G1 X196.844 Y128.456 E7.85509
G1 X196.725 Y129.236 E7.88134
G1 X196.527 Y130.001 E7.90762
G1 X196.253 Y130.741 E7.93386
G1 X195.905 Y131.45 E7.96013
G1 X195.487 Y132.121 E7.98643
G1 X195.004 Y132.745 E8.01267
G1 X194.461 Y133.318 E8.03893
G1 X193.862 Y133.833 E8.0652
G1 X193.214 Y134.284 E8.09146
G1 X192.523 Y134.668 E8.11775
G1 X191.798 Y134.98 E8.14401
G1 X191.045 Y135.217 E8.17026
G1 X190.271 Y135.376 E8.19654
G1 X189.486 Y135.457 E8.22279
G1 X189.084 Y135.467 E8.23617
G1 X169.8 Y135.468 E8.87755
G1 X169.8 Y149.932 E9.35863
G1 X169.76 Y150.721 E9.3849
G1 X169.641 Y151.501 E9.41115
G1 X169.443 Y152.266 E9.43743
G1 X169.169 Y153.006 E9.46368
G1 X168.821 Y153.715 E9.48994
G1 X168.403 Y154.386 E9.51624
G1 X167.92 Y155.01 E9.54248
G1 X167.377 Y155.583 E9.56874
G1 X166.778 Y156.098 E9.59501
G1 X166.13 Y156.549 E9.62127
G1 X165.439 Y156.933 E9.64757
G1 X164.714 Y157.245 E9.67382
G1 X163.961 Y157.482 E9.70007
G1 X163.187 Y157.641 E9.72635
G1 X162.402 Y157.722 E9.7526
G1 X162 Y157.732 E9.76598
G1 X77.831 Y157.731 E12.56545
G1 X77.492 Y157.724 E12.57673
G1 X76.803 Y157.694 E12.59966
G1 X76.421 Y157.668 E12.6124
G1 X75.839 Y157.614 E12.63184
G1 X75.447 Y157.567 E12.64497
G1 X74.802 Y157.474 E12.66665
G1 X74.383 Y157.402 E12.68079
G1 X73.729 Y157.271 E12.70297
G1 X73.313 Y157.176 E12.71716
G1 X72.716 Y157.022 E12.73767
G1 X72.339 Y156.914 E12.75071
G1 X71.753 Y156.731 E12.77113
G1 X71.388 Y156.607 E12.78395
G1 X70.811 Y156.395 E12.8044
G1 X70.461 Y156.257 E12.81691
G1 X69.96 Y156.045 E12.83501
G1 X69.25 Y155.701 E12.86125
G1 X68.577 Y155.287 E12.88753
G1 X67.95 Y154.807 E12.91379
G1 X67.375 Y154.266 E12.94005
G1 X66.858 Y153.669 E12.96632
G1 X66.403 Y153.024 E12.99257
G1 X66.016 Y152.335 E13.01885
G1 X65.701 Y151.611 E13.04511
G1 X65.46 Y150.859 E13.07138
G1 X65.297 Y150.087 E13.09762
G1 X65.212 Y149.301 E13.12392
G1 X65.2 Y148.862 E13.13852
G1 X65.2 Y135.468 E13.58401
G1 X52.926 Y135.468 E13.99224
G1 X52.137 Y135.428 E14.01852
G1 X51.916 Y135.394 E14.02596
G1 X51.328 Y135.455 E14.04562
G1 X50.726 Y135.462 E14.06564
G1 X50.063 Y135.445 E14.0877
G1 X49.618 Y135.421 E14.10252
G1 X48.955 Y135.366 E14.12465
G1 X48.521 Y135.318 E14.13917
G1 X47.855 Y135.225 E14.16154
G1 X47.437 Y135.155 E14.17564
G1 X46.762 Y135.023 E14.19851
G1 X46.33 Y134.926 E14.21324
G1 X45.711 Y134.768 E14.23449
G1 X45.327 Y134.659 E14.24776
G1 X44.715 Y134.469 E14.26908
G1 X44.306 Y134.33 E14.28344
G1 X43.699 Y134.104 E14.30499
G1 X43.326 Y133.954 E14.31836
G1 X42.831 Y133.74 E14.33629
G1 X42.123 Y133.39 E14.36256
G1 X41.454 Y132.97 E14.38884
G1 X40.83 Y132.485 E14.41512
G1 X40.259 Y131.94 E14.44138
G1 X39.746 Y131.34 E14.46763
G1 X39.297 Y130.69 E14.49391
G1 X38.915 Y129.999 E14.52017
G1 X38.605 Y129.273 E14.54642
G1 X38.371 Y128.519 E14.57268
G1 X38.213 Y127.745 E14.59896
G1 X38.126 Y126.58 E14.63781
G1 X38.126 Y108.756 E15.23064
G1 X38.02 Y108.509 E15.23958
G1 X37.783 Y107.756 E15.26584
G1 X37.624 Y106.982 E15.29212
G1 X37.543 Y106.197 E15.31836
G1 X37.533 Y105.795 E15.33174
G1 X37.533 Y88.416 E15.90977
G0 F6000 X37.933 Y88.416
G1 F1200 X37.973 Y87.648 E15.93535
G1 X38.092 Y86.888 E15.96093
G1 X38.29 Y86.145 E15.98651
G1 X38.564 Y85.426 E16.0121
G1 X38.911 Y84.74 E16.03767
G1 X39.327 Y84.093 E16.06325
G1 X39.808 Y83.493 E16.08883
G1 X40.349 Y82.946 E16.11442
G1 X40.944 Y82.458 E16.14001
G1 X41.586 Y82.035 E16.16558
G1 X42.269 Y81.68 E16.19118
G1 X42.984 Y81.399 E16.21674
G1 X43.726 Y81.193 E16.24235
G1 X44.484 Y81.065 E16.26792
G1 X45.333 Y81.016 E16.2962
G1 X65.6 Y81.016 E16.97028
G1 X65.6 Y71.843 E17.27538
G1 X65.64 Y71.075 E17.30096
G1 X65.759 Y70.315 E17.32654
G1 X65.957 Y69.572 E17.35212
G1 X66.231 Y68.853 E17.37771
G1 X66.578 Y68.167 E17.40328
G1 X66.994 Y67.52 E17.42886
G1 X67.475 Y66.92 E17.45444
G1 X68.016 Y66.373 E17.48003
G1 X68.611 Y65.885 E17.50562
G1 X68.936 Y65.659 E17.51879
G1 X69.324 Y65.404 E17.53423
G1 X69.647 Y65.203 E17.54689
G1 X70.142 Y64.913 E17.56597
G1 X70.609 Y64.662 E17.5836
G1 X71.14 Y64.4 E17.60329
G1 X71.542 Y64.216 E17.618
G1 X71.948 Y64.045 E17.63265
G1 X72.34 Y63.893 E17.64663
G1 X72.905 Y63.692 E17.66658
G1 X73.418 Y63.53 E17.68447
G1 X73.973 Y63.377 E17.70362
G1 X74.723 Y63.2 E17.72925
G1 X75.138 Y63.12 E17.74331
G1 X75.924 Y63 E17.76975
G1 X76.402 Y62.945 E17.78576
G1 X77.216 Y62.883 E17.81291
G1 X77.83 Y62.862 E17.83334
G1 X78.599 Y62.884 E17.85893
G1 X78.996 Y62.937 E17.87225
G1 X79.151 Y62.911 E17.87748
G1 X80 Y62.862 E17.90576
G1 X133.333 Y62.862 E19.67963
G1 X134.101 Y62.902 E19.70521
G1 X134.327 Y62.937 E19.71281
G1 X134.484 Y62.911 E19.71811
G1 X135.333 Y62.862 E19.74639
G1 X162 Y62.862 E20.63334
G1 X162.768 Y62.902 E20.65892
G1 X163.528 Y63.021 E20.6845
G1 X164.271 Y63.219 E20.71008
G1 X164.99 Y63.493 E20.73567
G1 X165.676 Y63.84 E20.76124
G1 X166.323 Y64.256 E20.78682
G1 X166.923 Y64.737 E20.8124
G1 X167.47 Y65.278 E20.83799
G1 X167.958 Y65.873 E20.86358
G1 X168.381 Y66.515 E20.88915
G1 X168.736 Y67.198 E20.91475
G1 X169.017 Y67.913 E20.94031
G1 X169.223 Y68.655 E20.96592
G1 X169.351 Y69.413 E20.99149
G1 X169.4 Y70.262 E21.01977
G1 X169.4 Y81.016 E21.37745
G1 X182.667 Y81.016 E21.81871
G1 X183.435 Y81.056 E21.84429
G1 X183.661 Y81.091 E21.8519
G1 X183.818 Y81.065 E21.85719
G1 X184.947 Y81.021 E21.89477
G1 X185.686 Y81.049 E21.91937
G1 X186.207 Y81.087 E21.93674
G1 X186.85 Y81.157 E21.95825
G1 X187.34 Y81.227 E21.97472
G1 X187.978 Y81.34 E21.99627
G1 X188.474 Y81.446 E22.01314
G1 X189.101 Y81.602 E22.03463
G1 X189.585 Y81.74 E22.05137
G1 X190.202 Y81.939 E22.07293
G1 X190.677 Y82.11 E22.08972
G1 X191.28 Y82.351 E22.11132
G1 X191.751 Y82.559 E22.12844
G1 X192.333 Y82.84 E22.14994
G1 X192.771 Y83.07 E22.16639
G1 X193.322 Y83.383 E22.18747
G1 X193.97 Y83.797 E22.21305
G1 X194.572 Y84.276 E22.23863
G1 X195.121 Y84.815 E22.26422
G1 X195.61 Y85.408 E22.28979
G1 X196.036 Y86.049 E22.31539
G1 X196.393 Y86.73 E22.34096
G1 X196.677 Y87.445 E22.36655
G1 X196.885 Y88.185 E22.39211
G1 X197.015 Y88.944 E22.41773
G1 X197.067 Y89.817 E22.44681
G1 X197.067 Y104.337 E22.92975
G1 X197.027 Y105.105 E22.95533
G1 X196.908 Y105.865 E22.98091
G1 X196.71 Y106.608 E23.00649
G1 X196.478 Y107.218 E23.0282
G1 X196.484 Y107.327 E23.03183
G1 X196.484 Y127.667 E23.70834
G1 X196.444 Y128.435 E23.73392
G1 X196.325 Y129.195 E23.7595
G1 X196.127 Y129.938 E23.78508
G1 X195.853 Y130.657 E23.81067
G1 X195.506 Y131.343 E23.83624
G1 X195.09 Y131.99 E23.86182
G1 X194.609 Y132.59 E23.8874
G1 X194.068 Y133.137 E23.91299
G1 X193.473 Y133.625 E23.93858
G1 X192.831 Y134.048 E23.96415
G1 X192.148 Y134.403 E23.98975
G1 X191.433 Y134.684 E24.01531
G1 X190.691 Y134.89 E24.04092
G1 X189.933 Y135.018 E24.06649
G1 X189.084 Y135.067 E24.09477
G1 X169.4 Y135.068 E24.74946
G1 X169.4 Y149.932 E25.24384
G1 X169.36 Y150.7 E25.26942
G1 X169.241 Y151.46 E25.29501
G1 X169.043 Y152.203 E25.32058
G1 X168.769 Y152.922 E25.34617
G1 X168.422 Y153.608 E25.37174
G1 X168.006 Y154.255 E25.39733
G1 X167.525 Y154.855 E25.4229
G1 X166.984 Y155.402 E25.44849
G1 X166.389 Y155.89 E25.47409
G1 X165.747 Y156.313 E25.49966
G1 X165.064 Y156.668 E25.52526
G1 X164.349 Y156.949 E25.55081
G1 X163.607 Y157.155 E25.57642
G1 X162.849 Y157.283 E25.60199
G1 X162 Y157.332 E25.63028
G1 X77.831 Y157.331 E28.42975
G1 X76.82 Y157.294 E28.4634
G1 X76.458 Y157.269 E28.47547
G1 X75.876 Y157.215 E28.49491
G1 X75.504 Y157.171 E28.50737
G1 X74.859 Y157.078 E28.52904
G1 X74.462 Y157.01 E28.54244
G1 X73.808 Y156.879 E28.56462
G1 X73.413 Y156.788 E28.5781
G1 X72.816 Y156.634 E28.59861
G1 X72.458 Y156.533 E28.61098
G1 X71.872 Y156.35 E28.6314
G1 X71.526 Y156.232 E28.64356
G1 X70.949 Y156.02 E28.664
G1 X70.617 Y155.889 E28.67588
G1 X70.116 Y155.677 E28.69397
G1 X69.424 Y155.341 E28.71955
G1 X68.771 Y154.935 E28.74513
G1 X68.164 Y154.463 E28.7707
G1 X67.608 Y153.931 E28.7963
G1 X67.111 Y153.344 E28.82188
G1 X66.678 Y152.708 E28.84747
G1 X66.313 Y152.031 E28.87305
G1 X66.02 Y151.32 E28.89863
G1 X65.803 Y150.582 E28.92421
G1 X65.663 Y149.826 E28.94979
G1 X65.6 Y148.862 E28.98192
G1 X65.6 Y135.068 E29.44071
G1 X52.926 Y135.068 E29.86225
G1 X52.158 Y135.028 E29.88782
G1 X51.922 Y134.991 E29.89577
G1 X51.775 Y135.016 E29.90073
G1 X50.736 Y135.063 E29.93532
G1 X50.073 Y135.046 E29.95738
G1 X49.651 Y135.023 E29.97144
G1 X48.988 Y134.968 E29.99356
G1 X48.577 Y134.922 E30.00732
G1 X47.911 Y134.829 E30.02969
G1 X47.514 Y134.762 E30.04308
G1 X46.839 Y134.63 E30.06595
G1 X46.429 Y134.538 E30.07993
G1 X45.81 Y134.38 E30.10118
G1 X45.446 Y134.277 E30.11376
G1 X44.834 Y134.087 E30.13507
G1 X44.446 Y133.955 E30.1487
G1 X43.839 Y133.729 E30.17025
G1 X43.484 Y133.586 E30.18298
G1 X42.989 Y133.372 E30.20091
G1 X42.3 Y133.031 E30.22648
G1 X41.65 Y132.62 E30.25206
G1 X41.046 Y132.143 E30.27766
G1 X40.495 Y131.607 E30.30323
G1 X40.003 Y131.016 E30.3288
G1 X39.574 Y130.377 E30.3544
G1 X39.215 Y129.697 E30.37998
G1 X38.927 Y128.984 E30.40555
G1 X38.716 Y128.244 E30.43115
G1 X38.582 Y127.487 E30.45671
G1 X38.526 Y126.58 E30.48694
G1 X38.526 Y108.678 E31.08236
G1 X38.316 Y108.144 E31.10145
G1 X38.11 Y107.403 E31.12703
G1 X37.982 Y106.644 E31.15263
G1 X37.933 Y105.795 E31.18091
G1 X37.933 Y88.416 E31.75894
G0 F6000 X38.333 Y88.416
G1 F1200 X38.373 Y87.669 E31.78382
G1 X38.492 Y86.931 E31.80868
G1 X38.69 Y86.209 E31.83359
G1 X38.963 Y85.513 E31.85845
G1 X39.31 Y84.85 E31.88334
G1 X39.725 Y84.227 E31.90824
G1 X40.204 Y83.653 E31.9331
G1 X40.741 Y83.132 E31.95799
G1 X41.331 Y82.673 E31.98285
G1 X41.967 Y82.278 E32.00775
G1 X42.641 Y81.954 E32.03263
G1 X43.346 Y81.704 E32.0575
G1 X44.074 Y81.53 E32.0824
G1 X44.816 Y81.435 E32.10728
G1 X45.333 Y81.416 E32.12449
G1 X66 Y81.416 E32.81187
G1 X66 Y71.843 E33.13027
G1 X66.04 Y71.096 E33.15515
G1 X66.159 Y70.358 E33.18002
G1 X66.357 Y69.636 E33.20492
G1 X66.63 Y68.94 E33.22978
G1 X66.977 Y68.277 E33.25467
G1 X67.392 Y67.654 E33.27957
G1 X67.871 Y67.08 E33.30444
G1 X68.408 Y66.559 E33.32932
G1 X69.155 Y65.993 E33.36049
G1 X69.543 Y65.738 E33.37594
G1 X69.85 Y65.548 E33.38794
G1 X70.345 Y65.258 E33.40703
G1 X70.786 Y65.021 E33.42368
G1 X71.317 Y64.759 E33.44337
G1 X71.697 Y64.585 E33.45727
G1 X72.103 Y64.414 E33.47192
G1 X72.474 Y64.27 E33.48516
G1 X73.039 Y64.069 E33.50511
G1 X73.525 Y63.916 E33.52205
G1 X74.08 Y63.763 E33.5412
G1 X74.81 Y63.591 E33.56615
G1 X75.203 Y63.515 E33.57946
G1 X75.97 Y63.397 E33.60527
G1 X76.448 Y63.342 E33.62127
G1 X77.242 Y63.282 E33.64776
G1 X77.839 Y63.262 E33.66762
G1 X78.587 Y63.285 E33.69251
G1 X79.004 Y63.342 E33.70651
G1 X79.483 Y63.281 E33.72257
G1 X80 Y63.262 E33.73978
G1 X133.333 Y63.262 E35.51364
G1 X134.08 Y63.302 E35.53852
G1 X134.333 Y63.343 E35.54705
G1 X134.816 Y63.281 E35.56325
G1 X135.333 Y63.262 E35.58045
G1 X162 Y63.262 E36.4674
G1 X162.747 Y63.302 E36.49228
G1 X163.485 Y63.421 E36.51714
G1 X164.207 Y63.619 E36.54204
G1 X164.903 Y63.892 E36.56691
G1 X165.566 Y64.239 E36.5918
G1 X166.189 Y64.654 E36.6167
G1 X166.763 Y65.133 E36.64156
G1 X167.284 Y65.67 E36.66645
G1 X167.743 Y66.26 E36.69131
G1 X168.138 Y66.896 E36.71621
G1 X168.462 Y67.57 E36.74109
G1 X168.712 Y68.275 E36.76596
G1 X168.886 Y69.003 E36.79086
G1 X168.981 Y69.745 E36.81574
G1 X169 Y70.262 E36.83295
G1 X169 Y81.416 E37.20393
G1 X182.667 Y81.416 E37.6585
G1 X183.414 Y81.456 E37.68338
G1 X183.667 Y81.497 E37.6919
G1 X184.15 Y81.435 E37.7081
G1 X184.932 Y81.421 E37.73411
G1 X185.671 Y81.449 E37.75871
G1 X186.164 Y81.485 E37.77515
G1 X186.807 Y81.555 E37.79666
G1 X187.27 Y81.621 E37.81222
G1 X187.908 Y81.734 E37.83377
G1 X188.377 Y81.834 E37.84972
G1 X189.004 Y81.99 E37.87121
G1 X189.463 Y82.121 E37.88708
G1 X190.08 Y82.32 E37.90865
G1 X190.529 Y82.482 E37.92452
G1 X191.132 Y82.723 E37.94612
G1 X191.578 Y82.919 E37.96232
G1 X192.16 Y83.2 E37.98382
G1 X192.573 Y83.417 E37.99934
G1 X193.124 Y83.73 E38.02041
G1 X193.754 Y84.134 E38.04531
G1 X194.337 Y84.603 E38.07019
G1 X194.867 Y85.131 E38.09507
G1 X195.337 Y85.713 E38.11996
G1 X195.743 Y86.341 E38.14483
G1 X196.079 Y87.009 E38.1697
G1 X196.342 Y87.71 E38.1946
G1 X196.529 Y88.434 E38.21947
G1 X196.637 Y89.174 E38.24434
G1 X196.667 Y89.817 E38.26575
G1 X196.667 Y104.337 E38.74869
