;FLAVOR:Marlin
;TIME:2817
;Filament used: 2.03424m
;Layer height: 0.2
;MINX:105.965
;MINY:76.7
;MINZ:0.2
;MAXX:125.939
;MAXY:158.3
;MAXZ:15
;Generated with Cura_SteamEngine 5.0.0
M140 S70
M105
M190 S70
M104 S200
M105
M109 S200
M82 ;absolute extrusion mode
; Ender 3 Custom Start G-code
G28 ; Home all axes
M420 S1; Bed Leveling On
G92 E0 ; Reset Extruder
G1 Z2.0 F3000 ; Move Z Axis up little to prevent scratching of Heat Bed
G1 X0.1 Y20 Z0.3 F5000.0 ; Move to start position
G1 X0.1 Y200.0 Z0.3 F1500.0 E15 ; Draw the first line
G1 X0.4 Y200.0 Z0.3 F5000.0 ; Move to side a little
G1 X0.4 Y20 Z0.3 F1500.0 E30 ; Draw the second line
G92 E0 ; Reset Extruder
G1 Z2.0 F3000 ; Move Z Axis up little to prevent scratching of Heat Bed
G1 X5 Y20 Z0.3 F5000.0 ; Move over to prevent blob squish
G92 E0
G92 E0
G1 F2700 E-5
;LAYER_COUNT:75
;LAYER:0
M107
G0 F6000 X107.361 Y80.046 Z0.2
G0 X105.965 Y84.5
;TYPE:SKIRT
G1 F2700 E0
G1 F1200 X106.005 Y83.711 E0.02628
G1 X106.124 Y82.931 E0.05252
G1 X106.322 Y82.166 E0.0788
G1 X106.596 Y81.426 E0.10505
G1 X106.944 Y80.717 E0.13132
G1 X107.361 Y80.046 E0.15759
G1 X107.845 Y79.422 E0.18386
G1 X108.388 Y78.849 E0.21011
G1 X108.987 Y78.334 E0.23639
G1 X109.635 Y77.883 E0.26265
G1 X110.325 Y77.499 E0.28891
G1 X111.051 Y77.187 E0.31519
G1 X111.804 Y76.95 E0.34145
G1 X112.578 Y76.791 E0.36773
G1 X113.363 Y76.71 E0.39398
G1 X113.765 Y76.7 E0.40735
G1 X114.715 Y76.7 E0.43895
G1 X115.047 Y76.717 E0.45001
G1 X115.515 Y76.7 E0.46558
G1 X118.139 Y76.7 E0.55286
G1 X118.928 Y76.74 E0.57913
G1 X119.708 Y76.859 E0.60538
G1 X120.473 Y77.057 E0.63166
G1 X121.213 Y77.331 E0.6579
G1 X121.922 Y77.679 E0.68417
G1 X122.593 Y78.097 E0.71047
G1 X123.217 Y78.58 E0.73671
G1 X123.79 Y79.123 E0.76297
G1 X124.305 Y79.722 E0.78924
G1 X124.756 Y80.37 E0.8155
G1 X125.14 Y81.061 E0.84179
G1 X125.452 Y81.786 E0.86805
G1 X125.689 Y82.539 E0.8943
G1 X125.848 Y83.313 E0.92058
G1 X125.929 Y84.098 E0.94683
G1 X125.939 Y84.5 E0.9602
G1 X125.939 Y150.5 E3.15537
G1 X125.899 Y151.289 E3.18165
G1 X125.78 Y152.069 E3.20789
G1 X125.582 Y152.834 E3.23418
G1 X125.308 Y153.574 E3.26042
G1 X124.96 Y154.283 E3.28669
G1 X124.542 Y154.954 E3.31298
G1 X124.059 Y155.578 E3.33923
G1 X123.516 Y156.151 E3.36548
G1 X122.917 Y156.666 E3.39176
G1 X122.269 Y157.117 E3.41802
G1 X121.578 Y157.501 E3.44431
G1 X120.853 Y157.813 E3.47056
G1 X120.1 Y158.05 E3.49682
G1 X119.326 Y158.209 E3.5231
G1 X118.541 Y158.29 E3.54935
G1 X118.139 Y158.3 E3.56272
G1 X115.516 Y158.3 E3.64996
G1 X115.184 Y158.283 E3.66102
G1 X114.716 Y158.3 E3.6766
G1 X113.766 Y158.3 E3.70819
G1 X112.977 Y158.26 E3.73447
G1 X112.197 Y158.141 E3.76071
G1 X111.432 Y157.943 E3.78699
G1 X110.692 Y157.669 E3.81324
G1 X109.983 Y157.321 E3.83951
G1 X109.312 Y156.903 E3.8658
G1 X108.688 Y156.42 E3.89205
G1 X108.115 Y155.877 E3.9183
G1 X107.6 Y155.278 E3.94458
G1 X107.149 Y154.63 E3.97084
G1 X106.765 Y153.939 E3.99713
G1 X106.453 Y153.214 E4.02338
G1 X106.216 Y152.461 E4.04964
G1 X106.057 Y151.687 E4.07592
G1 X105.976 Y150.902 E4.10217
G1 X105.966 Y150.5 E4.11554
G1 X105.965 Y84.5 E6.31071
G0 F6000 X106.365 Y84.5
G1 F1200 X106.405 Y83.732 E6.33629
G1 X106.524 Y82.972 E6.36187
G1 X106.722 Y82.229 E6.38745
G1 X106.996 Y81.51 E6.41304
G1 X107.343 Y80.824 E6.43861
G1 X107.759 Y80.177 E6.46419
G1 X108.24 Y79.577 E6.48977
G1 X108.781 Y79.03 E6.51536
G1 X109.376 Y78.542 E6.54095
G1 X110.018 Y78.119 E6.56652
G1 X110.701 Y77.764 E6.59213
G1 X111.416 Y77.483 E6.61768
G1 X112.157 Y77.277 E6.64326
G1 X112.916 Y77.149 E6.66886
G1 X113.765 Y77.1 E6.69714
G1 X114.715 Y77.1 E6.72874
G1 X115.136 Y77.122 E6.74276
G1 X115.515 Y77.1 E6.75539
G1 X118.139 Y77.1 E6.84266
G1 X118.907 Y77.14 E6.86824
G1 X119.667 Y77.259 E6.89383
G1 X120.41 Y77.457 E6.9194
G1 X121.129 Y77.731 E6.945
G1 X121.815 Y78.078 E6.97056
G1 X122.462 Y78.494 E6.99615
G1 X123.062 Y78.975 E7.02173
G1 X123.609 Y79.516 E7.04731
G1 X124.097 Y80.111 E7.07291
G1 X124.52 Y80.753 E7.09848
G1 X124.875 Y81.436 E7.12408
G1 X125.156 Y82.151 E7.14963
G1 X125.362 Y82.893 E7.17525
G1 X125.49 Y83.651 E7.20081
G1 X125.539 Y84.5 E7.2291
G1 X125.539 Y150.5 E9.42427
G1 X125.499 Y151.268 E9.44985
G1 X125.38 Y152.028 E9.47543
G1 X125.182 Y152.771 E9.50101
G1 X124.908 Y153.49 E9.5266
G1 X124.561 Y154.176 E9.55217
G1 X124.145 Y154.823 E9.57775
G1 X123.664 Y155.423 E9.60333
G1 X123.123 Y155.97 E9.62892
G1 X122.528 Y156.458 E9.65451
G1 X121.886 Y156.881 E9.68008
G1 X121.203 Y157.236 E9.70568
G1 X120.488 Y157.517 E9.73124
G1 X119.746 Y157.723 E9.75685
G1 X118.988 Y157.851 E9.78242
G1 X118.139 Y157.9 E9.8107
G1 X115.516 Y157.9 E9.89794
G1 X115.095 Y157.878 E9.91196
G1 X114.716 Y157.9 E9.92459
G1 X113.766 Y157.9 E9.95619
G1 X112.998 Y157.86 E9.98177
G1 X112.238 Y157.741 E10.00735
G1 X111.495 Y157.543 E10.03293
G1 X110.776 Y157.269 E10.05852
G1 X110.09 Y156.922 E10.08409
G1 X109.443 Y156.506 E10.10967
G1 X108.843 Y156.025 E10.13525
G1 X108.296 Y155.484 E10.16084
G1 X107.808 Y154.889 E10.18643
G1 X107.385 Y154.247 E10.212
G1 X107.03 Y153.564 E10.2376
G1 X106.749 Y152.849 E10.26316
G1 X106.543 Y152.107 E10.28877
G1 X106.415 Y151.349 E10.31434
G1 X106.366 Y150.5 E10.34262
G1 X106.365 Y84.5 E12.53779
G0 F6000 X106.765 Y84.5
G1 F1200 X106.805 Y83.753 E12.56267
G1 X106.924 Y83.015 E12.58753
G1 X107.122 Y82.293 E12.61243
G1 X107.395 Y81.597 E12.6373
G1 X107.742 Y80.934 E12.66219
G1 X108.157 Y80.311 E12.68709
G1 X108.636 Y79.737 E12.71195
G1 X109.173 Y79.217 E12.73682
G1 X109.763 Y78.757 E12.7617
G1 X110.399 Y78.362 E12.7866
G1 X111.073 Y78.038 E12.81147
G1 X111.778 Y77.788 E12.83635
G1 X112.506 Y77.614 E12.86125
G1 X113.248 Y77.519 E12.88613
G1 X113.765 Y77.5 E12.90333
G1 X114.715 Y77.5 E12.93493
G1 X115.041 Y77.517 E12.94579
G1 X115.515 Y77.5 E12.96156
G1 X118.139 Y77.5 E13.04884
G1 X118.886 Y77.54 E13.07372
G1 X119.624 Y77.659 E13.09858
G1 X120.346 Y77.857 E13.12348
G1 X121.042 Y78.13 E13.14835
G1 X121.705 Y78.477 E13.17324
G1 X122.328 Y78.892 E13.19814
G1 X122.902 Y79.371 E13.223
G1 X123.423 Y79.908 E13.24789
G1 X123.882 Y80.498 E13.27275
G1 X124.277 Y81.134 E13.29765
G1 X124.601 Y81.808 E13.32252
G1 X124.851 Y82.513 E13.3474
G1 X125.025 Y83.241 E13.3723
G1 X125.12 Y83.983 E13.39718
G1 X125.139 Y84.5 E13.41439
G1 X125.139 Y150.5 E15.60955
G1 X125.099 Y151.247 E15.63444
G1 X124.98 Y151.985 E15.6593
G1 X124.782 Y152.707 E15.6842
G1 X124.509 Y153.403 E15.70907
G1 X124.162 Y154.066 E15.73395
G1 X123.747 Y154.689 E15.75885
G1 X123.268 Y155.263 E15.78372
G1 X122.731 Y155.784 E15.8086
G1 X122.141 Y156.243 E15.83347
G1 X121.505 Y156.638 E15.85837
G1 X120.831 Y156.962 E15.88324
G1 X120.126 Y157.212 E15.90812
G1 X119.398 Y157.386 E15.93301
G1 X118.656 Y157.481 E15.95789
G1 X118.139 Y157.5 E15.9751
G1 X115.516 Y157.5 E16.06234
G1 X115.19 Y157.483 E16.0732
G1 X114.716 Y157.5 E16.08898
G1 X113.766 Y157.5 E16.12057
G1 X113.019 Y157.46 E16.14545
G1 X112.281 Y157.341 E16.17032
G1 X111.559 Y157.143 E16.19522
G1 X110.863 Y156.87 E16.22008
G1 X110.2 Y156.523 E16.24497
G1 X109.577 Y156.108 E16.26987
G1 X109.003 Y155.629 E16.29474
G1 X108.482 Y155.092 E16.31962
G1 X108.023 Y154.502 E16.34448
G1 X107.628 Y153.866 E16.36938
G1 X107.304 Y153.192 E16.39426
G1 X107.054 Y152.487 E16.41914
G1 X106.88 Y151.759 E16.44403
G1 X106.785 Y151.017 E16.46891
G1 X106.766 Y150.5 E16.48612
G1 X106.765 Y84.5 E18.68129
G0 F6000 X107.165 Y84.5
G1 F1200 X107.205 Y83.775 E18.70544
G1 X107.324 Y83.058 E18.72961
G1 X107.522 Y82.359 E18.75378
G1 X107.795 Y81.686 E18.77793
G1 X108.14 Y81.047 E18.80208
G1 X108.554 Y80.45 E18.82625
G1 X109.03 Y79.902 E18.85039
G1 X109.564 Y79.409 E18.87456
G1 X110.149 Y78.979 E18.89871
G1 X110.778 Y78.615 E18.92288
G1 X111.442 Y78.322 E18.94702
G1 X112.135 Y78.104 E18.97118
G1 X112.848 Y77.964 E18.99535
G1 X113.765 Y77.9 E19.02593
G1 X114.715 Y77.9 E19.05752
G1 X115.162 Y77.925 E19.07241
G1 X115.515 Y77.9 E19.08418
G1 X118.139 Y77.9 E19.17146
G1 X118.864 Y77.94 E19.19561
G1 X119.581 Y78.059 E19.21978
G1 X120.28 Y78.257 E19.24395
G1 X120.953 Y78.53 E19.2681
G1 X121.592 Y78.875 E19.29225
G1 X122.189 Y79.289 E19.31642
G1 X122.737 Y79.765 E19.34056
G1 X123.23 Y80.299 E19.36473
G1 X123.66 Y80.884 E19.38888
G1 X124.024 Y81.513 E19.41305
G1 X124.317 Y82.178 E19.43722
G1 X124.535 Y82.871 E19.46138
G1 X124.675 Y83.583 E19.48552
G1 X124.739 Y84.5 E19.51609
G1 X124.739 Y150.5 E21.71126
G1 X124.699 Y151.225 E21.73541
G1 X124.58 Y151.942 E21.75959
G1 X124.382 Y152.641 E21.78375
G1 X124.109 Y153.314 E21.80791
G1 X123.764 Y153.953 E21.83206
G1 X123.35 Y154.55 E21.85622
G1 X122.874 Y155.098 E21.88036
G1 X122.34 Y155.591 E21.90454
G1 X121.755 Y156.021 E21.92868
G1 X121.126 Y156.385 E21.95286
G1 X120.461 Y156.678 E21.97703
G1 X119.768 Y156.896 E22.00119
G1 X119.056 Y157.036 E22.02532
G1 X118.139 Y157.1 E22.0559
G1 X115.516 Y157.1 E22.14314
G1 X115.069 Y157.075 E22.15803
G1 X114.716 Y157.1 E22.1698
G1 X113.766 Y157.1 E22.2014
G1 X113.041 Y157.06 E22.22555
G1 X112.324 Y156.941 E22.24972
G1 X111.625 Y156.743 E22.27388
G1 X110.952 Y156.47 E22.29804
G1 X110.313 Y156.125 E22.32219
G1 X109.716 Y155.711 E22.34636
G1 X109.168 Y155.235 E22.3705
G1 X108.675 Y154.701 E22.39467
G1 X108.245 Y154.116 E22.41882
G1 X107.881 Y153.487 E22.44299
G1 X107.588 Y152.822 E22.46716
G1 X107.37 Y152.129 E22.49132
G1 X107.23 Y151.417 E22.51546
G1 X107.166 Y150.5 E22.54603
G1 X107.165 Y84.5 E24.7412
G0 F6000 X107.565 Y84.5
G1 F1200 X107.605 Y83.797 E24.76462
G1 X107.724 Y83.103 E24.78804
G1 X107.922 Y82.428 E24.81144
G1 X108.194 Y81.779 E24.83484
G1 X108.539 Y81.165 E24.85827
G1 X108.95 Y80.594 E24.88166
G1 X109.424 Y80.073 E24.90509
G1 X109.954 Y79.609 E24.92852
G1 X110.533 Y79.209 E24.95193
G1 X111.154 Y78.877 E24.97535
G1 X111.808 Y78.617 E24.99876
G1 X112.488 Y78.433 E25.02219
G1 X113.184 Y78.327 E25.0456
G1 X113.765 Y78.3 E25.06495
G1 X114.715 Y78.3 E25.09654
G1 X115.075 Y78.32 E25.10854
G1 X115.515 Y78.3 E25.12319
G1 X118.139 Y78.3 E25.21046
G1 X118.842 Y78.34 E25.23388
G1 X119.536 Y78.459 E25.2573
G1 X120.211 Y78.657 E25.2807
G1 X120.86 Y78.929 E25.3041
G1 X121.474 Y79.274 E25.32753
G1 X122.045 Y79.685 E25.35093
G1 X122.566 Y80.159 E25.37435
G1 X123.03 Y80.689 E25.39778
G1 X123.43 Y81.268 E25.42119
G1 X123.762 Y81.889 E25.44461
G1 X124.022 Y82.543 E25.46802
G1 X124.206 Y83.223 E25.49145
G1 X124.312 Y83.919 E25.51486
G1 X124.339 Y84.5 E25.53421
G1 X124.339 Y150.5 E27.72938
G1 X124.299 Y151.203 E27.7528
G1 X124.18 Y151.897 E27.77622
G1 X123.982 Y152.572 E27.79961
G1 X123.71 Y153.221 E27.82302
G1 X123.365 Y153.835 E27.84644
G1 X122.954 Y154.406 E27.86984
G1 X122.48 Y154.927 E27.89327
G1 X121.95 Y155.391 E27.9167
G1 X121.371 Y155.791 E27.9401
G1 X120.75 Y156.123 E27.96352
G1 X120.096 Y156.383 E27.98693
G1 X119.416 Y156.567 E28.01036
G1 X118.72 Y156.673 E28.03378
G1 X118.139 Y156.7 E28.05312
G1 X115.516 Y156.7 E28.14037
G1 X115.156 Y156.68 E28.15236
G1 X114.716 Y156.7 E28.16701
G1 X113.766 Y156.7 E28.1986
G1 X113.063 Y156.66 E28.22202
G1 X112.369 Y156.541 E28.24544
G1 X111.694 Y156.343 E28.26884
G1 X111.045 Y156.071 E28.29224
G1 X110.431 Y155.726 E28.31567
G1 X109.86 Y155.315 E28.33907
G1 X109.339 Y154.841 E28.3625
G1 X108.875 Y154.311 E28.38593
G1 X108.475 Y153.732 E28.40933
G1 X108.143 Y153.111 E28.43275
G1 X107.883 Y152.457 E28.45616
G1 X107.699 Y151.777 E28.47959
G1 X107.593 Y151.081 E28.50301
G1 X107.566 Y150.5 E28.52235
G1 X107.565 Y84.5 E30.71752
G0 F6000 X107.965 Y84.5
G1 F1200 X108.005 Y83.82 E30.74018
G1 X108.124 Y83.15 E30.76281
G1 X108.321 Y82.498 E30.78546
G1 X108.593 Y81.874 E30.8081
G1 X108.937 Y81.286 E30.83076
G1 X109.347 Y80.743 E30.85339
G1 X109.818 Y80.251 E30.87605
G1 X110.343 Y79.817 E30.8987
G1 X110.915 Y79.448 E30.92134
G1 X111.527 Y79.149 E30.944
G1 X112.169 Y78.924 E30.96662
G1 X112.834 Y78.775 E30.98929
G1 X113.765 Y78.7 E31.02035
G1 X114.715 Y78.7 E31.05195
G1 X115.177 Y78.727 E31.06734
G1 X115.515 Y78.7 E31.07862
G1 X118.139 Y78.7 E31.1659
G1 X118.819 Y78.74 E31.18855
G1 X119.489 Y78.859 E31.21119
G1 X120.141 Y79.056 E31.23384
G1 X120.765 Y79.328 E31.25648
G1 X121.353 Y79.672 E31.27914
G1 X121.897 Y80.082 E31.30179
G1 X122.388 Y80.553 E31.32442
G1 X122.822 Y81.078 E31.34708
G1 X123.191 Y81.65 E31.36972
G1 X123.49 Y82.262 E31.39237
G1 X123.715 Y82.904 E31.415
G1 X123.864 Y83.569 E31.43767
G1 X123.939 Y84.5 E31.46873
G1 X123.939 Y150.5 E33.6639
G1 X123.899 Y151.18 E33.68656
G1 X123.78 Y151.85 E33.70919
G1 X123.583 Y152.502 E33.73184
G1 X123.311 Y153.126 E33.75448
G1 X122.967 Y153.714 E33.77714
G1 X122.557 Y154.258 E33.7998
G1 X122.086 Y154.749 E33.82243
G1 X121.561 Y155.183 E33.84508
G1 X120.989 Y155.552 E33.86772
G1 X120.377 Y155.851 E33.89038
G1 X119.735 Y156.076 E33.91301
G1 X119.07 Y156.225 E33.93567
G1 X118.139 Y156.3 E33.96674
G1 X115.516 Y156.3 E34.05398
G1 X115.054 Y156.273 E34.06937
G1 X114.716 Y156.3 E34.08065
G1 X113.766 Y156.3 E34.11225
G1 X113.086 Y156.26 E34.1349
G1 X112.416 Y156.141 E34.15754
G1 X111.764 Y155.944 E34.18019
G1 X111.14 Y155.672 E34.20283
G1 X110.552 Y155.328 E34.22549
G1 X110.008 Y154.918 E34.24814
G1 X109.517 Y154.447 E34.27077
G1 X109.083 Y153.922 E34.29343
G1 X108.714 Y153.35 E34.31607
G1 X108.415 Y152.738 E34.33872
G1 X108.19 Y152.096 E34.36135
G1 X108.041 Y151.431 E34.38402
G1 X107.966 Y150.5 E34.41508
G1 X107.965 Y84.5 E36.61025
G0 F6000 X108.365 Y84.5
G1 F1200 X108.405 Y83.844 E36.63211
G1 X108.524 Y83.198 E36.65396
G1 X108.721 Y82.572 E36.67579
G1 X108.993 Y81.973 E36.69767
G1 X109.335 Y81.412 E36.71952
G1 X109.742 Y80.897 E36.74135
G1 X110.21 Y80.436 E36.7632
G1 X110.73 Y80.034 E36.78506
G1 X111.294 Y79.698 E36.8069
G1 X111.896 Y79.434 E36.82876
G1 X112.525 Y79.244 E36.85061
G1 X113.172 Y79.133 E36.87245
G1 X113.765 Y79.1 E36.8922
G1 X114.715 Y79.1 E36.9238
G1 X115.097 Y79.123 E36.93653
G1 X115.515 Y79.1 E36.95045
G1 X118.139 Y79.1 E37.03773
G1 X118.795 Y79.14 E37.05958
G1 X119.441 Y79.259 E37.08143
G1 X120.068 Y79.456 E37.10329
G1 X120.666 Y79.728 E37.12514
G1 X121.227 Y80.07 E37.14699
G1 X121.742 Y80.478 E37.16885
G1 X122.204 Y80.945 E37.1907
G1 X122.605 Y81.465 E37.21254
G1 X122.941 Y82.029 E37.23437
G1 X123.205 Y82.631 E37.25624
G1 X123.395 Y83.26 E37.27809
G1 X123.506 Y83.907 E37.29992
G1 X123.539 Y84.5 E37.31968
G1 X123.539 Y150.5 E39.51485
G1 X123.499 Y151.156 E39.53671
G1 X123.38 Y151.802 E39.55855
G1 X123.183 Y152.429 E39.58041
G1 X122.911 Y153.027 E39.60226
G1 X122.569 Y153.588 E39.62412
G1 X122.161 Y154.103 E39.64597
G1 X121.694 Y154.565 E39.66782
G1 X121.174 Y154.966 E39.68966
G1 X120.61 Y155.302 E39.71149
G1 X120.008 Y155.566 E39.73336
G1 X119.379 Y155.756 E39.75521
G1 X118.732 Y155.867 E39.77704
G1 X118.139 Y155.9 E39.7968
G1 X115.516 Y155.9 E39.88404
G1 X115.134 Y155.877 E39.89677
G1 X114.716 Y155.9 E39.91069
G1 X113.766 Y155.9 E39.94229
G1 X113.11 Y155.86 E39.96415
G1 X112.464 Y155.741 E39.986
G1 X111.837 Y155.544 E40.00785
G1 X111.239 Y155.272 E40.02971
G1 X110.678 Y154.93 E40.05156
G1 X110.163 Y154.522 E40.07341
G1 X109.701 Y154.055 E40.09526
G1 X109.3 Y153.535 E40.1171
G1 X108.964 Y152.971 E40.13894
G1 X108.7 Y152.369 E40.1608
G1 X108.51 Y151.74 E40.18265
G1 X108.399 Y151.093 E40.20449
G1 X108.366 Y150.5 E40.22424
G1 X108.365 Y84.5 E42.41941
G0 F6000 X108.765 Y84.5
G1 F1200 X108.805 Y83.869 E42.44044
G1 X108.924 Y83.248 E42.46147
G1 X109.121 Y82.648 E42.48247
G1 X109.392 Y82.076 E42.50353
G1 X109.732 Y81.544 E42.52452
G1 X110.138 Y81.059 E42.54556
G1 X110.601 Y80.629 E42.56658
G1 X111.115 Y80.26 E42.58762
G1 X111.671 Y79.96 E42.60864
G1 X112.26 Y79.732 E42.62964
G1 X112.874 Y79.58 E42.65068
G1 X113.765 Y79.5 E42.68043
G1 X114.715 Y79.5 E42.71203
G1 X115.184 Y79.53 E42.72766
G1 X115.515 Y79.5 E42.73872
G1 X118.139 Y79.5 E42.82599
G1 X118.77 Y79.54 E42.84702
G1 X119.391 Y79.659 E42.86805
G1 X119.991 Y79.856 E42.88906
G1 X120.563 Y80.127 E42.91011
G1 X121.095 Y80.467 E42.93111
G1 X121.58 Y80.873 E42.95214
G1 X122.01 Y81.336 E42.97316
G1 X122.379 Y81.85 E42.99421
G1 X122.679 Y82.406 E43.01522
G1 X122.907 Y82.995 E43.03622
G1 X123.059 Y83.609 E43.05726
G1 X123.139 Y84.5 E43.08702
G1 X123.139 Y150.5 E45.28219
G1 X123.099 Y151.131 E45.30322
G1 X122.98 Y151.752 E45.32425
G1 X122.783 Y152.352 E45.34525
G1 X122.512 Y152.924 E45.3663
