;FLAVOR:Marlin
;TIME:23864
;Filament used: 14.8147m
;Layer height: 0.2
;MINX:20.349
;MINY:20.349
;MINZ:0.2
;MAXX:213.959
;MAXY:213.959
;MAXZ:58
;Generated with Cura_SteamEngine 5.0.0
M140 S70
M105
M190 S70
M104 S200
M105
M109 S200
M82 ;absolute extrusion mode
; Ender 3 Custom Start G-code
G28 ; Home all axes
M420 S1; Bed Leveling On
G92 E0 ; Reset Extruder
G1 Z2.0 F3000 ; Move Z Axis up little to prevent scratching of Heat Bed
G1 X0.1 Y20 Z0.3 F5000.0 ; Move to start position
G1 X0.1 Y200.0 Z0.3 F1500.0 E15 ; Draw the first line
G1 X0.4 Y200.0 Z0.3 F5000.0 ; Move to side a little
G1 X0.4 Y20 Z0.3 F1500.0 E30 ; Draw the second line
G92 E0 ; Reset Extruder
G1 Z2.0 F3000 ; Move Z Axis up little to prevent scratching of Heat Bed
G1 X5 Y20 Z0.3 F5000.0 ; Move over to prevent blob squish
G92 E0
G92 E0
G1 F2700 E-5
;LAYER_COUNT:295
;LAYER:0
M107
G0 F6000 X107.578 Y109.423 Z0.2
G0 X105.294 Y115.073
;TYPE:SKIRT
G1 F2700 E0
G1 F1200 X105.32 Y114.284 E0.02626
G1 X105.426 Y113.502 E0.0525
G1 X105.611 Y112.734 E0.07878
G1 X105.872 Y111.988 E0.10507
G1 X106.207 Y111.273 E0.13133
G1 X106.613 Y110.596 E0.15758
G1 X107.085 Y109.963 E0.18384
G1 X107.578 Y109.423 E0.20816
G1 X109.423 Y107.578 E0.29495
G1 X110.009 Y107.048 E0.32123
G1 X110.645 Y106.581 E0.34747
G1 X111.325 Y106.18 E0.37373
G1 X112.043 Y105.85 E0.40001
G1 X112.79 Y105.595 E0.42626
G1 X113.559 Y105.416 E0.45252
G1 X114.343 Y105.316 E0.47881
G1 X115.132 Y105.295 E0.50506
G1 X115.919 Y105.355 E0.53131
G1 X116.57 Y105.471 E0.55331
G1 X150.727 Y71.314 E2.15995
G1 X150.707 Y71.238 E2.16256
G1 X150.589 Y70.458 E2.1888
G1 X150.551 Y69.669 E2.21507
G1 X150.593 Y68.88 E2.24135
G1 X150.714 Y68.1 E2.26761
G1 X150.914 Y67.336 E2.29387
G1 X151.19 Y66.596 E2.32014
G1 X151.539 Y65.888 E2.34639
G1 X151.958 Y65.218 E2.37268
G1 X152.442 Y64.595 E2.39892
G1 X152.837 Y64.17 E2.41822
G1 X154.68 Y62.328 E2.50488
G1 X155.266 Y61.799 E2.53114
G1 X155.903 Y61.332 E2.55741
G1 X156.583 Y60.931 E2.58367
G1 X157.301 Y60.601 E2.60995
G1 X158.048 Y60.346 E2.6362
G1 X158.817 Y60.167 E2.66246
G1 X159.601 Y60.068 E2.68874
G1 X160.39 Y60.047 E2.715
G1 X161.178 Y60.107 E2.74128
G1 X161.819 Y60.222 E2.76294
G1 X199.409 Y22.632 E4.53106
G1 X199.995 Y22.102 E4.55734
G1 X200.631 Y21.635 E4.58358
G1 X201.311 Y21.234 E4.60984
G1 X202.029 Y20.904 E4.63612
G1 X202.776 Y20.649 E4.66237
G1 X203.545 Y20.47 E4.68864
G1 X204.329 Y20.37 E4.71492
G1 X205.118 Y20.349 E4.74117
G1 X205.905 Y20.409 E4.76743
G1 X206.683 Y20.548 E4.79371
G1 X207.442 Y20.765 E4.81997
G1 X208.176 Y21.057 E4.84624
G1 X208.876 Y21.422 E4.8725
G1 X209.536 Y21.856 E4.89877
G1 X210.148 Y22.355 E4.92503
G1 X210.439 Y22.632 E4.9384
G1 X211.676 Y23.869 E4.99658
G1 X212.206 Y24.455 E5.02286
G1 X212.673 Y25.091 E5.04911
G1 X213.074 Y25.771 E5.07536
G1 X213.404 Y26.489 E5.10164
G1 X213.659 Y27.236 E5.1279
G1 X213.838 Y28.005 E5.15416
G1 X213.938 Y28.789 E5.18045
G1 X213.959 Y29.578 E5.2067
G1 X213.899 Y30.365 E5.23295
G1 X213.76 Y31.143 E5.25923
G1 X213.543 Y31.902 E5.28549
G1 X213.251 Y32.636 E5.31176
G1 X212.886 Y33.336 E5.33802
G1 X212.452 Y33.996 E5.36429
G1 X211.953 Y34.608 E5.39056
G1 X211.676 Y34.899 E5.40392
G1 X174.124 Y72.451 E7.17025
G1 X174.205 Y72.8 E7.18217
G1 X174.305 Y73.584 E7.20845
G1 X174.326 Y74.373 E7.23471
G1 X174.266 Y75.16 E7.26096
G1 X174.127 Y75.938 E7.28724
G1 X173.91 Y76.697 E7.3135
G1 X173.618 Y77.431 E7.33977
G1 X173.253 Y78.131 E7.36603
G1 X172.819 Y78.791 E7.3923
G1 X172.32 Y79.403 E7.41857
G1 X172.043 Y79.694 E7.43193
G1 X170.204 Y81.533 E7.51843
G1 X169.618 Y82.063 E7.54471
G1 X168.982 Y82.53 E7.57095
G1 X168.302 Y82.931 E7.59721
G1 X167.584 Y83.261 E7.62349
G1 X166.837 Y83.516 E7.64975
G1 X166.068 Y83.695 E7.67601
G1 X165.284 Y83.795 E7.70229
G1 X164.495 Y83.816 E7.72855
G1 X163.708 Y83.756 E7.7548
G1 X162.954 Y83.621 E7.78027
G1 X129.662 Y116.913 E9.34623
G1 X129.851 Y117.354 E9.36219
G1 X130.086 Y118.108 E9.38845
G1 X130.244 Y118.882 E9.41473
G1 X130.323 Y119.668 E9.441
G1 X130.321 Y120.457 E9.46724
G1 X130.24 Y121.243 E9.49353
G1 X130.08 Y122.016 E9.51978
G1 X129.843 Y122.769 E9.54604
G1 X129.531 Y123.495 E9.57232
G1 X129.147 Y124.185 E9.59858
G1 X128.695 Y124.832 E9.62483
G1 X128.044 Y125.57 E9.65756
G1 X125.558 Y128.053 E9.77443
G1 X124.972 Y128.582 E9.80069
G1 X124.335 Y129.049 E9.82696
G1 X123.654 Y129.449 E9.85322
G1 X122.937 Y129.779 E9.87948
G1 X122.189 Y130.034 E9.90576
G1 X121.42 Y130.212 E9.93201
G1 X120.637 Y130.312 E9.95827
G1 X119.847 Y130.331 E9.98455
G1 X119.06 Y130.271 E10.0108
G1 X118.283 Y130.132 E10.03706
G1 X117.523 Y129.915 E10.06334
G1 X116.906 Y129.669 E10.08544
G1 X83.614 Y162.961 E11.65139
G1 X83.695 Y163.31 E11.66331
G1 X83.795 Y164.094 E11.68959
G1 X83.816 Y164.883 E11.71585
G1 X83.756 Y165.67 E11.7421
G1 X83.617 Y166.448 E11.76838
G1 X83.4 Y167.207 E11.79464
G1 X83.108 Y167.941 E11.82091
G1 X82.743 Y168.641 E11.84717
G1 X82.309 Y169.301 E11.87344
G1 X81.81 Y169.913 E11.89971
G1 X81.533 Y170.204 E11.91307
G1 X79.694 Y172.043 E11.99957
G1 X79.108 Y172.573 E12.02585
G1 X78.472 Y173.04 E12.05209
G1 X77.792 Y173.441 E12.07835
G1 X77.074 Y173.771 E12.10463
G1 X76.327 Y174.026 E12.13088
G1 X75.558 Y174.205 E12.15715
G1 X74.774 Y174.305 E12.18343
G1 X73.985 Y174.326 E12.20968
G1 X73.198 Y174.266 E12.23594
G1 X72.444 Y174.131 E12.26141
G1 X34.899 Y211.676 E14.02741
G1 X34.313 Y212.206 E14.05369
G1 X33.677 Y212.673 E14.07994
G1 X32.997 Y213.074 E14.10619
G1 X32.279 Y213.404 E14.13248
G1 X31.532 Y213.659 E14.15873
G1 X30.763 Y213.838 E14.18499
G1 X29.979 Y213.938 E14.21128
G1 X29.19 Y213.959 E14.23753
G1 X28.403 Y213.899 E14.26378
G1 X27.625 Y213.76 E14.29007
G1 X26.866 Y213.543 E14.31632
G1 X26.132 Y213.251 E14.3426
G1 X25.432 Y212.886 E14.36885
G1 X24.772 Y212.452 E14.39513
G1 X24.16 Y211.953 E14.42139
G1 X23.869 Y211.676 E14.43475
G1 X22.632 Y210.439 E14.49294
G1 X22.102 Y209.853 E14.51922
G1 X21.635 Y209.217 E14.54546
G1 X21.234 Y208.537 E14.57172
G1 X20.904 Y207.819 E14.598
G1 X20.649 Y207.072 E14.62425
G1 X20.47 Y206.303 E14.65051
G1 X20.37 Y205.519 E14.6768
G1 X20.349 Y204.73 E14.70305
G1 X20.409 Y203.943 E14.7293
G1 X20.548 Y203.165 E14.75559
G1 X20.765 Y202.406 E14.78185
G1 X21.057 Y201.672 E14.80812
G1 X21.422 Y200.972 E14.83438
G1 X21.856 Y200.312 E14.86065
G1 X22.355 Y199.7 E14.88691
G1 X22.632 Y199.409 E14.90028
G1 X60.225 Y161.816 E16.66854
G1 X60.168 Y161.573 E16.67684
G1 X60.068 Y160.789 E16.70312
G1 X60.047 Y160 E16.72938
G1 X60.107 Y159.213 E16.75563
G1 X60.246 Y158.435 E16.78191
G1 X60.463 Y157.676 E16.80817
G1 X60.755 Y156.942 E16.83444
G1 X61.12 Y156.242 E16.8607
G1 X61.554 Y155.582 E16.88697
G1 X62.053 Y154.97 E16.91324
G1 X62.328 Y154.68 E16.92653
G1 X64.132 Y152.875 E17.01141
G1 X64.718 Y152.346 E17.03766
G1 X65.354 Y151.878 E17.06393
G1 X66.035 Y151.477 E17.09021
G1 X66.752 Y151.147 E17.11647
G1 X67.499 Y150.891 E17.14273
G1 X68.268 Y150.712 E17.16899
G1 X69.051 Y150.612 E17.19524
G1 X69.841 Y150.591 E17.22153
G1 X70.628 Y150.651 E17.24778
G1 X71.275 Y150.766 E17.26964
G1 X105.469 Y116.572 E18.87802
G1 X105.348 Y115.861 E18.90201
G1 X105.294 Y115.073 E18.92828
G0 F6000 X105.693 Y114.906
G1 F1200 X105.736 Y114.138 E18.95386
G1 X105.859 Y113.379 E18.97943
G1 X106.06 Y112.637 E19.005
G1 X106.337 Y111.919 E19.0306
G1 X106.687 Y111.234 E19.05618
G1 X107.106 Y110.589 E19.08177
G1 X107.589 Y109.991 E19.10733
G1 X107.86 Y109.705 E19.12044
G1 X109.705 Y107.86 E19.20722
G1 X110.277 Y107.346 E19.2328
G1 X110.899 Y106.893 E19.25839
G1 X111.564 Y106.507 E19.28396
G1 X112.266 Y106.192 E19.30956
G1 X112.997 Y105.952 E19.33515
G1 X113.748 Y105.789 E19.36071
G1 X114.513 Y105.705 E19.3863
G1 X115.282 Y105.701 E19.41188
G1 X116.047 Y105.777 E19.43745
G1 X116.696 Y105.909 E19.45948
G1 X151.171 Y71.434 E21.08108
G1 X151.076 Y71.041 E21.09452
G1 X150.975 Y70.279 E21.12009
G1 X150.953 Y69.51 E21.14568
G1 X151.011 Y68.743 E21.17126
G1 X151.149 Y67.986 E21.19685
G1 X151.365 Y67.248 E21.22243
G1 X151.655 Y66.536 E21.248
G1 X152.019 Y65.858 E21.27359
G1 X152.45 Y65.221 E21.29917
G1 X153.12 Y64.453 E21.33307
G1 X154.963 Y62.611 E21.41974
G1 X155.534 Y62.096 E21.44531
G1 X156.156 Y61.644 E21.47089
G1 X156.822 Y61.258 E21.49649
G1 X157.524 Y60.944 E21.52207
G1 X158.254 Y60.704 E21.54763
G1 X159.006 Y60.541 E21.57322
G1 X159.771 Y60.457 E21.59881
G1 X160.54 Y60.453 E21.62439
G1 X161.305 Y60.529 E21.64996
G1 X161.945 Y60.66 E21.67169
G1 X199.691 Y22.914 E23.44715
G1 X200.263 Y22.4 E23.47272
G1 X200.885 Y21.947 E23.49832
G1 X201.55 Y21.561 E23.52389
G1 X202.252 Y21.246 E23.54948
G1 X202.983 Y21.006 E23.57507
G1 X203.734 Y20.843 E23.60063
G1 X204.499 Y20.759 E23.62623
G1 X205.268 Y20.755 E23.65181
G1 X206.033 Y20.831 E23.67737
G1 X206.787 Y20.985 E23.70297
G1 X207.52 Y21.217 E23.72854
G1 X208.225 Y21.524 E23.75412
G1 X208.895 Y21.903 E23.77972
G1 X209.522 Y22.349 E23.80531
G1 X210.157 Y22.914 E23.83358
G1 X211.394 Y24.151 E23.89177
G1 X211.908 Y24.723 E23.91734
G1 X212.361 Y25.345 E23.94294
G1 X212.747 Y26.01 E23.96851
G1 X213.062 Y26.712 E23.9941
G1 X213.302 Y27.443 E24.01969
G1 X213.465 Y28.194 E24.04525
G1 X213.549 Y28.959 E24.07085
G1 X213.553 Y29.728 E24.09643
G1 X213.477 Y30.493 E24.122
G1 X213.323 Y31.247 E24.14759
G1 X213.091 Y31.98 E24.17316
G1 X212.784 Y32.685 E24.19874
G1 X212.405 Y33.355 E24.22434
G1 X211.959 Y33.982 E24.24993
G1 X211.394 Y34.617 E24.2782
G1 X173.688 Y72.323 E26.05178
G1 X173.832 Y72.989 E26.07444
G1 X173.916 Y73.754 E26.10004
G1 X173.92 Y74.523 E26.12562
G1 X173.844 Y75.288 E26.15118
G1 X173.69 Y76.042 E26.17678
G1 X173.458 Y76.775 E26.20235
G1 X173.151 Y77.48 E26.22793
G1 X172.772 Y78.15 E26.25353
G1 X172.326 Y78.777 E26.27912
G1 X171.761 Y79.412 E26.30739
G1 X169.922 Y81.251 E26.39389
G1 X169.35 Y81.765 E26.41947
G1 X168.728 Y82.218 E26.44506
G1 X168.063 Y82.604 E26.47064
G1 X167.361 Y82.919 E26.49623
G1 X166.63 Y83.159 E26.52182
G1 X165.879 Y83.322 E26.54738
G1 X165.114 Y83.406 E26.57298
G1 X164.345 Y83.41 E26.59855
G1 X163.58 Y83.334 E26.62412
G1 X162.83 Y83.181 E26.64958
G1 X129.188 Y116.823 E28.232
G1 X129.503 Y117.568 E28.2589
G1 X129.723 Y118.305 E28.28448
G1 X129.865 Y119.061 E28.31007
G1 X129.929 Y119.827 E28.33563
G1 X129.912 Y120.596 E28.36122
G1 X129.815 Y121.359 E28.3868
G1 X129.64 Y122.108 E28.41238
G1 X129.388 Y122.835 E28.43797
G1 X129.062 Y123.532 E28.46356
G1 X128.666 Y124.191 E28.48914
G1 X128.203 Y124.805 E28.51471
G1 X127.761 Y125.287 E28.53646
G1 X125.275 Y127.77 E28.65333
G1 X124.704 Y128.284 E28.67888
G1 X124.082 Y128.737 E28.70447
G1 X123.416 Y129.122 E28.73006
G1 X122.714 Y129.436 E28.75564
G1 X121.983 Y129.676 E28.78123
G1 X121.231 Y129.838 E28.80681
G1 X120.467 Y129.922 E28.83238
G1 X119.698 Y129.926 E28.85795
G1 X118.932 Y129.85 E28.88356
G1 X118.179 Y129.695 E28.90913
G1 X117.446 Y129.462 E28.93471
G1 X116.821 Y129.19 E28.95738
G1 X83.178 Y162.833 E30.53984
G1 X83.322 Y163.499 E30.56251
G1 X83.406 Y164.264 E30.5881
G1 X83.41 Y165.033 E30.61368
G1 X83.334 Y165.798 E30.63925
G1 X83.18 Y166.552 E30.66484
G1 X82.948 Y167.285 E30.69042
G1 X82.641 Y167.99 E30.71599
G1 X82.262 Y168.66 E30.74159
G1 X81.816 Y169.287 E30.76719
G1 X81.251 Y169.922 E30.79546
G1 X79.412 Y171.761 E30.88196
G1 X78.84 Y172.275 E30.90753
G1 X78.218 Y172.728 E30.93313
G1 X77.553 Y173.114 E30.9587
G1 X76.851 Y173.429 E30.98429
G1 X76.12 Y173.669 E31.00988
G1 X75.369 Y173.832 E31.03544
G1 X74.604 Y173.916 E31.06104
G1 X73.835 Y173.92 E31.08662
G1 X73.07 Y173.844 E31.11219
G1 X72.32 Y173.691 E31.13765
G1 X34.617 Y211.394 E32.91108
G1 X34.045 Y211.908 E32.93666
G1 X33.423 Y212.361 E32.96225
G1 X32.758 Y212.747 E32.98782
G1 X32.056 Y213.062 E33.01341
G1 X31.325 Y213.302 E33.039
G1 X30.574 Y213.465 E33.06456
G1 X29.809 Y213.549 E33.09016
G1 X29.04 Y213.553 E33.11574
G1 X28.275 Y213.477 E33.14131
G1 X27.521 Y213.323 E33.1669
G1 X26.788 Y213.091 E33.19248
G1 X26.083 Y212.784 E33.21805
G1 X25.413 Y212.405 E33.24365
G1 X24.786 Y211.959 E33.26925
G1 X24.151 Y211.394 E33.29752
G1 X22.914 Y210.157 E33.3557
G1 X22.4 Y209.585 E33.38128
G1 X21.947 Y208.963 E33.40687
G1 X21.561 Y208.298 E33.43244
G1 X21.246 Y207.596 E33.45804
G1 X21.006 Y206.865 E33.48363
G1 X20.843 Y206.114 E33.50919
G1 X20.759 Y205.349 E33.53478
G1 X20.755 Y204.58 E33.56036
G1 X20.831 Y203.815 E33.58593
G1 X20.985 Y203.061 E33.61153
G1 X21.217 Y202.328 E33.6371
G1 X21.524 Y201.623 E33.66267
G1 X21.903 Y200.953 E33.68827
G1 X22.349 Y200.326 E33.71387
G1 X22.914 Y199.691 E33.74214
G1 X60.662 Y161.943 E35.51769
G1 X60.541 Y161.384 E35.53671
G1 X60.457 Y160.619 E35.56231
G1 X60.453 Y159.85 E35.58788
G1 X60.529 Y159.085 E35.61345
G1 X60.683 Y158.331 E35.63905
G1 X60.915 Y157.598 E35.66462
G1 X61.222 Y156.893 E35.6902
G1 X61.601 Y156.223 E35.7158
G1 X62.047 Y155.596 E35.74139
G1 X62.611 Y154.963 E35.76959
G1 X64.415 Y153.158 E35.85447
G1 X64.986 Y152.643 E35.88004
G1 X65.608 Y152.19 E35.90563
G1 X66.273 Y151.804 E35.93121
G1 X66.975 Y151.489 E35.9568
G1 X67.706 Y151.249 E35.98239
G1 X68.457 Y151.086 E36.00795
G1 X69.222 Y151.001 E36.03355
G1 X69.991 Y150.997 E36.05913
G1 X70.756 Y151.072 E36.08469
G1 X71.401 Y151.204 E36.10659
G1 X105.913 Y116.692 E37.72993
G1 X105.846 Y116.435 E37.73876
G1 X105.73 Y115.675 E37.76433
G1 X105.693 Y114.906 E37.78994
G0 F6000 X106.096 Y114.744
G1 F1200 X106.156 Y113.998 E37.81483
G1 X106.296 Y113.264 E37.83969
G1 X106.514 Y112.548 E37.86458
G1 X106.806 Y111.859 E37.88947
G1 X107.171 Y111.206 E37.91435
G1 X107.603 Y110.595 E37.93924
G1 X108.143 Y109.988 E37.96626
G1 X109.988 Y108.143 E38.05304
G1 X110.545 Y107.643 E38.07794
G1 X111.151 Y107.206 E38.10279
G1 X111.801 Y106.835 E38.12768
G1 X112.487 Y106.536 E38.15257
G1 X113.201 Y106.312 E38.17746
G1 X113.934 Y106.165 E38.20233
G1 X114.679 Y106.098 E38.2272
G1 X115.427 Y106.11 E38.25209
G1 X116.17 Y106.202 E38.27699
G1 X116.817 Y106.354 E38.29909
G1 X151.608 Y71.563 E39.93555
G1 X151.448 Y70.847 E39.95996
G1 X151.363 Y70.103 E39.98486
G1 X151.359 Y69.355 E40.00974
G1 X151.434 Y68.611 E40.03461
G1 X151.588 Y67.879 E40.05949
G1 X151.82 Y67.168 E40.08437
G1 X152.126 Y66.485 E40.10926
G1 X152.503 Y65.839 E40.13414
G1 X152.947 Y65.237 E40.15902
G1 X153.403 Y64.736 E40.18155
G1 X155.246 Y62.894 E40.26821
G1 X155.802 Y62.394 E40.29308
G1 X156.409 Y61.957 E40.31796
G1 X157.059 Y61.586 E40.34285
G1 X157.745 Y61.287 E40.36774
G1 X158.459 Y61.064 E40.39262
G1 X159.192 Y60.917 E40.41749
G1 X159.937 Y60.85 E40.44237
G1 X160.685 Y60.862 E40.46725
G1 X161.427 Y60.955 E40.49212
G1 X162.067 Y61.104 E40.51397
G1 X199.974 Y23.197 E42.297
G1 X200.531 Y22.697 E42.3219
G1 X201.137 Y22.26 E42.34675
G1 X201.787 Y21.889 E42.37164
G1 X202.473 Y21.59 E42.39653
G1 X203.187 Y21.366 E42.42142
G1 X203.92 Y21.219 E42.44629
G1 X204.665 Y21.152 E42.47116
G1 X205.413 Y21.164 E42.49605
G1 X206.156 Y21.256 E42.52095
G1 X206.884 Y21.427 E42.54582
G1 X207.59 Y21.674 E42.5707
G1 X208.265 Y21.996 E42.59557
G1 X208.903 Y22.388 E42.62048
G1 X209.494 Y22.845 E42.64532
G1 X209.874 Y23.197 E42.66255
G1 X211.111 Y24.434 E42.72074
G1 X211.611 Y24.991 E42.74563
G1 X212.048 Y25.597 E42.77048
G1 X212.419 Y26.247 E42.79537
G1 X212.718 Y26.933 E42.82026
G1 X212.942 Y27.647 E42.84515
G1 X213.089 Y28.38 E42.87002
G1 X213.156 Y29.125 E42.8949
G1 X213.144 Y29.873 E42.91978
G1 X213.052 Y30.616 E42.94468
G1 X212.881 Y31.344 E42.96955
G1 X212.634 Y32.05 E42.99443
G1 X212.312 Y32.725 E43.0193
G1 X211.92 Y33.363 E43.04421
G1 X211.463 Y33.954 E43.06906
G1 X211.111 Y34.334 E43.08628
G1 X173.236 Y72.209 E44.86781
G1 X173.309 Y72.442 E44.87593
G1 X173.456 Y73.175 E44.90079
G1 X173.523 Y73.92 E44.92567
G1 X173.511 Y74.668 E44.95056
G1 X173.419 Y75.411 E44.97546
G1 X173.248 Y76.139 E45.00033
G1 X173.001 Y76.845 E45.02521
G1 X172.679 Y77.52 E45.05008
G1 X172.287 Y78.158 E45.07499
G1 X171.83 Y78.749 E45.09983
G1 X171.478 Y79.129 E45.11706
G1 X169.639 Y80.968 E45.20356
G1 X169.082 Y81.468 E45.22846
G1 X168.476 Y81.905 E45.25331
G1 X167.826 Y82.276 E45.2782
G1 X167.14 Y82.575 E45.30309
G1 X166.426 Y82.799 E45.32798
G1 X165.693 Y82.946 E45.35284
G1 X164.948 Y83.013 E45.37772
G1 X164.2 Y83.001 E45.4026
G1 X163.457 Y82.909 E45.42751
G1 X162.713 Y82.732 E45.45294
G1 X128.694 Y116.751 E47.05309
