;FLAVOR:Marlin
;TIME:9983
;Filament used: 6.90288m
;Layer height: 0.2
;MINX:8.308
;MINY:34.115
;MINZ:0.2
;MAXX:225.519
;MAXY:198.915
;MAXZ:6
;Generated with Cura_SteamEngine 5.0.0
M140 S70
M105
M190 S70
M104 S200
M105
M109 S200
M82 ;absolute extrusion mode
; Ender 3 Custom Start G-code
G28 ; Home all axes
M420 S1; Bed Leveling On
G92 E0 ; Reset Extruder
G1 Z2.0 F3000 ; Move Z Axis up little to prevent scratching of Heat Bed
G1 X0.1 Y20 Z0.3 F5000.0 ; Move to start position
G1 X0.1 Y200.0 Z0.3 F1500.0 E15 ; Draw the first line
G1 X0.4 Y200.0 Z0.3 F5000.0 ; Move to side a little
G1 X0.4 Y20 Z0.3 F1500.0 E30 ; Draw the second line
G92 E0 ; Reset Extruder
G1 Z2.0 F3000 ; Move Z Axis up little to prevent scratching of Heat Bed
G1 X5 Y20 Z0.3 F5000.0 ; Move over to prevent blob squish
G92 E0
G92 E0
G1 F2700 E-5
;LAYER_COUNT:30
;LAYER:0
M107
G0 F6000 X12.207 Y135.159 Z0.2
G0 X8.308 Y142.048
;TYPE:SKIRT
G1 F2700 E0
G1 F1200 X8.335 Y141.259 E0.02626
G1 X8.441 Y140.476 E0.05254
G1 X8.625 Y139.708 E0.0788
G1 X8.887 Y138.963 E0.10507
G1 X9.222 Y138.248 E0.13133
G1 X9.628 Y137.571 E0.15759
G1 X10.1 Y136.938 E0.18385
G1 X10.634 Y136.356 E0.21012
G1 X11.224 Y135.831 E0.23639
G1 X11.864 Y135.369 E0.26264
G1 X12.207 Y135.159 E0.27602
G1 X185.412 Y35.159 E6.92804
G1 X186.115 Y34.799 E6.95431
G1 X186.851 Y34.512 E6.98059
G1 X187.612 Y34.302 E7.00685
G1 X188.39 Y34.169 E7.0331
G1 X189.178 Y34.115 E7.05937
G1 X189.967 Y34.142 E7.08562
G1 X190.75 Y34.248 E7.11191
G1 X191.518 Y34.432 E7.13817
G1 X192.263 Y34.694 E7.16444
G1 X192.978 Y35.029 E7.1907
G1 X193.655 Y35.435 E7.21696
G1 X194.288 Y35.907 E7.24322
G1 X194.87 Y36.441 E7.26949
G1 X195.395 Y37.031 E7.29576
G1 X195.857 Y37.671 E7.32201
G1 X196.067 Y38.014 E7.33539
G1 X224.475 Y87.217 E9.22506
G1 X224.835 Y87.92 E9.25133
G1 X225.121 Y88.656 E9.27759
G1 X225.332 Y89.417 E9.30386
G1 X225.465 Y90.195 E9.33011
G1 X225.519 Y90.983 E9.35638
G1 X225.492 Y91.772 E9.38264
G1 X225.386 Y92.555 E9.40892
G1 X225.202 Y93.323 E9.43519
G1 X224.94 Y94.068 E9.46145
G1 X224.605 Y94.783 E9.48772
G1 X224.199 Y95.46 E9.51397
G1 X223.727 Y96.093 E9.54023
G1 X223.193 Y96.675 E9.5665
G1 X222.603 Y97.2 E9.59277
G1 X221.963 Y97.662 E9.61903
G1 X221.62 Y97.872 E9.6324
G1 X184.091 Y119.538 E11.0737
G1 X183.388 Y119.898 E11.09997
G1 X182.652 Y120.185 E11.12624
G1 X181.891 Y120.395 E11.1525
G1 X181.113 Y120.528 E11.17875
G1 X180.325 Y120.582 E11.20502
G1 X179.536 Y120.555 E11.23128
G1 X178.753 Y120.449 E11.25756
G1 X177.985 Y120.265 E11.28383
G1 X177.24 Y120.003 E11.31009
G1 X176.525 Y119.668 E11.33636
G1 X175.848 Y119.262 E11.36261
G1 X175.215 Y118.79 E11.38887
G1 X174.633 Y118.256 E11.41514
G1 X174.108 Y117.666 E11.44141
G1 X173.646 Y117.026 E11.46766
G1 X173.436 Y116.683 E11.48104
G1 X171.38 Y113.122 E11.6178
G1 X86.741 Y161.99 E14.86843
G1 X88.796 Y165.549 E15.00512
G1 X89.156 Y166.252 E15.03139
G1 X89.442 Y166.988 E15.05766
G1 X89.653 Y167.749 E15.08392
G1 X89.786 Y168.527 E15.11017
G1 X89.84 Y169.315 E15.13644
G1 X89.813 Y170.104 E15.1627
G1 X89.707 Y170.887 E15.18898
G1 X89.523 Y171.654 E15.21522
G1 X89.261 Y172.4 E15.24151
G1 X88.926 Y173.115 E15.26778
G1 X88.52 Y173.792 E15.29403
G1 X88.048 Y174.425 E15.32029
G1 X87.514 Y175.007 E15.34656
G1 X86.924 Y175.532 E15.37283
G1 X86.284 Y175.994 E15.39909
G1 X85.941 Y176.204 E15.41246
G1 X48.414 Y197.871 E16.85372
G1 X47.711 Y198.231 E16.87999
G1 X46.975 Y198.517 E16.90625
G1 X46.214 Y198.728 E16.93252
G1 X45.436 Y198.861 E16.95877
G1 X44.648 Y198.915 E16.98504
G1 X43.859 Y198.888 E17.0113
G1 X43.076 Y198.782 E17.03758
G1 X42.309 Y198.598 E17.06381
G1 X41.563 Y198.336 E17.09011
G1 X40.848 Y198.001 E17.11637
G1 X40.171 Y197.595 E17.14263
G1 X39.538 Y197.123 E17.16889
G1 X38.956 Y196.589 E17.19516
G1 X38.431 Y195.999 E17.22143
G1 X37.969 Y195.359 E17.24768
G1 X37.759 Y195.016 E17.26106
G1 X9.352 Y145.814 E19.15069
G1 X8.992 Y145.111 E19.17696
G1 X8.706 Y144.375 E19.20322
G1 X8.495 Y143.614 E19.22948
G1 X8.362 Y142.836 E19.25574
G1 X8.308 Y142.048 E19.28201
G0 F6000 X8.707 Y141.941
G1 F1200 X8.744 Y141.173 E19.30758
G1 X8.861 Y140.413 E19.33316
G1 X9.056 Y139.669 E19.35874
G1 X9.327 Y138.949 E19.38432
G1 X9.671 Y138.261 E19.40991
G1 X10.085 Y137.613 E19.43548
G1 X10.564 Y137.011 E19.46107
G1 X11.103 Y136.462 E19.48666
G1 X11.696 Y135.972 E19.51225
G1 X12.407 Y135.505 E19.54054
G1 X185.612 Y35.505 E26.19256
G1 X186.297 Y35.156 E26.21813
G1 X187.015 Y34.88 E26.24372
G1 X187.758 Y34.679 E26.26932
G1 X188.517 Y34.557 E26.29489
G1 X189.285 Y34.514 E26.32047
G1 X190.053 Y34.551 E26.34604
G1 X190.813 Y34.668 E26.37162
G1 X191.557 Y34.863 E26.3972
G1 X192.277 Y35.134 E26.42279
G1 X192.965 Y35.478 E26.44837
G1 X193.613 Y35.892 E26.47395
G1 X194.215 Y36.371 E26.49954
G1 X194.764 Y36.91 E26.52513
G1 X195.254 Y37.503 E26.55071
G1 X195.721 Y38.214 E26.579
G1 X224.129 Y87.417 E28.46868
G1 X224.478 Y88.102 E28.49425
G1 X224.754 Y88.82 E28.51983
G1 X224.955 Y89.562 E28.5454
G1 X225.077 Y90.322 E28.571
G1 X225.12 Y91.09 E28.59659
G1 X225.083 Y91.858 E28.62216
G1 X224.966 Y92.618 E28.64774
G1 X224.771 Y93.362 E28.67332
G1 X224.5 Y94.082 E28.6989
G1 X224.156 Y94.77 E28.72449
G1 X223.742 Y95.418 E28.75006
G1 X223.263 Y96.02 E28.77565
G1 X222.724 Y96.569 E28.80124
G1 X222.131 Y97.059 E28.82683
G1 X221.42 Y97.526 E28.85512
G1 X183.891 Y119.192 E30.29642
G1 X183.206 Y119.541 E30.32199
G1 X182.488 Y119.818 E30.34758
G1 X181.745 Y120.018 E30.37317
G1 X180.986 Y120.14 E30.39874
G1 X180.218 Y120.183 E30.42433
G1 X179.45 Y120.146 E30.4499
G1 X178.689 Y120.029 E30.47551
G1 X177.945 Y119.834 E30.50109
G1 X177.226 Y119.563 E30.52665
G1 X176.538 Y119.218 E30.55225
G1 X175.89 Y118.804 E30.57782
G1 X175.288 Y118.325 E30.60341
G1 X174.739 Y117.787 E30.62897
G1 X174.249 Y117.194 E30.65456
G1 X173.782 Y116.483 E30.68285
G1 X171.526 Y112.576 E30.83291
G1 X86.195 Y161.844 E34.11012
G1 X88.45 Y165.749 E34.2601
G1 X88.799 Y166.434 E34.28567
G1 X89.075 Y167.152 E34.31126
G1 X89.276 Y167.894 E34.33683
G1 X89.398 Y168.654 E34.36243
G1 X89.441 Y169.422 E34.38801
G1 X89.404 Y170.19 E34.41358
G1 X89.287 Y170.95 E34.43916
G1 X89.092 Y171.694 E34.46474
G1 X88.821 Y172.414 E34.49033
G1 X88.477 Y173.102 E34.51591
G1 X88.063 Y173.75 E34.54149
G1 X87.584 Y174.352 E34.56708
G1 X87.045 Y174.901 E34.59266
G1 X86.452 Y175.391 E34.61825
G1 X85.741 Y175.858 E34.64654
G1 X48.214 Y197.525 E36.0878
G1 X47.529 Y197.874 E36.11337
G1 X46.811 Y198.15 E36.13895
G1 X46.069 Y198.351 E36.16452
G1 X45.309 Y198.473 E36.19012
G1 X44.541 Y198.516 E36.21571
G1 X43.773 Y198.479 E36.24128
G1 X43.013 Y198.362 E36.26686
G1 X42.269 Y198.167 E36.29244
G1 X41.549 Y197.896 E36.31802
G1 X40.861 Y197.552 E36.34361
G1 X40.213 Y197.138 E36.36918
G1 X39.611 Y196.659 E36.39477
G1 X39.062 Y196.12 E36.42036
G1 X38.572 Y195.527 E36.44595
G1 X38.105 Y194.816 E36.47424
G1 X9.698 Y145.614 E38.36387
G1 X9.349 Y144.929 E38.38944
G1 X9.073 Y144.211 E38.41502
G1 X8.872 Y143.468 E38.44062
G1 X8.75 Y142.709 E38.46619
G1 X8.707 Y141.941 E38.49178
G0 F6000 X9.107 Y141.837
G1 F1200 X9.156 Y141.091 E38.51664
G1 X9.283 Y140.353 E38.54155
G1 X9.489 Y139.634 E38.56643
G1 X9.77 Y138.941 E38.5913
G1 X10.123 Y138.282 E38.61616
G1 X10.545 Y137.664 E38.64105
G1 X11.03 Y137.095 E38.66592
G1 X11.574 Y136.58 E38.69083
G1 X12.169 Y136.127 E38.71571
G1 X12.607 Y135.852 E38.73291
G1 X185.812 Y35.852 E45.38493
G1 X186.479 Y35.513 E45.40982
G1 X187.178 Y35.247 E45.43469
G1 X187.902 Y35.058 E45.45958
G1 X188.642 Y34.946 E45.48447
G1 X189.389 Y34.914 E45.50934
G1 X190.135 Y34.963 E45.53421
G1 X190.873 Y35.09 E45.55911
G1 X191.592 Y35.296 E45.58399
G1 X192.285 Y35.577 E45.60886
G1 X192.944 Y35.93 E45.63373
G1 X193.562 Y36.352 E45.65862
G1 X194.131 Y36.837 E45.68348
G1 X194.646 Y37.381 E45.7084
G1 X195.099 Y37.976 E45.73327
G1 X195.374 Y38.414 E45.75047
G1 X223.782 Y87.617 E47.64015
G1 X224.121 Y88.284 E47.66504
G1 X224.387 Y88.983 E47.68991
G1 X224.576 Y89.707 E47.7148
G1 X224.688 Y90.446 E47.73966
G1 X224.72 Y91.194 E47.76456
G1 X224.671 Y91.94 E47.78942
G1 X224.544 Y92.677 E47.8143
G1 X224.338 Y93.397 E47.83921
G1 X224.057 Y94.09 E47.86408
G1 X223.704 Y94.749 E47.88894
G1 X223.282 Y95.367 E47.91383
G1 X222.797 Y95.936 E47.9387
G1 X222.253 Y96.451 E47.96362
G1 X221.658 Y96.904 E47.98849
G1 X221.22 Y97.179 E48.00569
G1 X183.691 Y118.845 E49.44699
G1 X183.024 Y119.184 E49.47187
G1 X182.325 Y119.45 E49.49675
G1 X181.601 Y119.64 E49.52164
G1 X180.861 Y119.751 E49.54653
G1 X180.114 Y119.783 E49.5714
G1 X179.367 Y119.734 E49.5963
G1 X178.63 Y119.607 E49.62117
G1 X177.911 Y119.401 E49.64605
G1 X177.218 Y119.12 E49.67092
G1 X176.558 Y118.767 E49.69581
G1 X175.941 Y118.345 E49.72068
G1 X175.371 Y117.86 E49.74557
G1 X174.857 Y117.316 E49.77046
G1 X174.404 Y116.721 E49.79533
G1 X174.129 Y116.283 E49.81254
G1 X171.673 Y112.029 E49.97591
G1 X85.648 Y161.697 E53.27977
G1 X88.103 Y165.949 E53.44307
G1 X88.442 Y166.616 E53.46796
G1 X88.708 Y167.315 E53.49283
G1 X88.897 Y168.039 E53.51772
G1 X89.009 Y168.778 E53.54258
G1 X89.041 Y169.526 E53.56748
G1 X88.992 Y170.272 E53.59235
G1 X88.865 Y171.009 E53.61722
G1 X88.659 Y171.729 E53.64213
G1 X88.378 Y172.422 E53.667
G1 X88.025 Y173.081 E53.69186
G1 X87.603 Y173.699 E53.71675
G1 X87.118 Y174.268 E53.74162
G1 X86.574 Y174.783 E53.76654
G1 X85.979 Y175.236 E53.79141
G1 X85.541 Y175.511 E53.80861
G1 X48.014 Y197.178 E55.24987
G1 X47.347 Y197.517 E55.27475
G1 X46.648 Y197.783 E55.29963
G1 X45.924 Y197.972 E55.32451
G1 X45.185 Y198.084 E55.34937
G1 X44.437 Y198.116 E55.37428
G1 X43.691 Y198.067 E55.39914
G1 X42.954 Y197.94 E55.42402
G1 X42.234 Y197.734 E55.44892
G1 X41.541 Y197.453 E55.4738
G1 X40.882 Y197.1 E55.49866
G1 X40.264 Y196.678 E55.52355
G1 X39.695 Y196.193 E55.54842
G1 X39.18 Y195.649 E55.57333
G1 X38.727 Y195.054 E55.59821
G1 X38.452 Y194.616 E55.61541
G1 X10.045 Y145.414 E57.50504
G1 X9.706 Y144.747 E57.52992
G1 X9.44 Y144.048 E57.5548
G1 X9.251 Y143.324 E57.57969
G1 X9.139 Y142.585 E57.60455
G1 X9.107 Y141.837 E57.62945
G0 F6000 X9.509 Y141.736
G1 F1200 X9.569 Y141.012 E57.65361
G1 X9.708 Y140.299 E57.67777
G1 X9.924 Y139.606 E57.70191
G1 X10.215 Y138.94 E57.72609
G1 X10.577 Y138.311 E57.75022
G1 X11.007 Y137.725 E57.7744
G1 X11.498 Y137.19 E57.79855
G1 X12.045 Y136.712 E57.82271
G1 X12.807 Y136.198 E57.85328
G1 X186.012 Y36.198 E64.50531
G1 X186.66 Y35.87 E64.52946
G1 X187.34 Y35.615 E64.55362
G1 X188.044 Y35.437 E64.57777
G1 X188.764 Y35.337 E64.60195
G1 X189.49 Y35.316 E64.62611
G1 X190.214 Y35.376 E64.65027
G1 X190.927 Y35.515 E64.67443
G1 X191.62 Y35.731 E64.69857
G1 X192.286 Y36.022 E64.72275
G1 X192.915 Y36.384 E64.74688
G1 X193.501 Y36.814 E64.77106
G1 X194.036 Y37.305 E64.79521
G1 X194.514 Y37.852 E64.81937
G1 X195.028 Y38.614 E64.84994
G1 X223.436 Y87.817 E66.73962
G1 X223.764 Y88.465 E66.76378
G1 X224.019 Y89.145 E66.78793
G1 X224.197 Y89.849 E66.81208
G1 X224.297 Y90.569 E66.83626
G1 X224.318 Y91.295 E66.86042
G1 X224.258 Y92.019 E66.88458
G1 X224.119 Y92.732 E66.90874
G1 X223.903 Y93.425 E66.93288
G1 X223.612 Y94.091 E66.95706
G1 X223.25 Y94.72 E66.98119
G1 X222.82 Y95.306 E67.00537
G1 X222.329 Y95.841 E67.02952
G1 X221.782 Y96.319 E67.05368
G1 X221.02 Y96.833 E67.08425
G1 X183.491 Y118.499 E68.52555
G1 X182.843 Y118.827 E68.54971
G1 X182.163 Y119.082 E68.57386
G1 X181.458 Y119.26 E68.59805
G1 X180.739 Y119.36 E68.62219
G1 X180.013 Y119.381 E68.64635
G1 X179.289 Y119.321 E68.67051
G1 X178.576 Y119.182 E68.69467
G1 X177.883 Y118.966 E68.71881
G1 X177.217 Y118.675 E68.74299
G1 X176.588 Y118.313 E68.76712
G1 X176.002 Y117.883 E68.7913
G1 X175.467 Y117.392 E68.81545
G1 X174.989 Y116.845 E68.83961
G1 X174.475 Y116.083 E68.87018
G1 X171.819 Y111.483 E69.04685
G1 X85.102 Y161.551 E72.37729
G1 X87.757 Y166.149 E72.55389
G1 X88.085 Y166.797 E72.57804
G1 X88.34 Y167.477 E72.6022
G1 X88.518 Y168.181 E72.62635
G1 X88.618 Y168.901 E72.65053
G1 X88.639 Y169.627 E72.67468
G1 X88.579 Y170.351 E72.69885
G1 X88.44 Y171.064 E72.72301
G1 X88.224 Y171.757 E72.74715
G1 X87.933 Y172.423 E72.77133
G1 X87.571 Y173.052 E72.79546
G1 X87.141 Y173.638 E72.81964
G1 X86.65 Y174.173 E72.84379
G1 X86.103 Y174.651 E72.86795
G1 X85.341 Y175.165 E72.89852
G1 X47.814 Y196.832 E74.33978
G1 X47.166 Y197.16 E74.36393
G1 X46.486 Y197.415 E74.38809
G1 X45.782 Y197.593 E74.41224
G1 X45.062 Y197.693 E74.43642
G1 X44.336 Y197.714 E74.46058
G1 X43.612 Y197.654 E74.48474
G1 X42.899 Y197.515 E74.5089
G1 X42.206 Y197.299 E74.53304
G1 X41.54 Y197.008 E74.55722
G1 X40.911 Y196.646 E74.58135
G1 X40.325 Y196.216 E74.60553
G1 X39.79 Y195.725 E74.62968
G1 X39.312 Y195.178 E74.65384
G1 X38.798 Y194.416 E74.68441
G1 X10.391 Y145.214 E76.57404
G1 X10.063 Y144.566 E76.5982
G1 X9.808 Y143.886 E76.62235
G1 X9.63 Y143.182 E76.64651
G1 X9.53 Y142.462 E76.67068
G1 X9.509 Y141.736 E76.69484
G0 F6000 X9.913 Y141.639
G1 F1200 X9.984 Y140.938 E76.71827
G1 X10.134 Y140.25 E76.7417
G1 X10.361 Y139.584 E76.7651
G1 X10.663 Y138.948 E76.78852
G1 X11.034 Y138.35 E76.81192
G1 X11.471 Y137.798 E76.83534
G1 X11.967 Y137.298 E76.85876
G1 X12.517 Y136.859 E76.88217
G1 X13.007 Y136.545 E76.90152
G1 X186.212 Y36.545 E83.55355
G1 X186.841 Y36.228 E83.57698
G1 X187.501 Y35.984 E83.60038
G1 X188.185 Y35.817 E83.6238
G1 X188.883 Y35.729 E83.6472
G1 X189.587 Y35.72 E83.67062
G1 X190.288 Y35.791 E83.69405
G1 X190.976 Y35.941 E83.71747
G1 X191.642 Y36.168 E83.74087
G1 X192.278 Y36.47 E83.76429
G1 X192.876 Y36.841 E83.7877
G1 X193.428 Y37.278 E83.81111
G1 X193.928 Y37.774 E83.83454
G1 X194.367 Y38.324 E83.85794
G1 X194.681 Y38.814 E83.8773
G1 X223.089 Y88.017 E85.76698
G1 X223.406 Y88.646 E85.7904
G1 X223.65 Y89.306 E85.81381
G1 X223.817 Y89.99 E85.83723
G1 X223.905 Y90.688 E85.86062
G1 X223.914 Y91.392 E85.88404
G1 X223.843 Y92.093 E85.90748
G1 X223.693 Y92.781 E85.9309
G1 X223.466 Y93.447 E85.9543
G1 X223.164 Y94.083 E85.97772
G1 X222.793 Y94.681 E86.00112
G1 X222.356 Y95.233 E86.02454
G1 X221.86 Y95.732 E86.04794
G1 X221.31 Y96.172 E86.07137
G1 X220.82 Y96.486 E86.09072
G1 X183.291 Y118.152 E87.53202
G1 X182.662 Y118.469 E87.55545
G1 X182.002 Y118.713 E87.57885
G1 X181.318 Y118.88 E87.60227
G1 X180.619 Y118.968 E87.6257
G1 X179.915 Y118.977 E87.64912
G1 X179.215 Y118.906 E87.67252
G1 X178.527 Y118.756 E87.69594
G1 X177.861 Y118.528 E87.71935
G1 X177.225 Y118.227 E87.74276
G1 X176.627 Y117.856 E87.76616
G1 X176.074 Y117.419 E87.78961
G1 X175.575 Y116.923 E87.81301
G1 X175.136 Y116.373 E87.83641
G1 X174.822 Y115.883 E87.85577
G1 X171.966 Y110.936 E88.04576
G1 X84.555 Y161.404 E91.40284
G1 X87.41 Y166.349 E91.59276
G1 X87.727 Y166.978 E91.61619
G1 X87.971 Y167.638 E91.63959
G1 X88.138 Y168.322 E91.66301
G1 X88.226 Y169.02 E91.68641
G1 X88.235 Y169.724 E91.70982
G1 X88.164 Y170.425 E91.73326
G1 X88.014 Y171.113 E91.75668
G1 X87.787 Y171.779 E91.78008
G1 X87.485 Y172.415 E91.8035
G1 X87.114 Y173.013 E91.8269
G1 X86.677 Y173.565 E91.85032
G1 X86.181 Y174.064 E91.87372
G1 X85.631 Y174.504 E91.89715
G1 X85.141 Y174.818 E91.91651
G1 X47.614 Y196.485 E93.35776
G1 X46.985 Y196.802 E93.38119
G1 X46.325 Y197.046 E93.40459
G1 X45.641 Y197.213 E93.42801
G1 X44.943 Y197.301 E93.45141
G1 X44.239 Y197.31 E93.47483
G1 X43.538 Y197.239 E93.49826
G1 X42.85 Y197.089 E93.52168
G1 X42.184 Y196.862 E93.54508
G1 X41.548 Y196.56 E93.5685
G1 X40.95 Y196.189 E93.59191
G1 X40.398 Y195.752 E93.61532
G1 X39.899 Y195.256 E93.63873
G1 X39.459 Y194.706 E93.66215
G1 X39.145 Y194.216 E93.68151
G1 X10.738 Y145.014 E95.57114
G1 X10.421 Y144.385 E95.59457
G1 X10.177 Y143.725 E95.61797
G1 X10.01 Y143.041 E95.64139
G1 X9.922 Y142.343 E95.66479
G1 X9.913 Y141.639 E95.68821
G0 F6000 X10.315 Y142.226
G1 F1200 X10.319 Y141.545 E95.71086
G1 X10.402 Y140.869 E95.73351
G1 X10.564 Y140.208 E95.75614
G1 X10.802 Y139.57 E95.77879
G1 X11.113 Y138.964 E95.80145
G1 X11.493 Y138.399 E95.82409
G1 X11.937 Y137.883 E95.84674
G1 X12.438 Y137.422 E95.86938
G1 X13.207 Y136.891 E95.90046
G1 X186.412 Y36.891 E102.55249
G1 X187.021 Y36.586 E102.57514
G1 X187.661 Y36.354 E102.59778
G1 X188.324 Y36.199 E102.62043
G1 X189 Y36.122 E102.64306
G1 X189.681 Y36.126 E102.66571
G1 X190.357 Y36.209 E102.68836
G1 X191.018 Y36.371 E102.711
G1 X191.656 Y36.609 E102.73364
