;FLAVOR:Marlin
;TIME:9769
;Filament used: 6.88048m
;Layer height: 0.2
;MINX:18.124
;MINY:19.703
;MINZ:0.2
;MAXX:215.314
;MAXY:216.894
;MAXZ:6
;Generated with Cura_SteamEngine 5.0.0
M140 S70
M105
M190 S70
M104 S200
M105
M109 S200
M82 ;absolute extrusion mode
; Ender 3 Custom Start G-code
G28 ; Home all axes
M420 S1; Bed Leveling On
G92 E0 ; Reset Extruder
G1 Z2.0 F3000 ; Move Z Axis up little to prevent scratching of Heat Bed
G1 X0.1 Y20 Z0.3 F5000.0 ; Move to start position
G1 X0.1 Y200.0 Z0.3 F1500.0 E15 ; Draw the first line
G1 X0.4 Y200.0 Z0.3 F5000.0 ; Move to side a little
G1 X0.4 Y20 Z0.3 F1500.0 E30 ; Draw the second line
G92 E0 ; Reset Extruder
G1 Z2.0 F3000 ; Move Z Axis up little to prevent scratching of Heat Bed
G1 X5 Y20 Z0.3 F5000.0 ; Move over to prevent blob squish
G92 E0
G92 E0
G1 F2700 E-5
;LAYER_COUNT:30
;LAYER:0
M107
G0 F6000 X60.581 Y21.985 Z0.2
;TYPE:SKIRT
G1 F2700 E0
G1 F1200 X61.167 Y21.456 E0.02626
G1 X61.803 Y20.989 E0.0525
G1 X62.484 Y20.588 E0.07879
G1 X63.201 Y20.258 E0.10504
G1 X63.948 Y20.003 E0.13129
G1 X64.717 Y19.824 E0.15755
G1 X65.501 Y19.724 E0.18384
G1 X66.29 Y19.703 E0.21009
G1 X67.078 Y19.763 E0.23638
G1 X67.855 Y19.902 E0.26263
G1 X68.614 Y20.119 E0.28889
G1 X69.348 Y20.411 E0.31516
G1 X70.048 Y20.776 E0.34142
G1 X70.708 Y21.21 E0.36769
G1 X71.32 Y21.709 E0.39395
G1 X71.612 Y21.986 E0.40734
G1 X102.252 Y52.628 E1.8486
G1 X102.781 Y53.214 E1.87485
G1 X103.248 Y53.85 E1.9011
G1 X103.649 Y54.531 E1.92738
G1 X103.979 Y55.248 E1.95364
G1 X104.235 Y55.995 E1.9799
G1 X104.413 Y56.765 E2.00619
G1 X104.513 Y57.548 E2.03244
G1 X104.534 Y58.337 E2.05869
G1 X104.474 Y59.125 E2.08498
G1 X104.335 Y59.902 E2.11123
G1 X104.118 Y60.661 E2.13749
G1 X103.826 Y61.395 E2.16376
G1 X103.461 Y62.095 E2.19002
G1 X103.027 Y62.755 E2.21629
G1 X102.528 Y63.367 E2.24255
G1 X102.251 Y63.658 E2.25592
G1 X99.345 Y66.564 E2.3926
G1 X168.454 Y135.673 E5.64328
G1 X171.36 Y132.767 E5.77997
G1 X171.946 Y132.237 E5.80625
G1 X172.582 Y131.77 E5.83249
G1 X173.262 Y131.369 E5.85875
G1 X173.98 Y131.039 E5.88503
G1 X174.727 Y130.784 E5.91128
G1 X175.496 Y130.605 E5.93755
G1 X176.28 Y130.505 E5.96383
G1 X177.069 Y130.484 E5.99008
G1 X177.856 Y130.544 E6.01634
G1 X178.634 Y130.683 E6.04262
G1 X179.393 Y130.9 E6.06888
G1 X180.127 Y131.192 E6.09515
G1 X180.827 Y131.557 E6.12141
G1 X181.487 Y131.991 E6.14768
G1 X182.099 Y132.49 E6.17394
G1 X182.39 Y132.767 E6.18731
G1 X213.031 Y163.408 E7.62857
G1 X213.561 Y163.994 E7.65485
G1 X214.028 Y164.63 E7.68109
G1 X214.429 Y165.31 E7.70735
G1 X214.759 Y166.028 E7.73363
G1 X215.014 Y166.775 E7.75988
G1 X215.193 Y167.544 E7.78614
G1 X215.293 Y168.328 E7.81243
G1 X215.314 Y169.117 E7.83868
G1 X215.254 Y169.904 E7.86493
G1 X215.115 Y170.682 E7.89122
G1 X214.898 Y171.441 E7.91747
G1 X214.606 Y172.175 E7.94375
G1 X214.241 Y172.875 E7.97001
G1 X213.807 Y173.535 E7.99628
G1 X213.308 Y174.147 E8.02254
G1 X213.032 Y174.438 E8.03588
G1 X172.86 Y214.611 E9.92547
G1 X172.274 Y215.141 E9.95175
G1 X171.637 Y215.608 E9.97802
G1 X170.957 Y216.009 E10.00428
G1 X170.239 Y216.339 E10.03056
G1 X169.492 Y216.594 E10.05681
G1 X168.723 Y216.773 E10.08308
G1 X167.939 Y216.873 E10.10936
G1 X167.15 Y216.894 E10.13561
G1 X166.363 Y216.834 E10.16187
G1 X165.585 Y216.695 E10.18815
G1 X164.826 Y216.478 E10.21441
G1 X164.092 Y216.186 E10.24068
G1 X163.392 Y215.821 E10.26694
G1 X162.732 Y215.387 E10.29321
G1 X162.12 Y214.888 E10.31948
G1 X161.829 Y214.611 E10.33284
G1 X20.407 Y73.189 E16.9849
G1 X19.877 Y72.603 E17.01117
G1 X19.41 Y71.967 E17.03742
G1 X19.009 Y71.287 E17.06367
G1 X18.679 Y70.569 E17.08996
G1 X18.424 Y69.822 E17.11621
G1 X18.245 Y69.053 E17.14247
G1 X18.145 Y68.269 E17.16876
G1 X18.124 Y67.48 E17.19501
G1 X18.184 Y66.693 E17.22126
G1 X18.323 Y65.915 E17.24755
G1 X18.54 Y65.156 E17.2738
G1 X18.832 Y64.422 E17.30008
G1 X19.197 Y63.722 E17.32633
G1 X19.631 Y63.062 E17.35261
G1 X20.13 Y62.45 E17.37887
G1 X20.407 Y62.158 E17.39226
G1 X60.581 Y21.985 E19.2819
G0 F6000 X60.863 Y22.268
G1 F1200 X61.435 Y21.753 E19.3075
G1 X62.057 Y21.301 E19.33307
G1 X62.722 Y20.915 E19.35864
G1 X63.424 Y20.6 E19.38423
G1 X64.155 Y20.36 E19.40982
G1 X64.906 Y20.197 E19.43538
G1 X65.671 Y20.113 E19.46098
G1 X66.44 Y20.109 E19.48656
G1 X67.205 Y20.185 E19.51213
G1 X67.959 Y20.339 E19.53772
G1 X68.692 Y20.571 E19.5633
G1 X69.397 Y20.878 E19.58887
G1 X70.067 Y21.257 E19.61447
G1 X70.694 Y21.703 E19.64006
G1 X71.329 Y22.269 E19.66836
G1 X101.969 Y52.911 E21.10962
G1 X102.484 Y53.482 E21.13519
G1 X102.936 Y54.104 E21.16076
G1 X103.322 Y54.769 E21.18634
G1 X103.637 Y55.471 E21.21193
G1 X103.877 Y56.202 E21.23752
G1 X104.04 Y56.953 E21.26308
G1 X104.124 Y57.718 E21.28868
G1 X104.128 Y58.487 E21.31425
G1 X104.052 Y59.253 E21.33986
G1 X103.898 Y60.006 E21.36542
G1 X103.666 Y60.739 E21.39099
G1 X103.359 Y61.445 E21.4166
G1 X102.98 Y62.114 E21.44217
G1 X102.534 Y62.741 E21.46776
G1 X101.969 Y63.376 E21.49603
G1 X98.78 Y66.565 E21.64603
G1 X168.454 Y136.237 E24.92324
G1 X171.642 Y133.049 E25.07319
G1 X172.214 Y132.535 E25.09877
G1 X172.836 Y132.082 E25.12436
G1 X173.501 Y131.696 E25.14994
G1 X174.203 Y131.381 E25.17553
G1 X174.934 Y131.141 E25.20112
G1 X175.685 Y130.978 E25.22668
G1 X176.45 Y130.894 E25.25227
G1 X177.219 Y130.89 E25.27785
G1 X177.984 Y130.966 E25.30342
G1 X178.738 Y131.12 E25.32902
G1 X179.471 Y131.352 E25.35459
G1 X180.176 Y131.659 E25.38016
G1 X180.846 Y132.038 E25.40577
G1 X181.473 Y132.484 E25.43136
G1 X182.108 Y133.049 E25.45963
G1 X212.749 Y163.69 E26.90089
G1 X213.263 Y164.262 E26.92646
G1 X213.716 Y164.884 E26.95206
G1 X214.102 Y165.549 E26.97763
G1 X214.417 Y166.251 E27.00322
G1 X214.657 Y166.982 E27.02881
G1 X214.82 Y167.733 E27.05437
G1 X214.904 Y168.498 E27.07997
G1 X214.908 Y169.267 E27.10555
G1 X214.832 Y170.032 E27.13112
G1 X214.678 Y170.786 E27.15671
G1 X214.446 Y171.519 E27.18228
G1 X214.139 Y172.224 E27.20786
G1 X213.76 Y172.894 E27.23346
G1 X213.314 Y173.521 E27.25905
G1 X212.749 Y174.156 E27.28732
G1 X172.577 Y214.329 E29.17691
G1 X172.005 Y214.843 E29.20249
G1 X171.383 Y215.296 E29.22808
G1 X170.718 Y215.682 E29.25366
G1 X170.016 Y215.997 E29.27925
G1 X169.286 Y216.237 E29.30481
G1 X168.534 Y216.4 E29.3304
G1 X167.769 Y216.484 E29.356
G1 X167 Y216.488 E29.38158
G1 X166.235 Y216.412 E29.40714
G1 X165.481 Y216.258 E29.43274
G1 X164.748 Y216.026 E29.45831
G1 X164.043 Y215.719 E29.48389
G1 X163.373 Y215.34 E29.50949
G1 X162.746 Y214.894 E29.53508
G1 X162.111 Y214.329 E29.56335
G1 X20.689 Y72.907 E36.21541
G1 X20.175 Y72.335 E36.24099
G1 X19.722 Y71.713 E36.26658
G1 X19.336 Y71.048 E36.29215
G1 X19.021 Y70.346 E36.31774
G1 X18.781 Y69.615 E36.34333
G1 X18.618 Y68.864 E36.36889
G1 X18.534 Y68.099 E36.39449
G1 X18.53 Y67.33 E36.42007
G1 X18.606 Y66.565 E36.44564
G1 X18.76 Y65.811 E36.47123
G1 X18.992 Y65.078 E36.49681
G1 X19.299 Y64.373 E36.52238
G1 X19.678 Y63.703 E36.54798
G1 X20.124 Y63.076 E36.57358
G1 X20.689 Y62.441 E36.60185
G1 X60.863 Y22.268 E38.49148
G0 F6000 X61.146 Y22.551
G1 F1200 X61.703 Y22.051 E38.51638
G1 X62.309 Y21.614 E38.54123
G1 X62.959 Y21.243 E38.56612
G1 X63.645 Y20.944 E38.59101
G1 X64.359 Y20.72 E38.6159
G1 X65.092 Y20.573 E38.64077
G1 X65.837 Y20.506 E38.66564
G1 X66.585 Y20.518 E38.69053
G1 X67.328 Y20.61 E38.71543
G1 X68.056 Y20.781 E38.7403
G1 X68.762 Y21.029 E38.76519
G1 X69.437 Y21.35 E38.79005
G1 X70.075 Y21.742 E38.81495
G1 X70.667 Y22.199 E38.83983
G1 X71.046 Y22.551 E38.85703
G1 X101.686 Y53.193 E40.29829
G1 X102.186 Y53.75 E40.32318
G1 X102.624 Y54.357 E40.34808
G1 X102.994 Y55.006 E40.37293
G1 X103.293 Y55.692 E40.39782
G1 X103.517 Y56.406 E40.42271
G1 X103.664 Y57.139 E40.44757
G1 X103.731 Y57.884 E40.47245
G1 X103.719 Y58.632 E40.49733
G1 X103.627 Y59.375 E40.52223
G1 X103.456 Y60.103 E40.54711
G1 X103.208 Y60.809 E40.57199
G1 X102.887 Y61.484 E40.59685
G1 X102.495 Y62.122 E40.62176
G1 X102.038 Y62.714 E40.64663
G1 X101.686 Y63.093 E40.66384
G1 X98.214 Y66.565 E40.82715
G1 X168.454 Y136.803 E44.13098
G1 X171.925 Y133.332 E44.29424
G1 X172.482 Y132.832 E44.31914
G1 X173.088 Y132.395 E44.34399
G1 X173.738 Y132.024 E44.36888
G1 X174.424 Y131.725 E44.39377
G1 X175.138 Y131.501 E44.41866
G1 X175.871 Y131.354 E44.44352
G1 X176.616 Y131.287 E44.4684
G1 X177.364 Y131.299 E44.49328
G1 X178.107 Y131.391 E44.51818
G1 X178.835 Y131.562 E44.54306
G1 X179.541 Y131.809 E44.56793
G1 X180.216 Y132.131 E44.59281
G1 X180.854 Y132.523 E44.61771
G1 X181.445 Y132.98 E44.64256
G1 X181.825 Y133.332 E44.65979
G1 X212.466 Y163.973 E46.10105
G1 X212.966 Y164.53 E46.12594
G1 X213.403 Y165.136 E46.15079
G1 X213.774 Y165.786 E46.17569
G1 X214.073 Y166.472 E46.20058
G1 X214.297 Y167.186 E46.22546
G1 X214.444 Y167.919 E46.25033
G1 X214.511 Y168.664 E46.27521
G1 X214.499 Y169.412 E46.30009
G1 X214.407 Y170.155 E46.32499
G1 X214.236 Y170.883 E46.34986
G1 X213.989 Y171.589 E46.37474
G1 X213.667 Y172.264 E46.39962
G1 X213.275 Y172.902 E46.42452
G1 X212.818 Y173.493 E46.44937
G1 X212.466 Y173.873 E46.4666
G1 X172.294 Y214.046 E48.35619
G1 X171.737 Y214.546 E48.38108
G1 X171.131 Y214.983 E48.40593
G1 X170.481 Y215.354 E48.43083
G1 X169.795 Y215.653 E48.45572
G1 X169.081 Y215.877 E48.4806
G1 X168.348 Y216.024 E48.50547
G1 X167.603 Y216.091 E48.53035
G1 X166.855 Y216.079 E48.55523
G1 X166.113 Y215.987 E48.5801
G1 X165.384 Y215.816 E48.605
G1 X164.678 Y215.569 E48.62988
G1 X164.003 Y215.247 E48.65475
G1 X163.365 Y214.855 E48.67966
G1 X162.774 Y214.398 E48.70451
G1 X162.394 Y214.046 E48.72174
G1 X20.972 Y72.624 E55.37379
G1 X20.472 Y72.067 E55.39869
G1 X20.035 Y71.461 E55.42354
G1 X19.664 Y70.811 E55.44843
G1 X19.365 Y70.125 E55.47332
G1 X19.141 Y69.411 E55.49821
G1 X18.994 Y68.678 E55.52307
G1 X18.927 Y67.933 E55.54795
G1 X18.939 Y67.185 E55.57283
G1 X19.031 Y66.442 E55.59774
G1 X19.202 Y65.714 E55.62261
G1 X19.449 Y65.008 E55.64749
G1 X19.771 Y64.333 E55.67236
G1 X20.163 Y63.695 E55.69726
G1 X20.62 Y63.104 E55.72211
G1 X20.972 Y62.724 E55.73934
G1 X61.146 Y22.551 E57.62898
G0 F6000 X61.429 Y22.834
G1 F1200 X61.97 Y22.349 E57.65315
G1 X62.561 Y21.927 E57.6773
G1 X63.195 Y21.573 E57.70145
G1 X63.864 Y21.29 E57.72561
G1 X64.56 Y21.082 E57.74977
G1 X65.275 Y20.952 E57.77394
G1 X66 Y20.902 E57.79811
G1 X66.725 Y20.931 E57.82225
G1 X67.443 Y21.04 E57.8464
G1 X68.145 Y21.227 E57.87056
G1 X68.822 Y21.49 E57.89472
G1 X69.466 Y21.826 E57.91888
G1 X70.069 Y22.231 E57.94304
G1 X70.763 Y22.834 E57.97362
G1 X101.403 Y53.476 E59.41488
G1 X101.888 Y54.017 E59.43904
G1 X102.31 Y54.608 E59.46319
G1 X102.664 Y55.242 E59.48735
G1 X102.947 Y55.911 E59.51151
G1 X103.155 Y56.607 E59.53567
G1 X103.285 Y57.322 E59.55984
G1 X103.335 Y58.047 E59.58401
G1 X103.306 Y58.772 E59.60814
G1 X103.197 Y59.491 E59.63233
G1 X103.01 Y60.192 E59.65646
G1 X102.747 Y60.869 E59.68062
G1 X102.411 Y61.513 E59.70478
G1 X102.006 Y62.117 E59.72896
G1 X101.403 Y62.81 E59.75952
G1 X97.648 Y66.565 E59.93614
G1 X168.454 Y137.369 E63.26659
G1 X172.208 Y133.615 E63.44317
G1 X172.749 Y133.131 E63.46731
G1 X173.34 Y132.708 E63.49148
G1 X173.974 Y132.354 E63.51563
G1 X174.643 Y132.071 E63.53979
G1 X175.339 Y131.863 E63.56395
G1 X176.054 Y131.733 E63.58813
G1 X176.778 Y131.683 E63.61226
G1 X177.504 Y131.712 E63.63643
G1 X178.222 Y131.821 E63.66058
G1 X178.924 Y132.008 E63.68475
G1 X179.601 Y132.271 E63.7089
G1 X180.245 Y132.607 E63.73306
G1 X180.848 Y133.012 E63.75722
G1 X181.542 Y133.615 E63.7878
G1 X212.183 Y164.256 E65.22906
G1 X212.667 Y164.797 E65.2532
G1 X213.09 Y165.388 E65.27738
G1 X213.444 Y166.022 E65.30153
G1 X213.727 Y166.691 E65.32569
G1 X213.935 Y167.387 E65.34985
G1 X214.065 Y168.102 E65.37402
G1 X214.115 Y168.826 E65.39816
G1 X214.086 Y169.552 E65.42232
G1 X213.977 Y170.27 E65.44648
G1 X213.79 Y170.972 E65.47064
G1 X213.527 Y171.649 E65.4948
G1 X213.191 Y172.293 E65.51896
G1 X212.786 Y172.896 E65.54312
G1 X212.183 Y173.59 E65.57369
G1 X172.011 Y213.763 E67.46329
G1 X171.47 Y214.247 E67.48743
G1 X170.879 Y214.67 E67.5116
G1 X170.245 Y215.024 E67.53575
G1 X169.576 Y215.307 E67.55991
G1 X168.88 Y215.515 E67.58407
G1 X168.165 Y215.645 E67.60825
G1 X167.441 Y215.695 E67.63238
G1 X166.715 Y215.666 E67.65655
G1 X165.997 Y215.557 E67.6807
G1 X165.295 Y215.37 E67.70487
G1 X164.618 Y215.107 E67.72902
G1 X163.974 Y214.771 E67.75318
G1 X163.371 Y214.366 E67.77734
G1 X162.677 Y213.763 E67.80792
G1 X21.255 Y72.341 E74.45998
G1 X20.771 Y71.8 E74.48412
G1 X20.348 Y71.209 E74.50829
G1 X19.994 Y70.575 E74.53245
G1 X19.711 Y69.906 E74.55661
G1 X19.503 Y69.21 E74.58077
G1 X19.373 Y68.495 E74.60494
G1 X19.323 Y67.771 E74.62907
G1 X19.352 Y67.045 E74.65324
G1 X19.461 Y66.327 E74.6774
G1 X19.648 Y65.625 E74.70156
G1 X19.911 Y64.948 E74.72571
G1 X20.247 Y64.304 E74.74987
G1 X20.652 Y63.701 E74.77403
G1 X21.255 Y63.007 E74.80461
G1 X61.429 Y22.834 E76.69425
G0 F6000 X61.712 Y23.117
G1 F1200 X62.237 Y22.648 E76.71766
G1 X62.812 Y22.242 E76.74108
G1 X63.43 Y21.904 E76.7645
G1 X64.081 Y21.637 E76.78791
G1 X64.759 Y21.447 E76.81133
G1 X65.454 Y21.334 E76.83475
G1 X66.157 Y21.301 E76.85815
G1 X66.86 Y21.348 E76.88159
G1 X67.552 Y21.474 E76.90498
G1 X68.226 Y21.678 E76.9284
G1 X68.872 Y21.957 E76.95181
G1 X69.483 Y22.308 E76.97524
G1 X70.05 Y22.725 E76.99865
G1 X70.48 Y23.117 E77.01801
G1 X101.12 Y53.759 E78.45927
G1 X101.589 Y54.284 E78.48268
G1 X101.995 Y54.859 E78.50609
G1 X102.333 Y55.477 E78.52952
G1 X102.6 Y56.128 E78.55292
G1 X102.79 Y56.806 E78.57634
G1 X102.903 Y57.501 E78.59976
G1 X102.936 Y58.204 E78.62317
G1 X102.889 Y58.907 E78.6466
G1 X102.763 Y59.599 E78.67
G1 X102.559 Y60.273 E78.69342
G1 X102.28 Y60.919 E78.71682
G1 X101.929 Y61.53 E78.74026
G1 X101.512 Y62.097 E78.76367
G1 X101.12 Y62.527 E78.78302
G1 X97.082 Y66.565 E78.97296
G1 X168.454 Y137.935 E82.33003
G1 X172.491 Y133.898 E82.51992
G1 X173.016 Y133.429 E82.54333
G1 X173.591 Y133.023 E82.56674
G1 X174.209 Y132.685 E82.59017
G1 X174.86 Y132.418 E82.61357
G1 X175.538 Y132.228 E82.63699
G1 X176.233 Y132.115 E82.66041
G1 X176.936 Y132.082 E82.68382
G1 X177.639 Y132.129 E82.70725
G1 X178.331 Y132.255 E82.73065
G1 X179.005 Y132.459 E82.75407
G1 X179.651 Y132.738 E82.77747
G1 X180.262 Y133.089 E82.80091
G1 X180.829 Y133.506 E82.82432
G1 X181.259 Y133.898 E82.84367
G1 X211.9 Y164.539 E84.28493
G1 X212.369 Y165.064 E84.30835
G1 X212.775 Y165.639 E84.33176
G1 X213.113 Y166.257 E84.35519
G1 X213.38 Y166.908 E84.37859
G1 X213.57 Y167.586 E84.40201
G1 X213.683 Y168.281 E84.42543
G1 X213.716 Y168.984 E84.44884
G1 X213.669 Y169.687 E84.47227
G1 X213.543 Y170.379 E84.49566
G1 X213.339 Y171.053 E84.51909
G1 X213.06 Y171.699 E84.54249
G1 X212.709 Y172.31 E84.56593
G1 X212.292 Y172.877 E84.58934
G1 X211.9 Y173.307 E84.60869
G1 X171.728 Y213.48 E86.49828
G1 X171.203 Y213.949 E86.52169
G1 X170.628 Y214.355 E86.54511
G1 X170.011 Y214.693 E86.5685
G1 X169.359 Y214.959 E86.59193
G1 X168.681 Y215.15 E86.61535
G1 X167.986 Y215.263 E86.63877
G1 X167.283 Y215.296 E86.66218
G1 X166.581 Y215.249 E86.68558
G1 X165.888 Y215.123 E86.70901
G1 X165.214 Y214.919 E86.73243
G1 X164.568 Y214.64 E86.75583
G1 X163.957 Y214.289 E86.77927
G1 X163.39 Y213.872 E86.80268
G1 X162.96 Y213.48 E86.82203
G1 X21.538 Y72.058 E93.47409
G1 X21.069 Y71.533 E93.49751
G1 X20.663 Y70.958 E93.52092
G1 X20.325 Y70.34 E93.54435
G1 X20.058 Y69.689 E93.56775
G1 X19.868 Y69.011 E93.59117
G1 X19.755 Y68.316 E93.61459
G1 X19.722 Y67.613 E93.63799
G1 X19.769 Y66.91 E93.66143
G1 X19.895 Y66.218 E93.68482
G1 X20.099 Y65.544 E93.70824
G1 X20.378 Y64.898 E93.73165
G1 X20.729 Y64.287 E93.75508
G1 X21.146 Y63.72 E93.77849
G1 X21.538 Y63.29 E93.79785
G1 X61.712 Y23.117 E95.68749
G0 F6000 X61.995 Y23.4
G1 F1200 X62.504 Y22.947 E95.71015
G1 X63.062 Y22.558 E95.73277
G1 X63.662 Y22.236 E95.75542
G1 X64.296 Y21.987 E95.77808
G1 X64.955 Y21.814 E95.80074
G1 X65.629 Y21.72 E95.82337
G1 X66.31 Y21.705 E95.84603
G1 X66.987 Y21.77 E95.86865
G1 X67.653 Y21.914 E95.89131
G1 X68.297 Y22.135 E95.91396
G1 X68.911 Y22.43 E95.93661
G1 X69.486 Y22.795 E95.95926
G1 X70.197 Y23.4 E95.99032
G1 X100.837 Y54.042 E97.43157
G1 X101.29 Y54.551 E97.45424
G1 X101.679 Y55.109 E97.47686
G1 X102.001 Y55.709 E97.49951
G1 X102.25 Y56.343 E97.52216
G1 X102.423 Y57.002 E97.54483
