;FLAVOR:Marlin
;TIME:1277
;Filament used: 0.810451m
;Layer height: 0.2
;MINX:9.7
;MINY:9.7
;MINZ:0.2
;MAXX:225.3
;MAXY:225.3
;MAXZ:0.2
;Generated with Cura_SteamEngine 5.0.0
M140 S70
M105
M190 S70
M104 S200
M105
M109 S200
M82 ;absolute extrusion mode
; Ender 3 Custom Start G-code
G28 ; Home all axes
M420 S1; Bed Leveling On
G92 E0 ; Reset Extruder
G1 Z2.0 F3000 ; Move Z Axis up little to prevent scratching of Heat Bed
G1 X0.1 Y20 Z0.3 F5000.0 ; Move to start position
G1 X0.1 Y200.0 Z0.3 F1500.0 E15 ; Draw the first line
G1 X0.4 Y200.0 Z0.3 F5000.0 ; Move to side a little
G1 X0.4 Y20 Z0.3 F1500.0 E30 ; Draw the second line
G92 E0 ; Reset Extruder
G1 Z2.0 F3000 ; Move Z Axis up little to prevent scratching of Heat Bed
G1 X5 Y20 Z0.3 F5000.0 ; Move over to prevent blob squish
G92 E0
G92 E0
G1 F2700 E-5
;LAYER_COUNT:1
;LAYER:0
M107
G0 F6000 X12.123 Y11.849 Z0.2
G0 X9.7 Y17.5
;TYPE:SKIRT
G1 F2700 E0
G1 F1200 X9.74 Y16.711 E0.02628
G1 X9.859 Y15.931 E0.05252
G1 X10.057 Y15.166 E0.0788
G1 X10.331 Y14.426 E0.10505
G1 X10.679 Y13.717 E0.13132
G1 X11.097 Y13.046 E0.15761
G1 X11.58 Y12.422 E0.18385
G1 X12.123 Y11.849 E0.21011
G1 X12.722 Y11.334 E0.23638
G1 X13.37 Y10.883 E0.26264
G1 X14.061 Y10.499 E0.28894
G1 X14.786 Y10.187 E0.31519
G1 X15.539 Y9.95 E0.34144
G1 X16.313 Y9.791 E0.36773
G1 X17.098 Y9.71 E0.39397
G1 X17.5 Y9.7 E0.40735
G1 X38.929 Y9.7 E1.12008
G1 X39.718 Y9.74 E1.14636
G1 X40.498 Y9.859 E1.1726
G1 X41.263 Y10.057 E1.19888
G1 X42.003 Y10.331 E1.22513
G1 X42.712 Y10.679 E1.2514
G1 X43.383 Y11.097 E1.27769
G1 X44.007 Y11.58 E1.30393
G1 X44.58 Y12.123 E1.33019
G1 X45.095 Y12.722 E1.35646
G1 X45.546 Y13.37 E1.38272
G1 X45.93 Y14.061 E1.40902
G1 X46.242 Y14.786 E1.43527
G1 X46.479 Y15.539 E1.46152
G1 X46.638 Y16.313 E1.4878
G1 X46.719 Y17.098 E1.51405
G1 X46.729 Y17.5 E1.52743
G1 X46.729 Y20.414 E1.62435
G1 X188.271 Y20.414 E6.33205
G1 X188.271 Y17.5 E6.42897
G1 X188.311 Y16.711 E6.45525
G1 X188.43 Y15.931 E6.48149
G1 X188.628 Y15.166 E6.50778
G1 X188.902 Y14.426 E6.53402
G1 X189.25 Y13.717 E6.56029
G1 X189.668 Y13.046 E6.58658
G1 X190.151 Y12.422 E6.61283
G1 X190.694 Y11.849 E6.63908
G1 X191.293 Y11.334 E6.66536
G1 X191.941 Y10.883 E6.69162
G1 X192.632 Y10.499 E6.71791
G1 X193.357 Y10.187 E6.74416
G1 X194.11 Y9.95 E6.77042
G1 X194.884 Y9.791 E6.7967
G1 X195.669 Y9.71 E6.82295
G1 X196.071 Y9.7 E6.83632
G1 X217.5 Y9.7 E7.54905
G1 X218.289 Y9.74 E7.57533
G1 X219.069 Y9.859 E7.60157
G1 X219.834 Y10.057 E7.62785
G1 X220.574 Y10.331 E7.6541
G1 X221.283 Y10.679 E7.68037
G1 X221.954 Y11.097 E7.70666
G1 X222.578 Y11.58 E7.73291
G1 X223.151 Y12.123 E7.75916
G1 X223.666 Y12.722 E7.78544
G1 X224.117 Y13.37 E7.8117
G1 X224.501 Y14.061 E7.83799
G1 X224.813 Y14.786 E7.86424
G1 X225.05 Y15.539 E7.8905
G1 X225.209 Y16.313 E7.91678
G1 X225.29 Y17.098 E7.94303
G1 X225.3 Y17.5 E7.9564
G1 X225.3 Y38.929 E8.66913
G1 X225.26 Y39.718 E8.69541
G1 X225.141 Y40.498 E8.72165
G1 X224.943 Y41.263 E8.74793
G1 X224.669 Y42.003 E8.77418
G1 X224.321 Y42.712 E8.80045
G1 X223.903 Y43.383 E8.82674
G1 X223.42 Y44.007 E8.85299
G1 X222.877 Y44.58 E8.87924
G1 X222.278 Y45.095 E8.90552
G1 X221.63 Y45.546 E8.93178
G1 X220.939 Y45.93 E8.95807
G1 X220.214 Y46.242 E8.98432
G1 X219.461 Y46.479 E9.01058
G1 X218.687 Y46.638 E9.03686
G1 X217.902 Y46.719 E9.06311
G1 X217.5 Y46.729 E9.07648
G1 X214.729 Y46.729 E9.16864
G1 X214.729 Y188.271 E13.87635
G1 X217.5 Y188.271 E13.96851
G1 X218.289 Y188.311 E13.99479
G1 X219.069 Y188.43 E14.02103
G1 X219.834 Y188.628 E14.04732
G1 X220.574 Y188.902 E14.07356
G1 X221.283 Y189.25 E14.09983
G1 X221.954 Y189.668 E14.12612
G1 X222.578 Y190.151 E14.15237
G1 X223.151 Y190.694 E14.17863
G1 X223.666 Y191.293 E14.2049
G1 X224.117 Y191.941 E14.23116
G1 X224.501 Y192.632 E14.25745
G1 X224.813 Y193.357 E14.2837
G1 X225.05 Y194.11 E14.30996
G1 X225.209 Y194.884 E14.33624
G1 X225.29 Y195.669 E14.36249
G1 X225.3 Y196.071 E14.37586
G1 X225.3 Y217.5 E15.08859
G1 X225.26 Y218.289 E15.11487
G1 X225.141 Y219.069 E15.14111
G1 X224.943 Y219.834 E15.1674
G1 X224.669 Y220.574 E15.19364
G1 X224.321 Y221.283 E15.21991
G1 X223.903 Y221.954 E15.2462
G1 X223.42 Y222.578 E15.27245
G1 X222.877 Y223.151 E15.2987
G1 X222.278 Y223.666 E15.32498
G1 X221.63 Y224.117 E15.35124
G1 X220.939 Y224.501 E15.37753
G1 X220.214 Y224.813 E15.40378
G1 X219.461 Y225.05 E15.43004
G1 X218.687 Y225.209 E15.45632
G1 X217.902 Y225.29 E15.48257
G1 X217.5 Y225.3 E15.49594
G1 X196.071 Y225.3 E16.20867
G1 X195.282 Y225.26 E16.23495
G1 X194.502 Y225.141 E16.26119
G1 X193.737 Y224.943 E16.28747
G1 X192.997 Y224.669 E16.31372
G1 X192.288 Y224.321 E16.33999
G1 X191.617 Y223.903 E16.36628
G1 X190.993 Y223.42 E16.39253
G1 X190.42 Y222.877 E16.41878
G1 X189.905 Y222.278 E16.44506
G1 X189.454 Y221.63 E16.47132
G1 X189.07 Y220.939 E16.49761
G1 X188.758 Y220.214 E16.52386
G1 X188.521 Y219.461 E16.55012
G1 X188.362 Y218.687 E16.5764
G1 X188.281 Y217.902 E16.60265
G1 X188.271 Y217.5 E16.61602
G1 X188.271 Y214.871 E16.70346
G1 X46.729 Y214.871 E21.41117
G1 X46.729 Y217.5 E21.49861
G1 X46.689 Y218.289 E21.52488
G1 X46.57 Y219.069 E21.55113
G1 X46.372 Y219.834 E21.57741
G1 X46.098 Y220.574 E21.60366
G1 X45.75 Y221.283 E21.62992
G1 X45.332 Y221.954 E21.65622
G1 X44.849 Y222.578 E21.68246
G1 X44.306 Y223.151 E21.70872
G1 X43.707 Y223.666 E21.73499
G1 X43.059 Y224.117 E21.76125
G1 X42.368 Y224.501 E21.78755
G1 X41.643 Y224.813 E21.8138
G1 X40.89 Y225.05 E21.84005
G1 X40.116 Y225.209 E21.86633
G1 X39.331 Y225.29 E21.89258
G1 X38.929 Y225.3 E21.90596
G1 X17.5 Y225.3 E22.61869
G1 X16.711 Y225.26 E22.64496
G1 X15.931 Y225.141 E22.67121
G1 X15.166 Y224.943 E22.69749
G1 X14.426 Y224.669 E22.72374
G1 X13.717 Y224.321 E22.75
G1 X13.046 Y223.903 E22.7763
G1 X12.422 Y223.42 E22.80254
G1 X11.849 Y222.877 E22.8288
G1 X11.334 Y222.278 E22.85507
G1 X10.883 Y221.63 E22.88133
G1 X10.499 Y220.939 E22.90763
G1 X10.187 Y220.214 E22.93388
G1 X9.95 Y219.461 E22.96013
G1 X9.791 Y218.687 E22.98641
G1 X9.71 Y217.902 E23.01266
G1 X9.7 Y217.5 E23.02604
G1 X9.7 Y196.071 E23.73877
G1 X9.74 Y195.282 E23.76504
G1 X9.859 Y194.502 E23.79129
G1 X10.057 Y193.737 E23.81757
G1 X10.331 Y192.997 E23.84381
G1 X10.679 Y192.288 E23.87008
G1 X11.097 Y191.617 E23.89638
G1 X11.58 Y190.993 E23.92262
G1 X12.123 Y190.42 E23.94888
G1 X12.722 Y189.905 E23.97515
G1 X13.37 Y189.454 E24.00141
G1 X14.061 Y189.07 E24.0277
G1 X14.786 Y188.758 E24.05396
G1 X15.539 Y188.521 E24.08021
G1 X16.313 Y188.362 E24.10649
G1 X17.098 Y188.281 E24.13274
G1 X17.5 Y188.271 E24.14612
G1 X20.129 Y188.271 E24.23356
G1 X20.129 Y46.729 E28.94126
G1 X17.5 Y46.729 E29.0287
G1 X16.711 Y46.689 E29.05498
G1 X15.931 Y46.57 E29.08122
G1 X15.166 Y46.372 E29.10751
G1 X14.426 Y46.098 E29.13375
G1 X13.717 Y45.75 E29.16002
G1 X13.046 Y45.332 E29.18631
G1 X12.422 Y44.849 E29.21256
G1 X11.849 Y44.306 E29.23881
G1 X11.334 Y43.707 E29.26509
G1 X10.883 Y43.059 E29.29135
G1 X10.499 Y42.368 E29.31764
G1 X10.187 Y41.643 E29.34389
G1 X9.95 Y40.89 E29.37015
G1 X9.791 Y40.116 E29.39643
G1 X9.71 Y39.331 E29.42268
G1 X9.7 Y38.929 E29.43605
G1 X9.7 Y17.5 E30.14878
G0 F6000 X10.1 Y17.5
G1 F1200 X10.14 Y16.732 E30.17436
G1 X10.259 Y15.972 E30.19995
G1 X10.457 Y15.229 E30.22552
G1 X10.731 Y14.51 E30.25111
G1 X11.078 Y13.824 E30.27668
G1 X11.494 Y13.177 E30.30227
G1 X11.975 Y12.577 E30.32784
G1 X12.516 Y12.03 E30.35343
G1 X13.111 Y11.542 E30.37903
G1 X13.753 Y11.119 E30.4046
G1 X14.436 Y10.764 E30.4302
G1 X15.151 Y10.483 E30.45575
G1 X15.893 Y10.277 E30.48136
G1 X16.651 Y10.149 E30.50693
G1 X17.5 Y10.1 E30.53522
G1 X38.929 Y10.1 E31.24795
G1 X39.697 Y10.14 E31.27353
G1 X40.457 Y10.259 E31.29911
G1 X41.2 Y10.457 E31.32469
G1 X41.919 Y10.731 E31.35028
G1 X42.605 Y11.078 E31.37585
G1 X43.252 Y11.494 E31.40143
G1 X43.852 Y11.975 E31.42701
G1 X44.399 Y12.516 E31.4526
G1 X44.887 Y13.111 E31.47819
G1 X45.31 Y13.753 E31.50376
G1 X45.665 Y14.436 E31.52936
G1 X45.946 Y15.151 E31.55492
G1 X46.152 Y15.893 E31.58053
G1 X46.28 Y16.651 E31.6061
G1 X46.329 Y17.5 E31.63438
G1 X46.329 Y20.814 E31.74461
G1 X188.671 Y20.814 E36.47892
G1 X188.671 Y17.5 E36.58914
G1 X188.711 Y16.732 E36.61472
G1 X188.83 Y15.972 E36.64031
G1 X189.028 Y15.229 E36.66588
G1 X189.302 Y14.51 E36.69147
G1 X189.649 Y13.824 E36.71704
G1 X190.065 Y13.177 E36.74263
G1 X190.546 Y12.577 E36.7682
G1 X191.087 Y12.03 E36.79379
G1 X191.682 Y11.542 E36.81939
G1 X192.324 Y11.119 E36.84496
G1 X193.007 Y10.764 E36.87056
G1 X193.722 Y10.483 E36.89611
G1 X194.464 Y10.277 E36.92173
G1 X195.222 Y10.149 E36.94729
G1 X196.071 Y10.1 E36.97558
G1 X217.5 Y10.1 E37.68831
G1 X218.268 Y10.14 E37.71389
G1 X219.028 Y10.259 E37.73947
G1 X219.771 Y10.457 E37.76505
G1 X220.49 Y10.731 E37.79064
G1 X221.176 Y11.078 E37.81621
G1 X221.823 Y11.494 E37.84179
G1 X222.423 Y11.975 E37.86737
G1 X222.97 Y12.516 E37.89296
G1 X223.458 Y13.111 E37.91855
G1 X223.881 Y13.753 E37.94412
G1 X224.236 Y14.436 E37.96973
G1 X224.517 Y15.151 E37.99528
G1 X224.723 Y15.893 E38.02089
G1 X224.851 Y16.651 E38.04646
G1 X224.9 Y17.5 E38.07474
G1 X224.9 Y38.929 E38.78747
G1 X224.86 Y39.697 E38.81305
G1 X224.741 Y40.457 E38.83864
G1 X224.543 Y41.2 E38.86421
G1 X224.269 Y41.919 E38.88981
G1 X223.922 Y42.605 E38.91537
G1 X223.506 Y43.252 E38.94096
G1 X223.025 Y43.852 E38.96654
G1 X222.484 Y44.399 E38.99212
G1 X221.889 Y44.887 E39.01772
G1 X221.247 Y45.31 E39.04329
G1 X220.564 Y45.665 E39.06889
G1 X219.849 Y45.946 E39.09444
G1 X219.107 Y46.152 E39.12006
G1 X218.349 Y46.28 E39.14562
G1 X217.5 Y46.329 E39.17391
G1 X214.329 Y46.329 E39.27938
G1 X214.329 Y188.671 E44.01369
G1 X217.5 Y188.671 E44.11916
G1 X218.268 Y188.711 E44.14474
G1 X219.028 Y188.83 E44.17032
G1 X219.771 Y189.028 E44.1959
G1 X220.49 Y189.302 E44.22149
G1 X221.176 Y189.649 E44.24706
G1 X221.823 Y190.065 E44.27264
G1 X222.423 Y190.546 E44.29822
G1 X222.97 Y191.087 E44.32381
G1 X223.458 Y191.682 E44.3494
G1 X223.881 Y192.324 E44.37497
G1 X224.236 Y193.007 E44.40057
G1 X224.517 Y193.722 E44.42613
G1 X224.723 Y194.464 E44.45174
G1 X224.851 Y195.222 E44.47731
G1 X224.9 Y196.071 E44.50559
G1 X224.9 Y217.5 E45.21832
G1 X224.86 Y218.268 E45.2439
G1 X224.741 Y219.028 E45.26949
G1 X224.543 Y219.771 E45.29506
G1 X224.269 Y220.49 E45.32065
G1 X223.922 Y221.176 E45.34622
G1 X223.506 Y221.823 E45.37181
G1 X223.025 Y222.423 E45.39738
G1 X222.484 Y222.97 E45.42297
G1 X221.889 Y223.458 E45.44857
G1 X221.247 Y223.881 E45.47414
G1 X220.564 Y224.236 E45.49974
G1 X219.849 Y224.517 E45.52529
G1 X219.107 Y224.723 E45.5509
G1 X218.349 Y224.851 E45.57647
G1 X217.5 Y224.9 E45.60476
G1 X196.071 Y224.9 E46.31749
G1 X195.303 Y224.86 E46.34307
G1 X194.543 Y224.741 E46.36865
G1 X193.8 Y224.543 E46.39423
G1 X193.081 Y224.269 E46.41982
G1 X192.395 Y223.922 E46.44539
G1 X191.748 Y223.506 E46.47097
G1 X191.148 Y223.025 E46.49655
G1 X190.601 Y222.484 E46.52214
G1 X190.113 Y221.889 E46.54773
G1 X189.69 Y221.247 E46.5733
G1 X189.335 Y220.564 E46.59891
G1 X189.054 Y219.849 E46.62446
G1 X188.848 Y219.107 E46.65007
G1 X188.72 Y218.349 E46.67564
G1 X188.671 Y217.5 E46.70392
G1 X188.671 Y214.471 E46.80467
G1 X46.329 Y214.471 E51.53898
G1 X46.329 Y217.5 E51.63973
G1 X46.289 Y218.268 E51.6653
G1 X46.17 Y219.028 E51.69089
G1 X45.972 Y219.771 E51.71647
G1 X45.698 Y220.49 E51.74206
G1 X45.351 Y221.176 E51.76763
G1 X44.935 Y221.823 E51.79321
G1 X44.454 Y222.423 E51.81879
G1 X43.913 Y222.97 E51.84438
G1 X43.318 Y223.458 E51.86997
G1 X42.676 Y223.881 E51.89554
G1 X41.993 Y224.236 E51.92114
G1 X41.278 Y224.517 E51.94669
G1 X40.536 Y224.723 E51.97231
G1 X39.778 Y224.851 E51.99788
G1 X38.929 Y224.9 E52.02616
G1 X17.5 Y224.9 E52.73889
G1 X16.732 Y224.86 E52.76447
G1 X15.972 Y224.741 E52.79006
G1 X15.229 Y224.543 E52.81563
G1 X14.51 Y224.269 E52.84122
G1 X13.824 Y223.922 E52.86679
G1 X13.177 Y223.506 E52.89237
G1 X12.577 Y223.025 E52.91795
G1 X12.03 Y222.484 E52.94354
G1 X11.542 Y221.889 E52.96913
G1 X11.119 Y221.247 E52.99471
G1 X10.764 Y220.564 E53.02031
G1 X10.483 Y219.849 E53.04586
G1 X10.277 Y219.107 E53.07147
G1 X10.149 Y218.349 E53.09704
G1 X10.1 Y217.5 E53.12533
G1 X10.1 Y196.071 E53.83806
G1 X10.14 Y195.303 E53.86363
G1 X10.259 Y194.543 E53.88922
G1 X10.457 Y193.8 E53.9148
G1 X10.731 Y193.081 E53.94039
G1 X11.078 Y192.395 E53.96596
G1 X11.494 Y191.748 E53.99154
G1 X11.975 Y191.148 E54.01712
G1 X12.516 Y190.601 E54.04271
G1 X13.111 Y190.113 E54.0683
G1 X13.753 Y189.69 E54.09387
G1 X14.436 Y189.335 E54.11947
G1 X15.151 Y189.054 E54.14502
G1 X15.893 Y188.848 E54.17064
G1 X16.651 Y188.72 E54.19621
G1 X17.5 Y188.671 E54.22449
G1 X20.529 Y188.671 E54.32524
G1 X20.529 Y46.329 E59.05955
G1 X17.5 Y46.329 E59.16029
G1 X16.732 Y46.289 E59.18587
G1 X15.972 Y46.17 E59.21146
G1 X15.229 Y45.972 E59.23703
G1 X14.51 Y45.698 E59.26262
G1 X13.824 Y45.351 E59.28819
G1 X13.177 Y44.935 E59.31378
G1 X12.577 Y44.454 E59.33935
G1 X12.03 Y43.913 E59.36494
G1 X11.542 Y43.318 E59.39054
G1 X11.119 Y42.676 E59.41611
G1 X10.764 Y41.993 E59.44171
G1 X10.483 Y41.278 E59.46726
G1 X10.277 Y40.536 E59.49288
G1 X10.149 Y39.778 E59.51844
G1 X10.1 Y38.929 E59.54673
G1 X10.1 Y17.5 E60.25946
G0 F6000 X10.5 Y17.5
G1 F1200 X10.54 Y16.753 E60.28434
G1 X10.659 Y16.015 E60.3092
G1 X10.857 Y15.293 E60.3341
G1 X11.13 Y14.597 E60.35897
G1 X11.477 Y13.934 E60.38386
G1 X11.892 Y13.311 E60.40876
G1 X12.371 Y12.737 E60.43362
G1 X12.908 Y12.216 E60.45851
G1 X13.498 Y11.757 E60.48337
G1 X14.134 Y11.362 E60.50827
G1 X14.808 Y11.038 E60.53314
G1 X15.513 Y10.788 E60.55802
G1 X16.241 Y10.614 E60.58292
G1 X16.983 Y10.519 E60.6078
G1 X17.5 Y10.5 E60.62501
G1 X38.929 Y10.5 E61.33774
G1 X39.676 Y10.54 E61.36262
G1 X40.414 Y10.659 E61.38748
G1 X41.136 Y10.857 E61.41238
G1 X41.832 Y11.13 E61.43725
G1 X42.495 Y11.477 E61.46214
G1 X43.118 Y11.892 E61.48703
G1 X43.692 Y12.371 E61.5119
G1 X44.213 Y12.908 E61.53679
G1 X44.672 Y13.498 E61.56165
G1 X45.067 Y14.134 E61.58655
G1 X45.391 Y14.808 E61.61142
G1 X45.641 Y15.513 E61.6363
G1 X45.815 Y16.241 E61.6612
G1 X45.91 Y16.983 E61.68608
G1 X45.929 Y17.5 E61.70328
G1 X45.929 Y21.214 E61.82681
G1 X189.071 Y21.214 E66.58773
G1 X189.071 Y17.5 E66.71126
G1 X189.111 Y16.753 E66.73614
G1 X189.23 Y16.015 E66.76101
G1 X189.428 Y15.293 E66.78591
G1 X189.701 Y14.597 E66.81077
G1 X190.048 Y13.934 E66.83566
G1 X190.463 Y13.311 E66.86056
G1 X190.942 Y12.737 E66.88543
G1 X191.479 Y12.216 E66.91031
G1 X192.069 Y11.757 E66.93517
G1 X192.705 Y11.362 E66.96007
G1 X193.379 Y11.038 E66.98495
G1 X194.084 Y10.788 E67.00983
G1 X194.812 Y10.614 E67.03472
G1 X195.554 Y10.519 E67.0596
G1 X196.071 Y10.5 E67.07681
G1 X217.5 Y10.5 E67.78954
G1 X218.247 Y10.54 E67.81442
G1 X218.985 Y10.659 E67.83928
G1 X219.707 Y10.857 E67.86419
G1 X220.403 Y11.13 E67.88905
G1 X221.066 Y11.477 E67.91394
G1 X221.689 Y11.892 E67.93884
G1 X222.263 Y12.371 E67.9637
G1 X222.784 Y12.908 E67.98859
G1 X223.243 Y13.498 E68.01345
G1 X223.638 Y14.134 E68.03835
G1 X223.962 Y14.808 E68.06323
G1 X224.212 Y15.513 E68.0881
G1 X224.386 Y16.241 E68.113
G1 X224.481 Y16.983 E68.13788
G1 X224.5 Y17.5 E68.15509
G1 X224.5 Y38.929 E68.86782
G1 X224.46 Y39.676 E68.8927
G1 X224.341 Y40.414 E68.91756
G1 X224.143 Y41.136 E68.94246
G1 X223.87 Y41.832 E68.96733
G1 X223.523 Y42.495 E68.99222
G1 X223.108 Y43.118 E69.01712
G1 X222.629 Y43.692 E69.04198
G1 X222.092 Y44.213 E69.06687
G1 X221.502 Y44.672 E69.09173
G1 X220.866 Y45.067 E69.11663
G1 X220.192 Y45.391 E69.1415
G1 X219.487 Y45.641 E69.16638
G1 X218.759 Y45.815 E69.19128
G1 X218.017 Y45.91 E69.21616
G1 X217.5 Y45.929 E69.23337
G1 X213.929 Y45.929 E69.35214
G1 X213.929 Y189.071 E74.11306
G1 X217.5 Y189.071 E74.23183
G1 X218.247 Y189.111 E74.25671
G1 X218.985 Y189.23 E74.28158
G1 X219.707 Y189.428 E74.30648
G1 X220.403 Y189.701 E74.33134
G1 X221.066 Y190.048 E74.35623
G1 X221.689 Y190.463 E74.38113
G1 X222.263 Y190.942 E74.40599
G1 X222.784 Y191.479 E74.43088
G1 X223.243 Y192.069 E74.45574
G1 X223.638 Y192.705 E74.48064
G1 X223.962 Y193.379 E74.50552
G1 X224.212 Y194.084 E74.5304
G1 X224.386 Y194.812 E74.55529
G1 X224.481 Y195.554 E74.58017
G1 X224.5 Y196.071 E74.59738
G1 X224.5 Y217.5 E75.31011
G1 X224.46 Y218.247 E75.33499
G1 X224.341 Y218.985 E75.35985
G1 X224.143 Y219.707 E75.38475
G1 X223.87 Y220.403 E75.40962
