;FLAVOR:Marlin
;TIME:8215
;Filament used: 5.37768m
;Layer height: 0.2
;MINX:46.856
;MINY:19.597
;MINZ:0.2
;MAXX:180.925
;MAXY:212.022
;MAXZ:2
;Generated with Cura_SteamEngine 5.0.0
M140 S70
M105
M190 S70
M104 S200
M105
M109 S200
M82 ;absolute extrusion mode
; Ender 3 Custom Start G-code
G28 ; Home all axes
M420 S1; Bed Leveling On
G92 E0 ; Reset Extruder
G1 Z2.0 F3000 ; Move Z Axis up little to prevent scratching of Heat Bed
G1 X0.1 Y20 Z0.3 F5000.0 ; Move to start position
G1 X0.1 Y200.0 Z0.3 F1500.0 E15 ; Draw the first line
G1 X0.4 Y200.0 Z0.3 F5000.0 ; Move to side a little
G1 X0.4 Y20 Z0.3 F1500.0 E30 ; Draw the second line
G92 E0 ; Reset Extruder
G1 Z2.0 F3000 ; Move Z Axis up little to prevent scratching of Heat Bed
G1 X5 Y20 Z0.3 F5000.0 ; Move over to prevent blob squish
G92 E0
G92 E0
G1 F2700 E-5
;LAYER_COUNT:10
;LAYER:0
M107
G0 F6000 X60.032 Y27.613 Z0.2
G0 X59.356 Y30.678
;TYPE:SKIRT
G1 F2700 E0
G1 F1200 X59.407 Y29.89 E0.02626
G1 X59.538 Y29.111 E0.05254
G1 X59.747 Y28.35 E0.07879
G1 X60.032 Y27.613 E0.10507
G1 X60.39 Y26.909 E0.13134
G1 X60.817 Y26.245 E0.15759
G1 X61.309 Y25.628 E0.18384
G1 X61.861 Y25.063 E0.21011
G1 X62.468 Y24.557 E0.2364
G1 X63.122 Y24.115 E0.26265
G1 X63.818 Y23.742 E0.28891
G1 X64.548 Y23.441 E0.31518
G1 X65.305 Y23.215 E0.34145
G1 X66.08 Y23.066 E0.3677
G1 X66.749 Y23.007 E0.39004
G1 X66.892 Y22.832 E0.39756
G1 X67.424 Y22.247 E0.42385
G1 X68.011 Y21.72 E0.45009
G1 X68.577 Y21.303 E0.47348
G1 X68.914 Y21.077 E0.48697
G1 X69.591 Y20.671 E0.51323
G1 X70.306 Y20.335 E0.5395
G1 X70.893 Y20.119 E0.56031
G1 X71.808 Y19.863 E0.59191
G1 X72.04 Y19.813 E0.5998
G1 X72.788 Y19.69 E0.62501
G1 X73.039 Y19.661 E0.63342
G1 X73.675 Y19.613 E0.65463
G1 X74.156 Y19.597 E0.67064
G1 X74.656 Y19.597 E0.68727
G1 X75.108 Y19.611 E0.70231
G1 X75.598 Y19.641 E0.71864
G1 X76.055 Y19.684 E0.7339
G1 X76.756 Y19.777 E0.75742
G1 X77.379 Y19.886 E0.77846
G1 X78.07 Y20.036 E0.80198
G1 X78.738 Y20.206 E0.8249
G1 X79.505 Y20.433 E0.85151
G1 X80.29 Y20.697 E0.87905
G1 X81.091 Y20.994 E0.90747
G1 X82.052 Y21.389 E0.94203
G1 X83.052 Y21.839 E0.9785
G1 X84.306 Y22.464 E1.0251
G1 X85.205 Y22.948 E1.05906
G1 X85.891 Y23.339 E1.08532
G1 X86.639 Y23.785 E1.11429
G1 X87.442 Y24.284 E1.14573
G1 X88.2 Y24.777 E1.17581
G1 X89.066 Y25.361 E1.21055
G1 X89.953 Y25.986 E1.24664
G1 X90.805 Y26.609 E1.28174
G1 X91.751 Y27.325 E1.3212
G1 X92.732 Y28.096 E1.3627
G1 X94.513 Y29.563 E1.43944
G1 X96.317 Y31.139 E1.51912
G1 X98.025 Y32.711 E1.59632
G1 X99.704 Y34.33 E1.6739
G1 X101.395 Y36.036 E1.75379
G1 X102.992 Y37.709 E1.83072
G1 X104.558 Y39.411 E1.90765
G1 X106.124 Y41.175 E1.9861
G1 X107.594 Y42.881 E2.061
G1 X109.02 Y44.585 E2.1349
G1 X110.395 Y46.273 E2.20732
G1 X111.721 Y47.947 E2.27834
G1 X113.036 Y49.645 E2.34978
G1 X114.323 Y51.351 E2.42085
G1 X115.546 Y53.008 E2.48935
G1 X115.982 Y53.666 E2.5156
G1 X116.121 Y53.93 E2.52553
G1 X116.529 Y54.389 E2.54595
G1 X116.824 Y54.781 E2.56227
G1 X118.402 Y57.023 E2.65346
G1 X119.894 Y59.199 E2.74121
G1 X121.361 Y61.39 E2.82891
G1 X122.849 Y63.671 E2.91949
G1 X124.258 Y65.877 E3.00655
G1 X125.636 Y68.086 E3.09315
G1 X127.038 Y70.383 E3.18265
G1 X128.306 Y72.501 E3.26476
G1 X129.649 Y74.795 E3.35317
G1 X130.857 Y76.895 E3.43375
G1 X132.139 Y79.171 E3.52063
G1 X133.288 Y81.243 E3.59943
G1 X134.509 Y83.489 E3.68446
G1 X135.602 Y85.529 E3.76144
G1 X136.762 Y87.735 E3.84433
G1 X137.79 Y89.72 E3.91868
G1 X138.89 Y91.877 E3.99922
G1 X139.858 Y93.803 E4.07091
G1 X140.893 Y95.893 E4.14848
G1 X141.808 Y97.766 E4.21781
G1 X143.618 Y101.548 E4.35727
G1 X145.3 Y105.15 E4.48949
G1 X146.85 Y108.546 E4.61365
G1 X148.281 Y111.748 E4.7303
G1 X149.667 Y114.913 E4.84522
G1 X150.907 Y117.799 E4.94969
G1 X151.181 Y118.539 E4.97594
G1 X151.249 Y118.803 E4.98501
G1 X151.463 Y119.173 E4.99922
G1 X151.728 Y119.745 E5.02019
G1 X153.582 Y124.218 E5.18123
G1 X155.355 Y128.599 E5.33843
G1 X156.986 Y132.726 E5.48602
G1 X158.538 Y136.735 E5.62901
G1 X160.053 Y140.735 E5.77127
G1 X161.43 Y144.435 E5.90258
G1 X162.716 Y147.954 E6.02719
G1 X163.916 Y151.287 E6.14501
G1 X165.505 Y155.787 E6.30374
G1 X166.974 Y160.017 E6.45267
G1 X171.28 Y172.589 E6.89467
G1 X173.075 Y177.798 E7.07792
G1 X175.314 Y184.214 E7.30393
G1 X176.889 Y188.644 E7.46031
G1 X178.131 Y192.078 E7.58177
G1 X179.122 Y194.755 E7.67671
G1 X179.89 Y196.766 E7.74831
G1 X180.279 Y197.72 E7.78257
G1 X180.556 Y198.459 E7.80882
G1 X180.758 Y199.223 E7.83511
G1 X180.881 Y200.003 E7.86137
G1 X180.925 Y200.791 E7.88762
G1 X180.889 Y201.58 E7.91389
G1 X180.773 Y202.361 E7.94015
G1 X180.579 Y203.127 E7.96643
G1 X180.308 Y203.869 E7.99271
G1 X179.964 Y204.579 E8.01895
G1 X179.55 Y205.252 E8.04523
G1 X179.07 Y205.879 E8.07149
G1 X178.529 Y206.454 E8.09775
G1 X177.932 Y206.971 E8.12402
G1 X177.287 Y207.426 E8.15027
G1 X176.598 Y207.813 E8.17655
G1 X175.874 Y208.128 E8.20281
G1 X175.122 Y208.369 E8.22908
G1 X174.35 Y208.532 E8.25532
G1 X173.521 Y208.619 E8.28305
G1 X173.39 Y208.779 E8.28992
G1 X172.86 Y209.364 E8.31618
G1 X172.273 Y209.892 E8.34244
G1 X171.704 Y210.313 E8.36598
G1 X171.369 Y210.538 E8.3794
G1 X170.692 Y210.945 E8.40568
G1 X169.977 Y211.281 E8.43195
G1 X169.352 Y211.509 E8.45408
G1 X168.475 Y211.754 E8.48437
G1 X168.254 Y211.802 E8.49189
G1 X167.49 Y211.929 E8.51765
G1 X167.238 Y211.958 E8.52608
G1 X166.609 Y212.005 E8.54706
G1 X166.106 Y212.022 E8.5638
G1 X165.55 Y212.02 E8.58229
G1 X165.098 Y212.003 E8.59734
G1 X164.652 Y211.974 E8.6122
G1 X164.2 Y211.931 E8.62731
G1 X163.523 Y211.842 E8.65002
G1 X162.91 Y211.735 E8.67071
G1 X162.25 Y211.593 E8.69317
G1 X161.516 Y211.405 E8.71837
G1 X160.781 Y211.188 E8.74386
G1 X159.986 Y210.921 E8.77175
G1 X159.188 Y210.625 E8.80006
G1 X158.263 Y210.247 E8.83329
G1 X157.196 Y209.764 E8.87225
G1 X156.539 Y209.446 E8.89653
G1 X155.28 Y208.785 E8.94382
G1 X154.341 Y208.253 E8.97972
G1 X153.631 Y207.83 E9.00721
G1 X152.846 Y207.341 E9.03797
G1 X152.073 Y206.839 E9.06862
G1 X151.202 Y206.251 E9.10357
G1 X150.343 Y205.644 E9.13856
G1 X149.474 Y205.011 E9.17432
G1 X148.534 Y204.3 E9.21352
G1 X147.542 Y203.519 E9.25551
G1 X145.718 Y202.016 E9.33412
G1 X143.967 Y200.483 E9.41152
G1 X142.231 Y198.887 E9.48996
G1 X140.537 Y197.251 E9.56829
G1 X138.881 Y195.581 E9.64651
G1 X138.403 Y195.081 E9.66952
G1 X137.796 Y195.695 E9.69823
G1 X137.185 Y196.195 E9.72449
G1 X136.558 Y196.612 E9.74954
G1 X136.3 Y196.766 E9.75953
G1 X135.602 Y197.135 E9.78579
G1 X134.823 Y197.449 E9.81372
G1 X134.621 Y197.518 E9.82082
G1 X133.763 Y197.758 E9.85046
G1 X133.543 Y197.806 E9.85795
G1 X132.788 Y197.932 E9.8834
G1 X132.549 Y197.96 E9.89141
G1 X131.912 Y198.008 E9.91266
G1 X131.395 Y198.026 E9.92986
G1 X130.83 Y198.025 E9.94865
G1 X130.379 Y198.008 E9.96366
G1 X129.934 Y197.979 E9.9785
G1 X129.482 Y197.936 E9.9936
G1 X128.805 Y197.847 E10.01631
G1 X128.192 Y197.74 E10.03701
G1 X127.826 Y197.663 E10.04945
G1 X127.24 Y197.526 E10.06946
G1 X126.432 Y197.305 E10.09732
G1 X125.665 Y197.063 E10.12407
G1 X124.881 Y196.786 E10.15173
G1 X124.006 Y196.445 E10.18296
G1 X123.015 Y196.019 E10.21884
G1 X121.873 Y195.477 E10.26088
G1 X121.043 Y195.05 E10.29193
G1 X120.353 Y194.676 E10.31803
G1 X119.654 Y194.277 E10.3448
G1 X118.878 Y193.814 E10.37486
G1 X117.751 Y193.103 E10.41918
G1 X116.964 Y192.584 E10.45053
G1 X116.086 Y191.979 E10.486
G1 X115.161 Y191.315 E10.52387
G1 X113.82 Y190.308 E10.57965
G1 X112.89 Y189.58 E10.61893
G1 X111.984 Y188.845 E10.65773
G1 X111.085 Y188.095 E10.69667
G1 X110.202 Y187.335 E10.73542
G1 X109.313 Y186.55 E10.77486
G1 X108.448 Y185.764 E10.81374
G1 X107.517 Y184.896 E10.85607
G1 X105.814 Y183.252 E10.9348
G1 X104.163 Y181.586 E11.01281
G1 X102.582 Y179.93 E11.08896
G1 X100.99 Y178.201 E11.16713
G1 X99.45 Y176.467 E11.24427
G1 X97.994 Y174.777 E11.31846
G1 X96.535 Y173.034 E11.39406
G1 X95.173 Y171.36 E11.46584
G1 X93.807 Y169.637 E11.53897
G1 X92.507 Y167.956 E11.60965
G1 X91.229 Y166.262 E11.68023
G1 X90.014 Y164.617 E11.74825
G1 X89.577 Y163.959 E11.77452
G1 X89.437 Y163.692 E11.78455
G1 X89.031 Y163.236 E11.80486
G1 X88.735 Y162.843 E11.82122
G1 X87.164 Y160.61 E11.91203
G1 X85.669 Y158.433 E11.99987
G1 X84.154 Y156.164 E12.09061
G1 X82.715 Y153.964 E12.17805
G1 X81.305 Y151.754 E12.26524
G1 X79.931 Y149.55 E12.35162
G1 X78.578 Y147.336 E12.43792
G1 X77.258 Y145.128 E12.52348
G1 X75.965 Y142.923 E12.6085
G1 X74.645 Y140.626 E12.69661
G1 X73.416 Y138.445 E12.77988
G1 X72.21 Y136.269 E12.86262
G1 X71.042 Y134.12 E12.94398
G1 X69.898 Y131.982 E13.02463
G1 X68.789 Y129.873 E13.10388
G1 X67.708 Y127.786 E13.18205
G1 X66.658 Y125.726 E13.25895
G1 X65.693 Y123.803 E13.33051
G1 X64.649 Y121.694 E13.40878
G1 X62.874 Y118.037 E13.54399
G1 X61.529 Y115.199 E13.64844
G1 X60.252 Y112.458 E13.74902
G1 X58.702 Y109.063 E13.87315
G1 X57.276 Y105.869 E13.98949
G1 X55.936 Y102.81 E14.10056
G1 X54.653 Y99.824 E14.20866
G1 X54.378 Y99.084 E14.23491
G1 X54.309 Y98.819 E14.24402
G1 X54.096 Y98.451 E14.25816
G1 X53.833 Y97.883 E14.27898
G1 X52.105 Y93.723 E14.42881
G1 X50.448 Y89.646 E14.57518
G1 X48.865 Y85.665 E14.71767
G1 X47.381 Y81.849 E14.85385
G1 X47.133 Y81.1 E14.8801
G1 X46.961 Y80.329 E14.90637
G1 X46.869 Y79.544 E14.93266
G1 X46.856 Y78.755 E14.9589
G1 X46.923 Y77.968 E14.98517
G1 X47.069 Y77.192 E15.01144
G1 X47.293 Y76.435 E15.03769
G1 X47.592 Y75.704 E15.06396
G1 X47.964 Y75.007 E15.09024
G1 X48.404 Y74.352 E15.11648
G1 X48.908 Y73.744 E15.14275
G1 X49.471 Y73.19 E15.16902
G1 X50.087 Y72.696 E15.19528
G1 X50.752 Y72.267 E15.2216
G1 X62.48 Y65.497 E15.67201
G1 X63.183 Y65.137 E15.69827
G1 X63.918 Y64.85 E15.72452
G1 X64.679 Y64.639 E15.75078
G1 X65.458 Y64.507 E15.77706
G1 X66.246 Y64.453 E15.80333
G1 X67.035 Y64.48 E15.82959
G1 X67.817 Y64.586 E15.85584
G1 X68.585 Y64.77 E15.88211
G1 X69.33 Y65.032 E15.90837
G1 X70.045 Y65.367 E15.93463
G1 X70.723 Y65.773 E15.96092
G1 X71.355 Y66.246 E15.98717
G1 X71.524 Y66.401 E15.9948
G1 X68.999 Y59.036 E16.25376
G1 X67.152 Y53.676 E16.44232
G1 X64.945 Y47.352 E16.6651
G1 X63.383 Y42.959 E16.82017
G1 X62.127 Y39.487 E16.94297
G1 X60.973 Y36.379 E17.05324
G1 X60.286 Y34.596 E17.11679
G1 X59.942 Y33.761 E17.14683
G1 X59.679 Y33.017 E17.17308
G1 X59.492 Y32.25 E17.19933
G1 X59.384 Y31.467 E17.22562
G1 X59.356 Y30.678 E17.25188
G0 F6000 X59.757 Y30.604
G1 F1200 X59.817 Y29.837 E17.27747
G1 X59.956 Y29.081 E17.30304
G1 X60.172 Y28.343 E17.32861
G1 X60.464 Y27.631 E17.35421
G1 X60.828 Y26.954 E17.37977
G1 X61.261 Y26.318 E17.40536
G1 X61.757 Y25.73 E17.43095
G1 X62.312 Y25.197 E17.45654
G1 X62.919 Y24.725 E17.48212
G1 X63.571 Y24.318 E17.50768
G1 X64.263 Y23.981 E17.53328
G1 X64.985 Y23.717 E17.55885
G1 X65.731 Y23.53 E17.58443
G1 X66.493 Y23.422 E17.61003
G1 X66.95 Y23.405 E17.62524
G1 X67.202 Y23.085 E17.63879
G1 X67.72 Y22.517 E17.66435
G1 X68.294 Y22.006 E17.68991
G1 X68.799 Y21.635 E17.71076
G1 X69.136 Y21.409 E17.72425
G1 X69.797 Y21.014 E17.74986
G1 X70.831 Y20.564 E17.78737
G1 X71.024 Y20.497 E17.79416
G1 X71.892 Y20.254 E17.82414
G1 X72.124 Y20.204 E17.83204
G1 X72.834 Y20.087 E17.85597
G1 X73.085 Y20.058 E17.86438
G1 X73.688 Y20.013 E17.88449
G1 X74.169 Y19.997 E17.90049
G1 X74.644 Y19.997 E17.91629
G1 X75.096 Y20.011 E17.93133
G1 X75.56 Y20.04 E17.9468
G1 X76.398 Y20.128 E17.97482
G1 X76.965 Y20.216 E17.99391
G1 X77.597 Y20.339 E18.01532
G1 X78.228 Y20.486 E18.03687
G1 X78.911 Y20.671 E18.0604
G1 X79.632 Y20.894 E18.08551
G1 X80.367 Y21.15 E18.11139
G1 X81.195 Y21.466 E18.14087
G1 X82.109 Y21.85 E18.17384
G1 X83.16 Y22.334 E18.21233
G1 X84.31 Y22.917 E18.25521
G1 X85.008 Y23.296 E18.28163
G1 X85.687 Y23.682 E18.30761
G1 X86.429 Y24.125 E18.33635
G1 X87.224 Y24.62 E18.3675
G1 X87.977 Y25.109 E18.39736
G1 X88.836 Y25.689 E18.43183
G1 X89.717 Y26.309 E18.46766
G1 X90.564 Y26.929 E18.50258
G1 X91.504 Y27.64 E18.54178
G1 X92.478 Y28.405 E18.58297
G1 X94.25 Y29.865 E18.65934
G1 X96.046 Y31.434 E18.73865
G1 X97.747 Y32.999 E18.81553
G1 X99.42 Y34.612 E18.89283
G1 X101.105 Y36.312 E18.97244
G1 X102.697 Y37.98 E19.04913
G1 X104.259 Y39.676 E19.12582
G1 X105.821 Y41.436 E19.20408
G1 X107.288 Y43.138 E19.27882
G1 X108.71 Y44.837 E19.35251
G1 X110.081 Y46.522 E19.42476
G1 X111.405 Y48.192 E19.49564
G1 X112.717 Y49.886 E19.56691
G1 X114.001 Y51.589 E19.63784
G1 X115.224 Y53.246 E19.70634
G1 X115.648 Y53.887 E19.7319
G1 X115.792 Y54.164 E19.74229
G1 X115.898 Y54.268 E19.74723
G1 X116.497 Y55.011 E19.77897
G1 X118.072 Y57.249 E19.86999
G1 X119.562 Y59.421 E19.9576
G1 X121.026 Y61.608 E20.04513
G1 X122.512 Y63.887 E20.13562
G1 X123.919 Y66.089 E20.22253
G1 X125.295 Y68.295 E20.30901
G1 X126.695 Y70.588 E20.39837
G1 X127.961 Y72.704 E20.48038
G1 X129.303 Y74.994 E20.56866
G1 X130.508 Y77.092 E20.64913
G1 X131.789 Y79.365 E20.73591
G1 X132.936 Y81.435 E20.81462
G1 X134.157 Y83.678 E20.89956
G1 X135.248 Y85.715 E20.97642
G1 X136.407 Y87.919 E21.05924
G1 X137.434 Y89.902 E21.13352
G1 X138.533 Y92.057 E21.21397
G1 X139.5 Y93.98 E21.28556
G1 X140.534 Y96.069 E21.36309
G1 X141.447 Y97.938 E21.43227
G1 X143.255 Y101.718 E21.57164
G1 X144.937 Y105.317 E21.70377
G1 X146.485 Y108.709 E21.82778
G1 X147.915 Y111.909 E21.94436
G1 X149.299 Y115.071 E22.05916
G1 X150.539 Y117.957 E22.16363
G1 X150.805 Y118.678 E22.18919
G1 X150.87 Y118.932 E22.19791
G1 X151.359 Y119.899 E22.23395
G1 X153.212 Y124.368 E22.39486
G1 X154.983 Y128.746 E22.55194
G1 X156.613 Y132.87 E22.69943
G1 X158.164 Y136.877 E22.84234
G1 X159.679 Y140.875 E22.98454
G1 X161.054 Y144.572 E23.11573
G1 X162.34 Y148.089 E23.24028
G1 X163.538 Y151.42 E23.35802
G1 X165.128 Y155.919 E23.51673
G1 X166.596 Y160.147 E23.66559
G1 X170.907 Y172.733 E24.10807
G1 X172.698 Y177.93 E24.2909
G1 X174.952 Y184.389 E24.51843
G1 X176.513 Y188.78 E24.67343
G1 X177.756 Y192.217 E24.795
G1 X178.721 Y194.825 E24.88749
G1 X179.522 Y196.921 E24.96212
G1 X179.912 Y197.879 E24.99652
G1 X180.181 Y198.6 E25.02211
G1 X180.375 Y199.344 E25.04769
G1 X180.489 Y200.105 E25.07328
G1 X180.525 Y200.873 E25.09885
G1 X180.48 Y201.641 E25.12444
G1 X180.356 Y202.4 E25.15002
G1 X180.154 Y203.142 E25.1756
G1 X179.876 Y203.859 E25.20117
G1 X179.525 Y204.544 E25.22677
G1 X179.105 Y205.188 E25.25235
G1 X178.62 Y205.785 E25.27793
G1 X178.076 Y206.329 E25.30352
G1 X177.478 Y206.813 E25.3291
G1 X176.834 Y207.233 E25.35468
G1 X176.149 Y207.583 E25.38026
G1 X175.432 Y207.86 E25.40583
G1 X174.689 Y208.062 E25.43144
G1 X173.93 Y208.185 E25.45701
G1 X173.322 Y208.22 E25.47727
G1 X173.081 Y208.526 E25.49022
G1 X172.563 Y209.095 E25.51581
G1 X171.989 Y209.607 E25.5414
G1 X171.481 Y209.981 E25.56238
G1 X171.146 Y210.206 E25.5758
G1 X170.486 Y210.601 E25.60138
G1 X169.789 Y210.926 E25.62696
G1 X169.222 Y211.131 E25.64701
G1 X168.39 Y211.363 E25.67574
G1 X168.169 Y211.411 E25.68326
G1 X167.444 Y211.531 E25.70771
G1 X167.192 Y211.56 E25.71614
G1 X166.596 Y211.605 E25.73602
G1 X166.093 Y211.622 E25.75276
G1 X165.565 Y211.621 E25.77032
G1 X165.113 Y211.604 E25.78537
G1 X164.69 Y211.576 E25.79947
G1 X164.238 Y211.533 E25.81457
G1 X163.58 Y211.446 E25.83664
G1 X162.983 Y211.341 E25.8568
G1 X162.337 Y211.203 E25.87878
G1 X161.619 Y211.019 E25.90343
G1 X160.897 Y210.805 E25.92847
G1 X160.115 Y210.543 E25.9559
G1 X159.329 Y210.251 E25.98379
G1 X158.416 Y209.877 E26.01661
G1 X157.362 Y209.401 E26.05507
G1 X156.512 Y208.983 E26.08658
G1 X155.258 Y208.317 E26.1338
G1 X154.545 Y207.909 E26.16113
G1 X153.842 Y207.49 E26.18835
G1 X153.063 Y207.005 E26.21887
G1 X152.296 Y206.508 E26.24927
G1 X151.433 Y205.924 E26.28392
G1 X150.578 Y205.32 E26.31874
G1 X149.715 Y204.691 E26.35426
G1 X148.781 Y203.985 E26.3932
G1 X147.796 Y203.21 E26.43489
G1 X145.981 Y201.714 E26.51312
G1 X144.237 Y200.189 E26.59017
G1 X142.509 Y198.599 E26.66827
G1 X140.821 Y196.969 E26.74632
G1 X139.17 Y195.304 E26.82431
G1 X138.386 Y194.484 E26.86204
G1 X138.057 Y194.868 E26.87886
G1 X137.513 Y195.412 E26.90445
G1 X136.915 Y195.896 E26.93003
G1 X136.353 Y196.268 E26.95245
G1 X136.095 Y196.422 E26.96244
G1 X135.415 Y196.781 E26.98802
G1 X134.694 Y197.071 E27.01387
G1 X134.492 Y197.14 E27.02097
G1 X133.677 Y197.367 E27.04911
G1 X133.457 Y197.415 E27.0566
G1 X132.741 Y197.535 E27.08074
G1 X132.502 Y197.563 E27.08875
