;FLAVOR:Marlin
;TIME:21123
;Filament used: 15.0821m
;Layer height: 0.2
;MINX:26.685
;MINY:32.543
;MINZ:0.2
;MAXX:208.337
;MAXY:202.556
;MAXZ:3
;Generated with Cura_SteamEngine 5.0.0
M140 S70
M105
M190 S70
M104 S200
M105
M109 S200
M82 ;absolute extrusion mode
; Ender 3 Custom Start G-code
G28 ; Home all axes
M420 S1; Bed Leveling On
G92 E0 ; Reset Extruder
G1 Z2.0 F3000 ; Move Z Axis up little to prevent scratching of Heat Bed
G1 X0.1 Y20 Z0.3 F5000.0 ; Move to start position
G1 X0.1 Y200.0 Z0.3 F1500.0 E15 ; Draw the first line
G1 X0.4 Y200.0 Z0.3 F5000.0 ; Move to side a little
G1 X0.4 Y20 Z0.3 F1500.0 E30 ; Draw the second line
G92 E0 ; Reset Extruder
G1 Z2.0 F3000 ; Move Z Axis up little to prevent scratching of Heat Bed
G1 X5 Y20 Z0.3 F5000.0 ; Move over to prevent blob squish
G92 E0
G92 E0
G1 F2700 E-5
;LAYER_COUNT:15
;LAYER:0
M107
G0 F6000 X31.098 Y55.647 Z0.2
G0 X26.737 Y62.648
;TYPE:SKIRT
G1 F2700 E0
G1 F1200 X26.777 Y61.859 E0.02628
G1 X26.896 Y61.079 E0.05252
G1 X27.094 Y60.314 E0.0788
G1 X27.368 Y59.574 E0.10505
G1 X27.716 Y58.865 E0.13132
G1 X28.134 Y58.194 E0.15761
G1 X28.617 Y57.57 E0.18385
G1 X29.16 Y56.997 E0.21011
G1 X29.759 Y56.482 E0.23638
G1 X30.407 Y56.031 E0.26264
G1 X31.098 Y55.647 E0.28894
G1 X31.823 Y55.335 E0.31519
G1 X32.576 Y55.098 E0.34144
G1 X33.35 Y54.939 E0.36773
G1 X34.135 Y54.858 E0.39397
G1 X34.537 Y54.848 E0.40735
G1 X53.367 Y54.848 E1.03364
G1 X53.367 Y40.343 E1.51607
G1 X53.407 Y39.554 E1.54235
G1 X53.526 Y38.774 E1.56859
G1 X53.724 Y38.009 E1.59488
G1 X53.998 Y37.269 E1.62112
G1 X54.346 Y36.56 E1.64739
G1 X54.764 Y35.889 E1.67368
G1 X55.247 Y35.265 E1.69993
G1 X55.79 Y34.692 E1.72619
G1 X56.389 Y34.177 E1.75246
G1 X57.037 Y33.726 E1.77872
G1 X57.728 Y33.342 E1.80501
G1 X58.453 Y33.03 E1.83126
G1 X59.206 Y32.793 E1.85752
G1 X59.98 Y32.634 E1.8838
G1 X60.765 Y32.553 E1.91005
G1 X61.167 Y32.543 E1.92342
G1 X87.834 Y32.544 E2.81037
G1 X88.623 Y32.584 E2.83665
G1 X88.831 Y32.616 E2.84365
G1 X89.432 Y32.554 E2.86374
G1 X89.834 Y32.544 E2.87712
G1 X143.167 Y32.544 E4.65098
G1 X143.956 Y32.584 E4.67725
G1 X144.736 Y32.703 E4.7035
G1 X145.153 Y32.811 E4.71783
G1 X145.206 Y32.794 E4.71968
G1 X145.98 Y32.635 E4.74596
G1 X146.765 Y32.554 E4.77221
G1 X147.167 Y32.544 E4.78558
G1 X173.834 Y32.544 E5.67253
G1 X174.623 Y32.584 E5.6988
G1 X175.403 Y32.703 E5.72505
G1 X176.168 Y32.901 E5.75133
G1 X176.908 Y33.175 E5.77757
G1 X177.617 Y33.523 E5.80384
G1 X178.288 Y33.941 E5.83014
G1 X178.912 Y34.424 E5.85638
G1 X179.485 Y34.967 E5.88264
G1 X180 Y35.566 E5.90891
G1 X180.451 Y36.214 E5.93517
G1 X180.835 Y36.905 E5.96146
G1 X181.147 Y37.63 E5.98772
G1 X181.384 Y38.383 E6.01397
G1 X181.543 Y39.157 E6.04025
G1 X181.624 Y39.942 E6.0665
G1 X181.634 Y40.344 E6.07988
G1 X181.634 Y54.849 E6.56231
G1 X200.537 Y54.849 E7.19103
G1 X201.326 Y54.889 E7.21731
G1 X202.106 Y55.008 E7.24355
G1 X202.871 Y55.206 E7.26983
G1 X203.611 Y55.48 E7.29608
G1 X204.32 Y55.828 E7.32235
G1 X204.991 Y56.246 E7.34864
G1 X205.615 Y56.729 E7.37489
G1 X206.188 Y57.273 E7.40116
G1 X206.703 Y57.871 E7.42741
G1 X207.154 Y58.519 E7.45367
G1 X207.538 Y59.21 E7.47996
G1 X207.85 Y59.935 E7.50622
G1 X208.087 Y60.688 E7.53247
G1 X208.246 Y61.462 E7.55875
G1 X208.327 Y62.247 E7.585
G1 X208.337 Y62.649 E7.59838
G1 X208.337 Y83.337 E8.28646
G1 X208.297 Y84.126 E8.31274
G1 X208.275 Y84.466 E8.32407
G1 X208.285 Y84.868 E8.33744
G1 X208.285 Y105.556 E9.02553
G1 X208.245 Y106.336 E9.05151
G1 X208.29 Y106.767 E9.06592
G1 X208.3 Y107.169 E9.0793
G1 X208.3 Y127.857 E9.76738
G1 X208.252 Y128.699 E9.79543
G1 X208.29 Y129.067 E9.80774
G1 X208.3 Y129.469 E9.82111
G1 X208.3 Y150.157 E10.5092
G1 X208.26 Y150.946 E10.53547
G1 X208.141 Y151.726 E10.56172
G1 X207.943 Y152.491 E10.588
G1 X207.669 Y153.231 E10.61424
G1 X207.321 Y153.94 E10.64051
G1 X206.903 Y154.611 E10.66681
G1 X206.42 Y155.235 E10.69305
G1 X205.877 Y155.808 E10.71931
G1 X205.278 Y156.323 E10.74558
G1 X204.63 Y156.774 E10.77184
G1 X203.939 Y157.158 E10.79813
G1 X203.214 Y157.47 E10.82438
G1 X202.461 Y157.707 E10.85064
G1 X201.687 Y157.866 E10.87692
G1 X200.902 Y157.947 E10.90317
G1 X200.5 Y157.957 E10.91654
G1 X193.53 Y157.957 E11.14837
G1 X193.784 Y158.322 E11.16316
G1 X194.168 Y159.013 E11.18945
G1 X194.48 Y159.738 E11.2157
G1 X194.717 Y160.491 E11.24196
G1 X194.876 Y161.265 E11.26824
G1 X194.957 Y162.05 E11.29449
G1 X194.967 Y162.452 E11.30786
G1 X194.967 Y172.432 E11.6398
G1 X194.927 Y173.221 E11.66607
G1 X194.808 Y174.001 E11.69232
G1 X194.61 Y174.766 E11.7186
G1 X194.336 Y175.506 E11.74485
G1 X193.988 Y176.215 E11.77111
G1 X193.57 Y176.886 E11.79741
G1 X193.087 Y177.51 E11.82365
G1 X192.544 Y178.083 E11.84991
G1 X191.945 Y178.598 E11.87618
G1 X191.297 Y179.049 E11.90244
G1 X190.606 Y179.433 E11.92873
G1 X189.881 Y179.745 E11.95499
G1 X189.128 Y179.982 E11.98124
G1 X188.354 Y180.141 E12.00752
G1 X187.569 Y180.222 E12.03377
G1 X187.167 Y180.232 E12.04715
G1 X167.3 Y180.232 E12.70793
G1 X167.3 Y184.048 E12.83485
G1 X167.26 Y184.837 E12.86112
G1 X167.141 Y185.617 E12.88737
G1 X166.943 Y186.382 E12.91365
G1 X166.669 Y187.122 E12.93989
G1 X166.321 Y187.831 E12.96616
G1 X165.903 Y188.502 E12.99246
G1 X165.42 Y189.126 E13.0187
G1 X165.3 Y189.253 E13.02451
G1 X165.3 Y194.756 E13.20754
G1 X165.26 Y195.545 E13.23382
G1 X165.141 Y196.325 E13.26006
G1 X164.943 Y197.09 E13.28634
G1 X164.669 Y197.83 E13.31259
G1 X164.321 Y198.539 E13.33886
G1 X163.903 Y199.21 E13.36515
G1 X163.42 Y199.834 E13.3914
G1 X162.877 Y200.407 E13.41765
G1 X162.278 Y200.922 E13.44393
G1 X161.63 Y201.373 E13.47019
G1 X160.939 Y201.757 E13.49648
G1 X160.214 Y202.069 E13.52273
G1 X159.461 Y202.306 E13.54899
G1 X158.687 Y202.465 E13.57527
G1 X157.902 Y202.546 E13.60152
G1 X157.5 Y202.556 E13.61489
G1 X104.167 Y202.556 E15.38875
G1 X103.378 Y202.516 E15.41503
G1 X103.169 Y202.484 E15.42206
G1 X102.569 Y202.546 E15.44212
G1 X102.167 Y202.556 E15.4555
G1 X75.5 Y202.556 E16.34245
G1 X74.711 Y202.516 E16.36872
G1 X73.931 Y202.397 E16.39497
G1 X73.166 Y202.199 E16.42125
G1 X72.426 Y201.925 E16.44749
G1 X71.717 Y201.577 E16.47376
G1 X71.046 Y201.159 E16.50006
G1 X70.422 Y200.676 E16.5263
G1 X69.849 Y200.133 E16.55256
G1 X69.334 Y199.534 E16.57883
G1 X68.883 Y198.886 E16.60509
G1 X68.499 Y198.195 E16.63138
G1 X68.187 Y197.47 E16.65764
G1 X67.95 Y196.717 E16.68389
G1 X67.791 Y195.943 E16.71017
G1 X67.71 Y195.158 E16.73642
G1 X67.7 Y194.756 E16.74979
G1 X67.7 Y180.231 E17.2329
G1 X47.833 Y180.231 E17.89368
G1 X47.044 Y180.191 E17.91995
G1 X46.264 Y180.072 E17.9462
G1 X45.499 Y179.874 E17.97248
G1 X44.759 Y179.6 E17.99872
G1 X44.05 Y179.252 E18.02499
G1 X43.379 Y178.834 E18.05129
G1 X42.755 Y178.351 E18.07753
G1 X42.182 Y177.807 E18.10381
G1 X41.667 Y177.209 E18.13006
G1 X41.216 Y176.561 E18.15632
G1 X40.832 Y175.87 E18.18261
G1 X40.52 Y175.145 E18.20886
G1 X40.283 Y174.392 E18.23512
G1 X40.124 Y173.618 E18.2614
G1 X40.043 Y172.833 E18.28765
G1 X40.033 Y172.431 E18.30102
G1 X40.033 Y157.956 E18.78246
G1 X34.5 Y157.956 E18.96649
G1 X33.711 Y157.916 E18.99277
G1 X32.931 Y157.797 E19.01901
G1 X32.166 Y157.599 E19.04529
G1 X31.426 Y157.325 E19.07154
G1 X30.717 Y156.977 E19.09781
G1 X30.046 Y156.559 E19.1241
G1 X29.422 Y156.076 E19.15035
G1 X28.849 Y155.533 E19.1766
G1 X28.334 Y154.934 E19.20288
G1 X27.883 Y154.286 E19.22914
G1 X27.499 Y153.595 E19.25543
G1 X27.187 Y152.87 E19.28168
G1 X26.95 Y152.117 E19.30794
G1 X26.791 Y151.343 E19.33422
G1 X26.71 Y150.558 E19.36047
G1 X26.7 Y150.156 E19.37384
G1 X26.7 Y129.468 E20.06193
G1 X26.748 Y128.626 E20.08998
G1 X26.71 Y128.258 E20.10228
G1 X26.7 Y127.856 E20.11566
G1 X26.7 Y107.168 E20.80374
G1 X26.74 Y106.388 E20.82972
G1 X26.695 Y105.957 E20.84413
G1 X26.685 Y105.555 E20.85751
G1 X26.685 Y84.867 E21.54559
G1 X26.725 Y84.078 E21.57187
G1 X26.747 Y83.738 E21.5832
G1 X26.737 Y83.336 E21.59657
G1 X26.737 Y62.648 E22.28466
G0 F6000 X27.137 Y62.648
G1 F1200 X27.177 Y61.88 E22.31024
G1 X27.296 Y61.12 E22.33582
G1 X27.494 Y60.377 E22.3614
G1 X27.768 Y59.658 E22.38699
G1 X28.115 Y58.972 E22.41256
G1 X28.531 Y58.325 E22.43814
G1 X29.012 Y57.725 E22.46372
G1 X29.553 Y57.178 E22.48931
G1 X30.148 Y56.69 E22.5149
G1 X30.79 Y56.267 E22.54047
G1 X31.473 Y55.912 E22.56608
G1 X32.188 Y55.631 E22.59163
G1 X32.93 Y55.425 E22.61724
G1 X33.688 Y55.297 E22.64281
G1 X34.537 Y55.248 E22.67109
G1 X53.767 Y55.248 E23.31069
G1 X53.767 Y40.343 E23.80643
G1 X53.807 Y39.575 E23.83201
G1 X53.926 Y38.815 E23.85759
G1 X54.124 Y38.072 E23.88317
G1 X54.398 Y37.353 E23.90876
G1 X54.745 Y36.667 E23.93433
G1 X55.161 Y36.02 E23.95991
G1 X55.642 Y35.42 E23.98549
G1 X56.183 Y34.873 E24.01108
G1 X56.778 Y34.385 E24.03667
G1 X57.42 Y33.962 E24.06224
G1 X58.103 Y33.607 E24.08785
G1 X58.818 Y33.326 E24.1134
G1 X59.56 Y33.12 E24.13901
G1 X60.318 Y32.992 E24.16458
G1 X61.167 Y32.943 E24.19286
G1 X87.834 Y32.944 E25.07981
G1 X88.602 Y32.984 E25.10539
G1 X88.827 Y33.02 E25.11297
G1 X88.985 Y32.993 E25.1183
G1 X89.834 Y32.944 E25.14658
G1 X143.167 Y32.944 E26.92045
G1 X143.935 Y32.984 E26.94602
G1 X144.695 Y33.103 E26.97161
G1 X145.169 Y33.229 E26.98792
G1 X145.56 Y33.121 E27.00141
G1 X146.318 Y32.993 E27.02698
G1 X147.167 Y32.944 E27.05527
G1 X173.834 Y32.944 E27.94222
G1 X174.602 Y32.984 E27.96779
G1 X175.362 Y33.103 E27.99338
G1 X176.105 Y33.301 E28.01895
G1 X176.824 Y33.575 E28.04455
G1 X177.51 Y33.922 E28.07012
G1 X178.157 Y34.338 E28.0957
G1 X178.757 Y34.819 E28.12128
G1 X179.304 Y35.36 E28.14686
G1 X179.792 Y35.955 E28.17246
G1 X180.215 Y36.597 E28.19803
G1 X180.57 Y37.28 E28.22363
G1 X180.851 Y37.995 E28.24918
G1 X181.057 Y38.737 E28.2748
G1 X181.185 Y39.495 E28.30036
G1 X181.234 Y40.344 E28.32865
G1 X181.234 Y55.249 E28.82439
G1 X200.537 Y55.249 E29.46641
G1 X201.305 Y55.289 E29.49199
G1 X202.065 Y55.408 E29.51758
G1 X202.808 Y55.606 E29.54315
G1 X203.527 Y55.88 E29.56874
G1 X204.214 Y56.227 E29.59434
G1 X204.86 Y56.643 E29.6199
G1 X205.46 Y57.124 E29.64547
G1 X206.007 Y57.665 E29.67106
G1 X206.495 Y58.26 E29.69666
G1 X206.918 Y58.902 E29.72223
G1 X207.273 Y59.585 E29.74783
G1 X207.554 Y60.301 E29.77341
G1 X207.76 Y61.042 E29.79899
G1 X207.888 Y61.8 E29.82456
G1 X207.937 Y62.649 E29.85285
G1 X207.937 Y83.337 E30.54093
G1 X207.897 Y84.105 E30.56651
G1 X207.856 Y84.366 E30.5753
G1 X207.885 Y84.868 E30.59202
G1 X207.885 Y105.556 E31.28011
G1 X207.847 Y106.294 E31.30469
G1 X207.9 Y107.169 E31.33384
G1 X207.9 Y127.857 E32.02193
G1 X207.854 Y128.666 E32.04888
G1 X207.9 Y129.469 E32.07563
G1 X207.9 Y150.157 E32.76372
G1 X207.86 Y150.925 E32.7893
G1 X207.741 Y151.685 E32.81488
G1 X207.543 Y152.428 E32.84046
G1 X207.269 Y153.147 E32.86605
G1 X206.922 Y153.833 E32.89162
G1 X206.506 Y154.48 E32.9172
G1 X206.025 Y155.08 E32.94278
G1 X205.484 Y155.627 E32.96837
G1 X204.889 Y156.115 E32.99396
G1 X204.247 Y156.538 E33.01953
G1 X203.564 Y156.893 E33.04513
G1 X202.849 Y157.174 E33.07068
G1 X202.107 Y157.38 E33.0963
G1 X201.349 Y157.508 E33.12187
G1 X200.5 Y157.557 E33.15015
G1 X192.71 Y157.557 E33.40925
G1 X193.125 Y158.063 E33.43101
G1 X193.548 Y158.705 E33.45658
G1 X193.903 Y159.388 E33.48219
G1 X194.184 Y160.103 E33.50774
G1 X194.39 Y160.845 E33.53335
G1 X194.518 Y161.603 E33.55892
G1 X194.567 Y162.452 E33.5872
G1 X194.567 Y172.432 E33.91914
G1 X194.527 Y173.2 E33.94472
G1 X194.408 Y173.96 E33.9703
G1 X194.21 Y174.703 E33.99588
G1 X193.936 Y175.422 E34.02147
G1 X193.589 Y176.108 E34.04704
G1 X193.173 Y176.755 E34.07262
G1 X192.692 Y177.355 E34.0982
G1 X192.151 Y177.902 E34.12379
G1 X191.556 Y178.39 E34.14938
G1 X190.914 Y178.813 E34.17495
G1 X190.231 Y179.168 E34.20056
G1 X189.516 Y179.449 E34.22611
G1 X188.774 Y179.655 E34.25172
G1 X188.016 Y179.783 E34.27729
G1 X187.167 Y179.832 E34.30557
G1 X166.9 Y179.832 E34.97966
G1 X166.9 Y184.048 E35.11988
G1 X166.86 Y184.816 E35.14546
G1 X166.741 Y185.576 E35.17104
G1 X166.543 Y186.319 E35.19662
G1 X166.269 Y187.038 E35.22221
G1 X165.922 Y187.724 E35.24778
G1 X165.506 Y188.371 E35.27336
G1 X165.025 Y188.971 E35.29894
G1 X164.9 Y189.097 E35.30484
G1 X164.9 Y194.756 E35.49306
G1 X164.86 Y195.524 E35.51864
G1 X164.741 Y196.284 E35.54423
G1 X164.543 Y197.027 E35.5698
G1 X164.269 Y197.746 E35.59539
G1 X163.922 Y198.432 E35.62096
G1 X163.506 Y199.079 E35.64655
G1 X163.025 Y199.679 E35.67212
G1 X162.484 Y200.226 E35.69771
G1 X161.889 Y200.714 E35.72331
G1 X161.247 Y201.137 E35.74888
G1 X160.564 Y201.492 E35.77448
G1 X159.849 Y201.773 E35.80003
G1 X159.107 Y201.979 E35.82564
G1 X158.349 Y202.107 E35.85121
G1 X157.5 Y202.156 E35.8795
G1 X104.167 Y202.156 E37.65336
G1 X103.399 Y202.116 E37.67894
G1 X103.173 Y202.081 E37.68654
G1 X103.016 Y202.107 E37.69184
G1 X102.167 Y202.156 E37.72012
G1 X75.5 Y202.156 E38.60707
G1 X74.732 Y202.116 E38.63265
G1 X73.972 Y201.997 E38.65823
G1 X73.229 Y201.799 E38.68381
G1 X72.51 Y201.525 E38.7094
G1 X71.824 Y201.178 E38.73497
G1 X71.177 Y200.762 E38.76055
G1 X70.577 Y200.281 E38.78613
G1 X70.03 Y199.74 E38.81172
G1 X69.542 Y199.145 E38.83731
G1 X69.119 Y198.503 E38.86289
G1 X68.764 Y197.82 E38.88849
G1 X68.483 Y197.105 E38.91404
G1 X68.277 Y196.363 E38.93965
G1 X68.149 Y195.605 E38.96522
G1 X68.1 Y194.756 E38.9935
G1 X68.1 Y179.831 E39.48991
G1 X47.833 Y179.831 E40.164
G1 X47.065 Y179.791 E40.18957
G1 X46.305 Y179.672 E40.21516
G1 X45.562 Y179.474 E40.24073
G1 X44.843 Y179.2 E40.26633
G1 X44.156 Y178.853 E40.29192
G1 X43.51 Y178.437 E40.31748
G1 X42.91 Y177.956 E40.34306
G1 X42.363 Y177.415 E40.36865
G1 X41.875 Y176.82 E40.39424
G1 X41.452 Y176.178 E40.41981
G1 X41.097 Y175.495 E40.44541
G1 X40.816 Y174.779 E40.471
G1 X40.61 Y174.038 E40.49658
G1 X40.482 Y173.28 E40.52214
G1 X40.433 Y172.431 E40.55043
G1 X40.433 Y157.556 E41.04517
G1 X34.5 Y157.556 E41.24251
G1 X33.732 Y157.516 E41.26808
G1 X32.972 Y157.397 E41.29367
G1 X32.229 Y157.199 E41.31925
G1 X31.51 Y156.925 E41.34484
G1 X30.824 Y156.578 E41.37041
G1 X30.177 Y156.162 E41.39599
G1 X29.577 Y155.681 E41.42157
G1 X29.03 Y155.14 E41.44716
G1 X28.542 Y154.545 E41.47275
G1 X28.119 Y153.903 E41.49832
G1 X27.764 Y153.22 E41.52392
G1 X27.483 Y152.505 E41.54947
G1 X27.277 Y151.763 E41.57509
G1 X27.149 Y151.005 E41.60066
G1 X27.1 Y150.156 E41.62894
G1 X27.1 Y129.468 E42.31703
G1 X27.146 Y128.659 E42.34398
G1 X27.1 Y127.856 E42.37073
G1 X27.1 Y107.168 E43.05881
G1 X27.138 Y106.43 E43.08339
G1 X27.085 Y105.555 E43.11255
G1 X27.085 Y84.867 E43.80063
G1 X27.125 Y84.099 E43.82621
G1 X27.166 Y83.838 E43.835
G1 X27.137 Y83.336 E43.85172
G1 X27.137 Y62.648 E44.53981
G0 F6000 X27.537 Y62.648
G1 F1200 X27.577 Y61.901 E44.56469
G1 X27.696 Y61.163 E44.58955
G1 X27.894 Y60.441 E44.61445
G1 X28.167 Y59.745 E44.63932
G1 X28.514 Y59.082 E44.66421
G1 X28.929 Y58.459 E44.68911
G1 X29.408 Y57.885 E44.71397
G1 X29.945 Y57.364 E44.73886
G1 X30.535 Y56.905 E44.76372
G1 X31.171 Y56.51 E44.78862
G1 X31.845 Y56.186 E44.81349
G1 X32.55 Y55.936 E44.83837
G1 X33.278 Y55.762 E44.86327
G1 X34.02 Y55.667 E44.88815
G1 X34.537 Y55.648 E44.90536
G1 X54.167 Y55.648 E45.55825
G1 X54.167 Y40.343 E46.0673
G1 X54.207 Y39.596 E46.09218
G1 X54.326 Y38.858 E46.11704
G1 X54.524 Y38.136 E46.14194
G1 X54.797 Y37.44 E46.16681
G1 X55.144 Y36.777 E46.1917
G1 X55.559 Y36.154 E46.2166
G1 X56.038 Y35.58 E46.24146
G1 X56.575 Y35.059 E46.26635
G1 X57.165 Y34.6 E46.29121
G1 X57.801 Y34.205 E46.31611
G1 X58.475 Y33.881 E46.34098
G1 X59.18 Y33.631 E46.36586
G1 X59.908 Y33.457 E46.39076
G1 X60.65 Y33.362 E46.41564
G1 X61.167 Y33.343 E46.43285
G1 X87.834 Y33.344 E47.31979
G1 X88.581 Y33.384 E47.34468
G1 X88.834 Y33.425 E47.3532
G1 X89.317 Y33.363 E47.3694
G1 X89.834 Y33.344 E47.3866
G1 X143.167 Y33.344 E49.16047
G1 X143.914 Y33.384 E49.18535
G1 X144.652 Y33.503 E49.21021
G1 X145.155 Y33.641 E49.22756
G1 X145.908 Y33.458 E49.25333
G1 X146.65 Y33.363 E49.27821
G1 X147.167 Y33.344 E49.29542
G1 X173.834 Y33.344 E50.18237
G1 X174.581 Y33.384 E50.20725
G1 X175.319 Y33.503 E50.23211
G1 X176.041 Y33.701 E50.25701
G1 X176.737 Y33.974 E50.28188
G1 X177.4 Y34.321 E50.30677
G1 X178.023 Y34.736 E50.33166
G1 X178.597 Y35.215 E50.35653
G1 X179.118 Y35.752 E50.38142
G1 X179.577 Y36.342 E50.40628
G1 X179.972 Y36.978 E50.43118
G1 X180.296 Y37.652 E50.45605
G1 X180.546 Y38.357 E50.48093
