;FLAVOR:Marlin
;TIME:20814
;Filament used: 14.8427m
;Layer height: 0.2
;MINX:26.081
;MINY:33.924
;MINZ:0.2
;MAXX:208.856
;MAXY:201.164
;MAXZ:3
;Generated with Cura_SteamEngine 5.0.0
M140 S70
M105
M190 S70
M104 S200
M105
M109 S200
M82 ;absolute extrusion mode
; Ender 3 Custom Start G-code
G28 ; Home all axes
M420 S1; Bed Leveling On
G92 E0 ; Reset Extruder
G1 Z2.0 F3000 ; Move Z Axis up little to prevent scratching of Heat Bed
G1 X0.1 Y20 Z0.3 F5000.0 ; Move to start position
G1 X0.1 Y200.0 Z0.3 F1500.0 E15 ; Draw the first line
G1 X0.4 Y200.0 Z0.3 F5000.0 ; Move to side a little
G1 X0.4 Y20 Z0.3 F1500.0 E30 ; Draw the second line
G92 E0 ; Reset Extruder
G1 Z2.0 F3000 ; Move Z Axis up little to prevent scratching of Heat Bed
G1 X5 Y20 Z0.3 F5000.0 ; Move over to prevent blob squish
G92 E0
G92 E0
G1 F2700 E-5
;LAYER_COUNT:15
;LAYER:0
M107
G0 F6000 X31.029 Y56.578 Z0.2
G0 X26.668 Y63.579
;TYPE:SKIRT
G1 F2700 E0
G1 F1200 X26.708 Y62.79 E0.02628
G1 X26.827 Y62.01 E0.05252
G1 X27.025 Y61.245 E0.0788
G1 X27.299 Y60.505 E0.10505
G1 X27.647 Y59.796 E0.13132
G1 X28.065 Y59.125 E0.15761
G1 X28.548 Y58.501 E0.18385
G1 X29.091 Y57.928 E0.21011
G1 X29.69 Y57.413 E0.23638
G1 X30.338 Y56.962 E0.26264
G1 X31.029 Y56.578 E0.28894
G1 X31.754 Y56.266 E0.31519
G1 X32.507 Y56.029 E0.34144
G1 X33.281 Y55.87 E0.36773
G1 X34.066 Y55.789 E0.39397
G1 X34.468 Y55.779 E0.40735
G1 X53.367 Y55.778 E1.03593
G1 X53.367 Y41.725 E1.50334
G1 X53.407 Y40.936 E1.52961
G1 X53.526 Y40.156 E1.55586
G1 X53.724 Y39.391 E1.58214
G1 X53.998 Y38.651 E1.60838
G1 X54.346 Y37.942 E1.63465
G1 X54.764 Y37.271 E1.66095
G1 X55.247 Y36.647 E1.68719
G1 X55.79 Y36.074 E1.71345
G1 X56.389 Y35.559 E1.73972
G1 X57.037 Y35.108 E1.76598
G1 X57.728 Y34.724 E1.79227
G1 X58.453 Y34.412 E1.81852
G1 X59.206 Y34.175 E1.84478
G1 X59.98 Y34.016 E1.87106
G1 X60.765 Y33.935 E1.89731
G1 X61.167 Y33.925 E1.91068
G1 X173.833 Y33.924 E5.65797
G1 X174.622 Y33.964 E5.68425
G1 X175.402 Y34.083 E5.71049
G1 X176.167 Y34.281 E5.73677
G1 X176.907 Y34.555 E5.76302
G1 X177.616 Y34.903 E5.78929
G1 X178.287 Y35.32 E5.81556
G1 X178.911 Y35.804 E5.84183
G1 X179.484 Y36.347 E5.86808
G1 X179.999 Y36.946 E5.89436
G1 X180.45 Y37.594 E5.92062
G1 X180.834 Y38.284 E5.94688
G1 X181.146 Y39.01 E5.97316
G1 X181.383 Y39.763 E5.99942
G1 X181.542 Y40.537 E6.0257
G1 X181.623 Y41.322 E6.05195
G1 X181.633 Y41.724 E6.06532
G1 X181.633 Y55.779 E6.53279
G1 X200.468 Y55.778 E7.15925
G1 X201.256 Y55.818 E7.18549
G1 X202.037 Y55.937 E7.21177
G1 X202.801 Y56.135 E7.23802
G1 X203.542 Y56.409 E7.26429
G1 X204.251 Y56.757 E7.29056
G1 X204.921 Y57.174 E7.31681
G1 X205.546 Y57.657 E7.34308
G1 X206.119 Y58.201 E7.36936
G1 X206.633 Y58.8 E7.39561
G1 X207.085 Y59.448 E7.42189
G1 X207.469 Y60.138 E7.44816
G1 X207.781 Y60.864 E7.47444
G1 X208.017 Y61.617 E7.50068
G1 X208.177 Y62.39 E7.52694
G1 X208.258 Y63.176 E7.55322
G1 X208.268 Y63.578 E7.56659
G1 X208.268 Y83.917 E8.24307
G1 X208.238 Y84.515 E8.26299
G1 X208.29 Y85.022 E8.27994
G1 X208.3 Y85.424 E8.29331
G1 X208.3 Y104.471 E8.92682
G1 X208.369 Y104.632 E8.93264
G1 X208.605 Y105.385 E8.95889
G1 X208.765 Y106.158 E8.98515
G1 X208.846 Y106.944 E9.01143
G1 X208.856 Y107.346 E9.0248
G1 X208.856 Y127.686 E9.70131
G1 X208.816 Y128.475 E9.72759
G1 X208.697 Y129.255 E9.75383
G1 X208.499 Y130.02 E9.78011
G1 X208.3 Y130.557 E9.79916
G1 X208.3 Y149.563 E10.4313
G1 X208.26 Y150.352 E10.45758
G1 X208.141 Y151.132 E10.48382
G1 X207.943 Y151.897 E10.51011
G1 X207.669 Y152.637 E10.53635
G1 X207.321 Y153.346 E10.56262
G1 X206.903 Y154.017 E10.58891
G1 X206.42 Y154.641 E10.61516
G1 X205.877 Y155.214 E10.64142
G1 X205.278 Y155.729 E10.66769
G1 X204.63 Y156.18 E10.69395
G1 X203.939 Y156.564 E10.72024
G1 X203.214 Y156.876 E10.74649
G1 X202.461 Y157.113 E10.77275
G1 X201.687 Y157.272 E10.79903
G1 X200.902 Y157.353 E10.82528
G1 X200.5 Y157.363 E10.83865
G1 X194.379 Y157.363 E11.04224
G1 X194.379 Y171.463 E11.51121
G1 X194.339 Y172.252 E11.53748
G1 X194.22 Y173.032 E11.56372
G1 X194.022 Y173.797 E11.59001
G1 X193.748 Y174.537 E11.61625
G1 X193.4 Y175.246 E11.64252
G1 X192.982 Y175.917 E11.66881
G1 X192.499 Y176.541 E11.69506
G1 X191.956 Y177.114 E11.72132
G1 X191.357 Y177.629 E11.74759
G1 X190.709 Y178.08 E11.77385
G1 X190.018 Y178.464 E11.80014
G1 X189.293 Y178.776 E11.82639
G1 X188.54 Y179.013 E11.85265
G1 X187.766 Y179.172 E11.87893
G1 X186.981 Y179.253 E11.90518
G1 X186.579 Y179.263 E11.91855
G1 X167.3 Y179.264 E12.55978
G1 X167.3 Y183.305 E12.69418
G1 X167.26 Y184.094 E12.72046
G1 X167.141 Y184.874 E12.7467
G1 X166.943 Y185.639 E12.77298
G1 X166.669 Y186.379 E12.79923
G1 X166.321 Y187.088 E12.8255
G1 X165.903 Y187.759 E12.85179
G1 X165.42 Y188.383 E12.87803
G1 X165.3 Y188.51 E12.88385
G1 X165.3 Y193.363 E13.04526
G1 X165.26 Y194.152 E13.07153
G1 X165.141 Y194.932 E13.09778
G1 X164.943 Y195.697 E13.12406
G1 X164.669 Y196.437 E13.1503
G1 X164.321 Y197.146 E13.17657
G1 X163.903 Y197.817 E13.20287
G1 X163.42 Y198.441 E13.22911
G1 X162.877 Y199.014 E13.25537
G1 X162.278 Y199.529 E13.28164
G1 X161.63 Y199.98 E13.3079
G1 X160.939 Y200.364 E13.33419
G1 X160.214 Y200.676 E13.36045
G1 X159.461 Y200.913 E13.3867
G1 X158.687 Y201.072 E13.41298
G1 X157.902 Y201.153 E13.43923
G1 X157.5 Y201.163 E13.45261
G1 X104.167 Y201.164 E15.22647
G1 X103.378 Y201.124 E15.25274
G1 X103.165 Y201.092 E15.25991
G1 X102.569 Y201.153 E15.27983
G1 X102.167 Y201.163 E15.29321
G1 X75.5 Y201.164 E16.18016
G1 X74.712 Y201.124 E16.2064
G1 X73.931 Y201.005 E16.23268
G1 X73.167 Y200.807 E16.25893
G1 X72.426 Y200.533 E16.2852
G1 X71.717 Y200.185 E16.31147
G1 X71.047 Y199.768 E16.33772
G1 X70.422 Y199.285 E16.36399
G1 X69.849 Y198.741 E16.39027
G1 X69.335 Y198.142 E16.41652
G1 X68.883 Y197.494 E16.4428
G1 X68.499 Y196.804 E16.46906
G1 X68.187 Y196.078 E16.49535
G1 X67.951 Y195.325 E16.52159
G1 X67.791 Y194.552 E16.54785
G1 X67.71 Y193.766 E16.57413
G1 X67.7 Y193.364 E16.5875
G1 X67.7 Y179.264 E17.05647
G1 X50.421 Y179.264 E17.63117
G1 X49.632 Y179.224 E17.65745
G1 X48.852 Y179.105 E17.68369
G1 X48.087 Y178.907 E17.70997
G1 X47.347 Y178.633 E17.73622
G1 X46.638 Y178.285 E17.76249
G1 X45.967 Y177.868 E17.78877
G1 X45.343 Y177.384 E17.81503
G1 X44.77 Y176.841 E17.84129
G1 X44.255 Y176.242 E17.86756
G1 X43.804 Y175.594 E17.89382
G1 X43.42 Y174.904 E17.92008
G1 X43.108 Y174.178 E17.94637
G1 X42.871 Y173.425 E17.97262
G1 X42.712 Y172.651 E17.9989
G1 X42.631 Y171.866 E18.02515
G1 X42.621 Y171.464 E18.03853
G1 X42.621 Y166.609 E18.2
G1 X42.255 Y166.183 E18.21868
G1 X41.804 Y165.535 E18.24494
G1 X41.42 Y164.844 E18.27124
G1 X41.108 Y164.119 E18.29749
G1 X40.871 Y163.366 E18.32374
G1 X40.712 Y162.592 E18.35002
G1 X40.631 Y161.807 E18.37627
G1 X40.621 Y161.405 E18.38965
G1 X40.621 Y157.364 E18.52405
G1 X34.5 Y157.364 E18.72764
G1 X33.712 Y157.324 E18.75388
G1 X32.931 Y157.205 E18.78015
G1 X32.167 Y157.007 E18.80641
G1 X31.426 Y156.733 E18.83268
G1 X30.717 Y156.385 E18.85895
G1 X30.047 Y155.968 E18.8852
G1 X29.422 Y155.485 E18.91147
G1 X28.849 Y154.941 E18.93775
G1 X28.335 Y154.342 E18.964
G1 X27.883 Y153.694 E18.99028
G1 X27.499 Y153.004 E19.01654
G1 X27.187 Y152.278 E19.04283
G1 X26.951 Y151.525 E19.06907
G1 X26.791 Y150.752 E19.09533
G1 X26.71 Y149.966 E19.12161
G1 X26.7 Y149.564 E19.13498
G1 X26.7 Y130.708 E19.76214
G1 X26.568 Y130.401 E19.77325
G1 X26.331 Y129.648 E19.79951
G1 X26.172 Y128.874 E19.82579
G1 X26.091 Y128.089 E19.85203
G1 X26.081 Y127.687 E19.86541
G1 X26.081 Y107.347 E20.54192
G1 X26.121 Y106.558 E20.5682
G1 X26.24 Y105.778 E20.59444
G1 X26.438 Y105.013 E20.62072
G1 X26.7 Y104.305 E20.64583
G1 X26.7 Y85.425 E21.27378
G1 X26.73 Y84.827 E21.2937
G1 X26.678 Y84.32 E21.31065
G1 X26.668 Y83.918 E21.32402
G1 X26.668 Y63.579 E22.0005
G0 F6000 X27.068 Y63.579
G1 F1200 X27.108 Y62.811 E22.02608
G1 X27.227 Y62.051 E22.05167
G1 X27.425 Y61.308 E22.07724
G1 X27.699 Y60.589 E22.10283
G1 X28.046 Y59.903 E22.1284
G1 X28.462 Y59.256 E22.15398
G1 X28.943 Y58.656 E22.17956
G1 X29.484 Y58.109 E22.20515
G1 X30.079 Y57.621 E22.23074
G1 X30.721 Y57.198 E22.25632
G1 X31.404 Y56.843 E22.28192
G1 X32.119 Y56.562 E22.30747
G1 X32.861 Y56.356 E22.33308
G1 X33.619 Y56.228 E22.35865
G1 X34.468 Y56.179 E22.38693
G1 X53.767 Y56.178 E23.02882
G1 X53.767 Y41.725 E23.50953
G1 X53.807 Y40.957 E23.53511
G1 X53.926 Y40.197 E23.56069
G1 X54.124 Y39.454 E23.58627
G1 X54.398 Y38.735 E23.61186
G1 X54.745 Y38.049 E23.63743
G1 X55.161 Y37.402 E23.66301
G1 X55.642 Y36.802 E23.68859
G1 X56.183 Y36.255 E23.71418
G1 X56.778 Y35.767 E23.73977
G1 X57.42 Y35.344 E23.76535
G1 X58.103 Y34.989 E23.79095
G1 X58.818 Y34.708 E23.8165
G1 X59.56 Y34.502 E23.84211
G1 X60.318 Y34.374 E23.86768
G1 X61.167 Y34.325 E23.89596
G1 X173.833 Y34.324 E27.64325
G1 X174.601 Y34.364 E27.66883
G1 X175.361 Y34.483 E27.69441
G1 X176.104 Y34.681 E27.71999
G1 X176.823 Y34.955 E27.74558
G1 X177.509 Y35.302 E27.77115
G1 X178.156 Y35.718 E27.79673
G1 X178.756 Y36.199 E27.82231
G1 X179.303 Y36.74 E27.8479
G1 X179.791 Y37.335 E27.87349
G1 X180.214 Y37.977 E27.89907
G1 X180.569 Y38.66 E27.92467
G1 X180.85 Y39.375 E27.95022
G1 X181.056 Y40.116 E27.9758
G1 X181.184 Y40.875 E28.0014
G1 X181.233 Y41.724 E28.02969
G1 X181.233 Y56.179 E28.51046
G1 X200.468 Y56.178 E29.15022
G1 X201.236 Y56.218 E29.1758
G1 X201.996 Y56.337 E29.20138
G1 X202.739 Y56.535 E29.22696
G1 X203.458 Y56.809 E29.25255
G1 X204.144 Y57.156 E29.27812
G1 X204.791 Y57.572 E29.3037
G1 X205.391 Y58.053 E29.32928
G1 X205.938 Y58.594 E29.35487
G1 X206.426 Y59.189 E29.38046
G1 X206.849 Y59.831 E29.40603
G1 X207.204 Y60.513 E29.43161
G1 X207.485 Y61.229 E29.45719
G1 X207.691 Y61.97 E29.48277
G1 X207.819 Y62.729 E29.50837
G1 X207.868 Y63.578 E29.53666
G1 X207.868 Y83.917 E30.21313
G1 X207.838 Y84.497 E30.23245
G1 X207.851 Y84.575 E30.23508
G1 X207.9 Y85.424 E30.26336
G1 X207.9 Y104.556 E30.8997
G1 X208.073 Y104.997 E30.91545
G1 X208.279 Y105.738 E30.94103
G1 X208.407 Y106.497 E30.96663
G1 X208.456 Y107.346 E30.99492
G1 X208.456 Y127.686 E31.67143
G1 X208.416 Y128.454 E31.69701
G1 X208.297 Y129.214 E31.72259
G1 X208.099 Y129.957 E31.74817
G1 X207.9 Y130.479 E31.76675
G1 X207.9 Y149.563 E32.40149
G1 X207.86 Y150.331 E32.42707
G1 X207.741 Y151.091 E32.45265
G1 X207.543 Y151.834 E32.47823
G1 X207.269 Y152.553 E32.50382
G1 X206.922 Y153.239 E32.52939
G1 X206.506 Y153.886 E32.55497
G1 X206.025 Y154.486 E32.58055
G1 X205.484 Y155.033 E32.60614
G1 X204.889 Y155.521 E32.63173
G1 X204.247 Y155.944 E32.6573
G1 X203.564 Y156.299 E32.6829
G1 X202.849 Y156.58 E32.70845
G1 X202.107 Y156.786 E32.73407
G1 X201.349 Y156.914 E32.75964
G1 X200.5 Y156.963 E32.78792
G1 X193.979 Y156.963 E33.00481
G1 X193.979 Y171.463 E33.48708
G1 X193.939 Y172.231 E33.51266
G1 X193.82 Y172.991 E33.53825
G1 X193.622 Y173.734 E33.56382
G1 X193.348 Y174.453 E33.58941
G1 X193.001 Y175.139 E33.61498
G1 X192.585 Y175.786 E33.64057
G1 X192.104 Y176.386 E33.66614
G1 X191.563 Y176.933 E33.69173
G1 X190.968 Y177.421 E33.71733
G1 X190.326 Y177.844 E33.7429
G1 X189.643 Y178.199 E33.7685
G1 X188.928 Y178.48 E33.79405
G1 X188.186 Y178.686 E33.81966
G1 X187.428 Y178.814 E33.84523
G1 X186.579 Y178.863 E33.87352
G1 X166.9 Y178.864 E34.52804
G1 X166.9 Y183.305 E34.67575
G1 X166.86 Y184.073 E34.70133
G1 X166.741 Y184.833 E34.72691
G1 X166.543 Y185.576 E34.75249
G1 X166.269 Y186.295 E34.77808
G1 X165.922 Y186.981 E34.80365
G1 X165.506 Y187.628 E34.82923
G1 X165.025 Y188.228 E34.85481
G1 X164.9 Y188.354 E34.86071
G1 X164.9 Y193.363 E35.02731
G1 X164.86 Y194.131 E35.05289
G1 X164.741 Y194.891 E35.07848
G1 X164.543 Y195.634 E35.10405
G1 X164.269 Y196.353 E35.12964
G1 X163.922 Y197.039 E35.15521
G1 X163.506 Y197.686 E35.1808
G1 X163.025 Y198.286 E35.20637
G1 X162.484 Y198.833 E35.23196
G1 X161.889 Y199.321 E35.25756
G1 X161.247 Y199.744 E35.28313
G1 X160.564 Y200.099 E35.30873
G1 X159.849 Y200.38 E35.33428
G1 X159.107 Y200.586 E35.35989
G1 X158.349 Y200.714 E35.38546
G1 X157.5 Y200.763 E35.41375
G1 X104.167 Y200.764 E37.18761
G1 X103.399 Y200.724 E37.21319
G1 X103.17 Y200.688 E37.2209
G1 X103.016 Y200.714 E37.22609
G1 X102.167 Y200.763 E37.25438
G1 X75.5 Y200.764 E38.14133
G1 X74.732 Y200.724 E38.1669
G1 X73.972 Y200.605 E38.19249
G1 X73.229 Y200.407 E38.21806
G1 X72.51 Y200.133 E38.24366
G1 X71.824 Y199.786 E38.26923
G1 X71.177 Y199.37 E38.29481
G1 X70.577 Y198.889 E38.32039
G1 X70.03 Y198.348 E38.34597
G1 X69.542 Y197.753 E38.37157
G1 X69.119 Y197.111 E38.39714
G1 X68.764 Y196.429 E38.42271
G1 X68.483 Y195.713 E38.4483
G1 X68.277 Y194.972 E38.47388
G1 X68.149 Y194.213 E38.49948
G1 X68.1 Y193.364 E38.52776
G1 X68.1 Y178.864 E39.01003
G1 X50.421 Y178.864 E39.59804
G1 X49.653 Y178.824 E39.62362
G1 X48.893 Y178.705 E39.6492
G1 X48.15 Y178.507 E39.67478
G1 X47.431 Y178.233 E39.70037
G1 X46.745 Y177.886 E39.72594
G1 X46.098 Y177.47 E39.75152
G1 X45.498 Y176.989 E39.7771
G1 X44.951 Y176.448 E39.80269
G1 X44.463 Y175.853 E39.82828
G1 X44.04 Y175.211 E39.85385
G1 X43.685 Y174.528 E39.87946
G1 X43.404 Y173.813 E39.90501
G1 X43.198 Y173.072 E39.93059
G1 X43.07 Y172.313 E39.95619
G1 X43.021 Y171.464 E39.98447
G1 X43.021 Y166.458 E40.15097
G1 X42.951 Y166.389 E40.15424
G1 X42.463 Y165.794 E40.17984
G1 X42.04 Y165.152 E40.20541
G1 X41.685 Y164.469 E40.23101
G1 X41.404 Y163.754 E40.25656
G1 X41.198 Y163.012 E40.28218
G1 X41.07 Y162.254 E40.30774
G1 X41.021 Y161.405 E40.33603
G1 X41.021 Y156.964 E40.48374
G1 X34.5 Y156.964 E40.70063
G1 X33.732 Y156.924 E40.7262
G1 X32.972 Y156.805 E40.75179
G1 X32.229 Y156.607 E40.77736
G1 X31.51 Y156.333 E40.80296
G1 X30.824 Y155.986 E40.82853
G1 X30.177 Y155.57 E40.85411
G1 X29.577 Y155.089 E40.87969
G1 X29.03 Y154.548 E40.90527
G1 X28.542 Y153.953 E40.93087
G1 X28.119 Y153.311 E40.95644
G1 X27.764 Y152.629 E40.98201
G1 X27.483 Y151.913 E41.0076
G1 X27.277 Y151.172 E41.03318
G1 X27.149 Y150.413 E41.05878
G1 X27.1 Y149.564 E41.08706
G1 X27.1 Y130.636 E41.71661
G1 X26.864 Y130.036 E41.73805
G1 X26.658 Y129.294 E41.76367
G1 X26.53 Y128.536 E41.78923
G1 X26.481 Y127.687 E41.81752
G1 X26.481 Y107.347 E42.49403
G1 X26.521 Y106.579 E42.51961
G1 X26.64 Y105.819 E42.54519
G1 X26.838 Y105.076 E42.57077
G1 X27.1 Y104.388 E42.59526
G1 X27.1 Y85.425 E43.22597
G1 X27.13 Y84.845 E43.24528
G1 X27.117 Y84.767 E43.24791
G1 X27.068 Y83.918 E43.2762
G1 X27.068 Y63.579 E43.95268
G0 F6000 X27.468 Y63.579
G1 F1200 X27.508 Y62.832 E43.97756
G1 X27.627 Y62.094 E44.00242
G1 X27.825 Y61.372 E44.02732
G1 X28.098 Y60.676 E44.05219
G1 X28.445 Y60.013 E44.07708
G1 X28.86 Y59.39 E44.10197
G1 X29.339 Y58.816 E44.12684
G1 X29.876 Y58.295 E44.15172
G1 X30.466 Y57.836 E44.17659
G1 X31.102 Y57.441 E44.20149
G1 X31.776 Y57.117 E44.22636
G1 X32.481 Y56.867 E44.25124
G1 X33.209 Y56.693 E44.27614
G1 X33.951 Y56.598 E44.30102
G1 X34.468 Y56.579 E44.31822
G1 X54.167 Y56.578 E44.97342
G1 X54.167 Y41.725 E45.46743
G1 X54.207 Y40.978 E45.49231
G1 X54.326 Y40.24 E45.51717
G1 X54.524 Y39.518 E45.54207
G1 X54.797 Y38.822 E45.56694
G1 X55.144 Y38.159 E45.59183
G1 X55.559 Y37.536 E45.61672
G1 X56.038 Y36.962 E45.64159
G1 X56.575 Y36.441 E45.66648
G1 X57.165 Y35.982 E45.69134
G1 X57.801 Y35.587 E45.71624
G1 X58.475 Y35.263 E45.74111
G1 X59.18 Y35.013 E45.76599
G1 X59.908 Y34.839 E45.79089
G1 X60.65 Y34.744 E45.81577
G1 X61.167 Y34.725 E45.83297
G1 X173.833 Y34.724 E49.58026
G1 X174.58 Y34.764 E49.60514
G1 X175.318 Y34.883 E49.63
G1 X176.04 Y35.081 E49.65491
G1 X176.736 Y35.354 E49.67977
G1 X177.399 Y35.701 E49.70466
G1 X178.022 Y36.116 E49.72956
G1 X178.596 Y36.595 E49.75442
G1 X179.117 Y37.132 E49.77931
G1 X179.576 Y37.722 E49.80417
G1 X179.971 Y38.358 E49.82907
G1 X180.295 Y39.032 E49.85395
G1 X180.545 Y39.737 E49.87882
G1 X180.719 Y40.465 E49.90372
G1 X180.814 Y41.207 E49.9286
G1 X180.833 Y41.724 E49.94581
G1 X180.833 Y56.579 E50.43989
G1 X200.468 Y56.578 E51.09295
G1 X201.215 Y56.618 E51.11783
G1 X201.953 Y56.737 E51.14269
G1 X202.675 Y56.935 E51.16759
G1 X203.371 Y57.208 E51.19246
G1 X204.034 Y57.555 E51.21735
G1 X204.657 Y57.969 E51.24223
G1 X205.231 Y58.448 E51.26709
G1 X205.751 Y58.986 E51.29198
G1 X206.211 Y59.576 E51.31686
G1 X206.605 Y60.212 E51.34175
G1 X206.93 Y60.886 E51.36663
G1 X207.18 Y61.591 E51.39151
