;FLAVOR:Marlin
;TIME:5156
;Filament used: 3.32118m
;Layer height: 0.2
;MINX:38.825
;MINY:38.579
;MINZ:0.2
;MAXX:196.138
;MAXY:196.408
;MAXZ:2
;Generated with Cura_SteamEngine 5.0.0
M140 S70
M105
M190 S70
M104 S200
M105
M109 S200
M82 ;absolute extrusion mode
; Ender 3 Custom Start G-code
G28 ; Home all axes
M420 S1; Bed Leveling On
G92 E0 ; Reset Extruder
G1 Z2.0 F3000 ; Move Z Axis up little to prevent scratching of Heat Bed
G1 X0.1 Y20 Z0.3 F5000.0 ; Move to start position
G1 X0.1 Y200.0 Z0.3 F1500.0 E15 ; Draw the first line
G1 X0.4 Y200.0 Z0.3 F5000.0 ; Move to side a little
G1 X0.4 Y20 Z0.3 F1500.0 E30 ; Draw the second line
G92 E0 ; Reset Extruder
G1 Z2.0 F3000 ; Move Z Axis up little to prevent scratching of Heat Bed
G1 X5 Y20 Z0.3 F5000.0 ; Move over to prevent blob squish
G92 E0
G92 E0
G1 F2700 E-5
;LAYER_COUNT:10
;LAYER:0
M107
G0 F6000 X41 Y40.968 Z0.2
G0 X38.825 Y46.719
;TYPE:SKIRT
G1 F2700 E0
G1 F1200 X38.831 Y45.93 E0.02624
G1 X38.916 Y45.145 E0.0525
G1 X39.081 Y44.372 E0.07879
G1 X39.322 Y43.62 E0.10506
G1 X39.638 Y42.897 E0.1313
G1 X40.026 Y42.209 E0.15757
G1 X40.482 Y41.564 E0.18385
G1 X41 Y40.968 E0.21011
G1 X41.576 Y40.428 E0.23637
G1 X42.204 Y39.948 E0.26266
G1 X42.876 Y39.535 E0.28889
G1 X43.588 Y39.192 E0.31518
G1 X44.33 Y38.922 E0.34144
G1 X45.096 Y38.729 E0.36772
G1 X45.877 Y38.614 E0.39397
G1 X46.666 Y38.579 E0.42024
G1 X47.454 Y38.624 E0.44649
G1 X48.234 Y38.748 E0.47276
G1 X48.997 Y38.951 E0.49902
G1 X49.736 Y39.229 E0.52528
G1 X50.443 Y39.581 E0.55155
G1 X51.111 Y40.003 E0.57783
G1 X51.99 Y40.724 E0.61564
G1 X72.474 Y60.183 E1.55535
G1 X81.333 Y51.324 E1.97205
G1 X81.919 Y50.794 E1.99833
G1 X82.555 Y50.327 E2.02457
G1 X83.235 Y49.926 E2.05083
G1 X83.953 Y49.596 E2.07711
G1 X84.7 Y49.341 E2.10337
G1 X85.469 Y49.162 E2.12963
G1 X86.253 Y49.062 E2.15591
G1 X87.042 Y49.041 E2.18216
G1 X87.829 Y49.101 E2.20842
G1 X88.607 Y49.24 E2.2347
G1 X89.366 Y49.457 E2.26096
G1 X90.1 Y49.749 E2.28723
G1 X90.8 Y50.114 E2.31349
G1 X91.46 Y50.548 E2.33976
G1 X94.797 Y52.995 E2.47739
G1 X98.233 Y55.555 E2.61991
G1 X101.747 Y58.214 E2.76647
G1 X105.277 Y60.928 E2.91457
G1 X105.878 Y61.441 E2.94085
G1 X106.064 Y61.625 E2.94955
G1 X106.931 Y62.217 E2.98447
G1 X108.713 Y63.617 E3.05984
G1 X110.517 Y65.05 E3.13647
G1 X114.001 Y67.861 E3.28536
G1 X117.501 Y70.742 E3.43614
G1 X120.967 Y73.654 E3.58671
G1 X124.427 Y76.625 E3.73839
G1 X127.856 Y79.636 E3.89017
G1 X129.573 Y81.171 E3.96677
G1 X131.285 Y82.72 E4.04356
G1 X132.982 Y84.277 E4.12016
G1 X134.681 Y85.853 E4.19724
G1 X136.366 Y87.44 E4.27422
G1 X138.038 Y89.035 E4.35108
G1 X139.701 Y90.643 E4.42802
G1 X141.269 Y92.18 E4.50105
G1 X142.906 Y93.81 E4.57788
G1 X144.531 Y95.453 E4.65474
G1 X146.139 Y97.105 E4.73142
G1 X147.738 Y98.772 E4.80825
G1 X149.313 Y100.445 E4.88467
G1 X150.85 Y102.104 E4.95989
G1 X152.34 Y103.744 E5.03359
G1 X153.714 Y105.281 E5.10216
G1 X155.127 Y106.891 E5.1734
G1 X156.501 Y108.487 E5.24345
G1 X157.831 Y110.059 E5.31194
G1 X159.001 Y111.465 E5.37277
G1 X159.474 Y112.097 E5.39903
G1 X159.624 Y112.346 E5.4087
G1 X160.057 Y112.778 E5.42904
G1 X160.367 Y113.142 E5.44494
G1 X161.419 Y114.458 E5.50098
G1 X162.444 Y115.763 E5.55617
G1 X163.441 Y117.055 E5.61045
G1 X164.345 Y118.248 E5.66024
G1 X165.29 Y119.517 E5.71286
G1 X166.2 Y120.765 E5.76423
G1 X167.027 Y121.918 E5.81142
G1 X167.891 Y123.147 E5.86139
G1 X168.747 Y124.389 E5.91156
G1 X170.2 Y126.563 E5.99853
G1 X170.953 Y127.727 E6.04464
G1 X171.709 Y128.92 E6.09162
G1 X173.031 Y131.077 E6.17576
G1 X173.679 Y132.178 E6.21825
G1 X174.261 Y133.188 E6.25702
G1 X174.869 Y134.269 E6.29827
G1 X175.4 Y135.241 E6.33511
G1 X175.936 Y136.247 E6.37303
G1 X176.444 Y137.229 E6.4098
G1 X176.946 Y138.229 E6.44701
G1 X177.629 Y139.641 E6.49918
G1 X178.137 Y140.739 E6.53942
G1 X178.67 Y141.942 E6.58319
G1 X179.242 Y143.303 E6.63229
G1 X179.774 Y144.65 E6.68046
G1 X180.077 Y145.462 E6.70928
G1 X180.613 Y147.005 E6.76361
G1 X181.097 Y148.546 E6.81733
G1 X181.329 Y149.367 E6.84571
G1 X181.552 Y150.216 E6.87491
G1 X181.757 Y151.078 E6.90438
G1 X181.951 Y151.984 E6.93519
G1 X182.127 Y152.939 E6.96749
G1 X182.32 Y154.231 E7.01094
G1 X182.417 Y155.102 E7.04009
G1 X182.483 Y155.928 E7.06765
G1 X182.518 Y156.739 E7.09465
G1 X182.526 Y157.395 E7.11647
G1 X182.504 Y158.279 E7.14588
G1 X182.48 Y158.681 E7.15927
G1 X182.402 Y159.473 E7.18574
G1 X182.289 Y160.231 E7.21123
G1 X182.206 Y160.669 E7.22606
G1 X182.105 Y161.126 E7.24163
G1 X181.998 Y161.55 E7.25617
G1 X181.844 Y162.081 E7.27456
G1 X181.706 Y162.5 E7.28923
G1 X181.466 Y163.133 E7.31175
G1 X181.382 Y163.329 E7.31884
G1 X180.914 Y164.249 E7.35317
G1 X182.632 Y166.055 E7.43608
G1 X184.327 Y167.867 E7.5186
G1 X185.203 Y168.815 E7.56153
G1 X186.747 Y170.515 E7.63792
G1 X187.593 Y171.465 E7.68023
G1 X188.5 Y172.504 E7.7261
G1 X190.171 Y174.482 E7.81222
G1 X191.025 Y175.538 E7.85739
G1 X191.844 Y176.591 E7.90176
G1 X192.64 Y177.672 E7.94641
G1 X193.296 Y178.63 E7.98503
G1 X193.683 Y179.237 E8.00897
G1 X194.005 Y179.777 E8.02988
G1 X194.314 Y180.331 E8.05098
G1 X194.488 Y180.663 E8.06345
G1 X194.667 Y181.028 E8.07697
G1 X194.966 Y181.679 E8.10079
G1 X195.189 Y182.217 E8.12017
G1 X195.428 Y182.86 E8.14298
G1 X195.604 Y183.39 E8.16156
G1 X195.699 Y183.715 E8.17282
G1 X195.879 Y184.434 E8.19747
G1 X195.992 Y185.013 E8.21709
G1 X196.04 Y185.32 E8.22743
G1 X196.118 Y186.031 E8.25121
G1 X196.138 Y186.346 E8.26171
G1 X196.134 Y187.398 E8.2967
G1 X196.112 Y187.705 E8.30694
G1 X196.016 Y188.488 E8.33318
G1 X195.864 Y189.189 E8.35703
G1 X195.644 Y189.947 E8.38329
G1 X195.357 Y190.661 E8.40888
G1 X195.269 Y190.852 E8.41588
G1 X194.903 Y191.552 E8.44215
G1 X194.306 Y192.422 E8.47724
G1 X194.122 Y192.655 E8.48712
G1 X193.602 Y193.249 E8.51337
G1 X193.025 Y193.788 E8.53964
G1 X192.63 Y194.099 E8.55636
G1 X192.371 Y194.29 E8.56706
G1 X191.713 Y194.726 E8.59331
G1 X191.076 Y195.067 E8.61735
G1 X190.421 Y195.363 E8.64125
G1 X190.184 Y195.457 E8.64973
G1 X189.57 Y195.671 E8.67136
G1 X189.085 Y195.818 E8.68821
G1 X188.572 Y195.954 E8.70587
G1 X188.133 Y196.055 E8.72085
G1 X187.672 Y196.147 E8.73648
G1 X187.224 Y196.222 E8.75159
G1 X186.554 Y196.31 E8.77407
G1 X185.94 Y196.365 E8.79457
G1 X185.245 Y196.399 E8.81771
G1 X184.519 Y196.408 E8.84186
G1 X183.736 Y196.388 E8.86791
G1 X182.913 Y196.338 E8.89534
G1 X181.656 Y196.21 E8.93736
G1 X181.321 Y196.167 E8.9486
G1 X180.285 Y196.009 E8.98345
G1 X179.58 Y195.881 E9.00728
G1 X178.364 Y195.625 E9.04861
G1 X177.566 Y195.433 E9.07591
G1 X176.757 Y195.22 E9.10374
G1 X175.963 Y194.995 E9.13119
G1 X175.067 Y194.723 E9.16233
G1 X174.208 Y194.443 E9.19238
G1 X173.218 Y194.102 E9.22721
G1 X172.209 Y193.732 E9.26295
G1 X171.221 Y193.35 E9.29818
G1 X170.128 Y192.906 E9.33742
G1 X168.96 Y192.407 E9.37967
G1 X166.817 Y191.429 E9.45801
G1 X164.719 Y190.398 E9.53576
G1 X162.638 Y189.309 E9.61388
G1 X160.576 Y188.166 E9.6923
G1 X158.543 Y186.981 E9.77056
G1 X156.588 Y185.791 E9.84669
G1 X154.603 Y184.532 E9.92487
G1 X152.666 Y183.256 E10.00201
G1 X150.823 Y182.001 E10.07617
G1 X148.963 Y180.695 E10.15177
G1 X147.212 Y179.429 E10.22363
G1 X145.452 Y178.121 E10.29657
G1 X143.757 Y176.833 E10.36737
G1 X142.081 Y175.525 E10.43808
G1 X140.482 Y174.249 E10.50612
G1 X139.89 Y173.726 E10.5324
G1 X139.692 Y173.511 E10.54212
G1 X139.178 Y173.173 E10.56258
G1 X138.794 Y172.872 E10.57881
G1 X136.694 Y171.12 E10.66977
G1 X134.69 Y169.405 E10.7575
G1 X132.633 Y167.602 E10.84847
G1 X130.678 Y165.85 E10.93579
G1 X128.751 Y164.086 E11.02268
G1 X126.842 Y162.305 E11.10951
G1 X124.889 Y160.445 E11.19922
G1 X123.115 Y158.726 E11.28138
G1 X121.221 Y156.855 E11.36993
G1 X119.511 Y155.138 E11.45052
G1 X117.679 Y153.269 E11.53757
G1 X116.031 Y151.563 E11.61646
G1 X114.264 Y149.703 E11.70179
G1 X112.689 Y148.021 E11.77843
G1 X110.99 Y146.184 E11.86166
G1 X109.485 Y144.534 E11.93594
G1 X107.864 Y142.735 E12.01648
G1 X106.43 Y141.125 E12.08819
G1 X104.871 Y139.353 E12.16669
G1 X102.224 Y136.293 E12.30126
G1 X100.793 Y134.615 E12.37461
G1 X98.238 Y131.574 E12.50671
G1 X95.862 Y128.696 E12.63084
G1 X93.657 Y125.978 E12.74725
G1 X91.507 Y123.289 E12.86176
G1 X89.562 Y120.824 E12.9662
G1 X89.104 Y120.18 E12.99248
G1 X88.966 Y119.936 E13.0018
G1 X88.666 Y119.636 E13.01591
G1 X88.262 Y119.152 E13.03688
G1 X85.329 Y115.333 E13.19704
G1 X82.503 Y111.586 E13.35314
G1 X79.842 Y107.999 E13.50169
G1 X77.298 Y104.518 E13.64509
G1 X74.829 Y101.09 E13.7856
G1 X72.496 Y97.808 E13.91953
G1 X70.338 Y94.737 E14.04437
G1 X67.385 Y90.474 E14.21685
G1 X64.719 Y86.572 E14.37403
G1 X61.758 Y82.186 E14.55004
G1 X55.7 Y73.173 E14.91124
G1 X52.531 Y68.477 E15.09966
G1 X48.763 Y62.941 E15.32239
G1 X46.116 Y59.097 E15.47763
G1 X43.974 Y56.029 E15.60208
G1 X42.093 Y53.378 E15.71019
G1 X40.949 Y51.809 E15.77478
G1 X40.415 Y51.108 E15.80409
G1 X39.969 Y50.456 E15.83036
G1 X39.59 Y49.763 E15.85663
G1 X39.284 Y49.035 E15.8829
G1 X39.053 Y48.28 E15.90916
G1 X38.9 Y47.505 E15.93543
G1 X38.825 Y46.719 E15.96169
G0 F6000 X39.221 Y46.582
G1 F1200 X39.24 Y45.813 E15.98728
G1 X39.338 Y45.05 E16.01286
G1 X39.516 Y44.302 E16.03844
G1 X39.77 Y43.576 E16.06402
G1 X40.097 Y42.88 E16.08959
G1 X40.496 Y42.222 E16.11519
G1 X40.96 Y41.609 E16.14076
G1 X41.486 Y41.048 E16.16634
G1 X42.067 Y40.544 E16.19192
G1 X42.698 Y40.103 E16.21752
G1 X43.37 Y39.73 E16.24309
G1 X44.078 Y39.429 E16.26867
G1 X44.813 Y39.203 E16.29425
G1 X45.568 Y39.054 E16.31985
G1 X46.334 Y38.984 E16.34543
G1 X47.103 Y38.995 E16.37101
G1 X47.867 Y39.085 E16.3966
G1 X48.617 Y39.254 E16.42217
G1 X49.346 Y39.5 E16.44776
G1 X50.045 Y39.82 E16.47333
G1 X50.707 Y40.212 E16.49891
G1 X51.325 Y40.669 E16.52448
G1 X51.715 Y41.014 E16.5418
G1 X72.481 Y60.74 E17.49442
G1 X81.615 Y51.606 E17.92406
G1 X82.187 Y51.092 E17.94963
G1 X82.809 Y50.639 E17.97523
G1 X83.474 Y50.253 E18.0008
G1 X84.176 Y49.938 E18.02639
G1 X84.907 Y49.698 E18.05198
G1 X85.658 Y49.535 E18.07754
G1 X86.423 Y49.451 E18.10314
G1 X87.192 Y49.447 E18.12872
G1 X87.957 Y49.523 E18.15429
G1 X88.711 Y49.677 E18.17988
G1 X89.444 Y49.909 E18.20545
G1 X90.149 Y50.216 E18.23103
G1 X90.819 Y50.595 E18.25663
G1 X91.223 Y50.871 E18.2729
G1 X94.558 Y53.316 E18.41044
G1 X97.992 Y55.873 E18.55284
G1 X101.503 Y58.531 E18.69931
G1 X105.033 Y61.245 E18.84741
G1 X105.618 Y61.745 E18.873
G1 X105.819 Y61.957 E18.88272
G1 X106.083 Y62.106 E18.8928
G1 X106.684 Y62.532 E18.9173
G1 X108.464 Y63.931 E18.9926
G1 X110.266 Y65.361 E19.06912
G1 X113.747 Y68.17 E19.21789
G1 X117.244 Y71.048 E19.36853
G1 X120.706 Y73.957 E19.51893
G1 X124.163 Y76.925 E19.67047
G1 X127.589 Y79.935 E19.82215
G1 X129.305 Y81.467 E19.89866
G1 X131.015 Y83.015 E19.97538
G1 X132.71 Y84.571 E20.05191
G1 X134.406 Y86.144 E20.12884
G1 X136.09 Y87.729 E20.20576
G1 X137.76 Y89.323 E20.28254
G1 X139.421 Y90.929 E20.35939
G1 X140.987 Y92.464 E20.43232
G1 X142.621 Y94.091 E20.50902
G1 X144.244 Y95.732 E20.58578
G1 X145.85 Y97.382 E20.66237
G1 X147.447 Y99.047 E20.7391
G1 X149.02 Y100.716 E20.81538
G1 X150.554 Y102.373 E20.89048
G1 X152.042 Y104.011 E20.96409
G1 X153.413 Y105.544 E21.03249
G1 X154.824 Y107.152 E21.10365
G1 X156.196 Y108.745 E21.17357
G1 X157.523 Y110.315 E21.24194
G1 X158.693 Y111.721 E21.30278
G1 X159.154 Y112.337 E21.32837
G1 X159.312 Y112.601 E21.3386
G1 X159.449 Y112.722 E21.34468
G1 X160.054 Y113.391 E21.37468
G1 X161.104 Y114.705 E21.43063
G1 X162.127 Y116.008 E21.48573
G1 X163.122 Y117.296 E21.53986
G1 X164.024 Y118.487 E21.58955
G1 X164.967 Y119.753 E21.64205
G1 X165.875 Y120.998 E21.69331
G1 X166.7 Y122.148 E21.74038
G1 X167.562 Y123.374 E21.79023
G1 X168.414 Y124.611 E21.84018
G1 X169.864 Y126.781 E21.92699
G1 X170.615 Y127.942 E21.97298
G1 X171.368 Y129.13 E22.01976
G1 X172.686 Y131.28 E22.10364
G1 X173.333 Y132.378 E22.14603
G1 X173.913 Y133.384 E22.18465
G1 X174.518 Y134.461 E22.22573
G1 X175.047 Y135.429 E22.26242
G1 X175.581 Y136.431 E22.30019
G1 X176.086 Y137.409 E22.3368
G1 X176.586 Y138.403 E22.3738
G1 X177.266 Y139.81 E22.42578
G1 X177.771 Y140.901 E22.46577
G1 X178.302 Y142.098 E22.50932
G1 X178.87 Y143.45 E22.55809
G1 X179.4 Y144.791 E22.60605
G1 X179.699 Y145.594 E22.63455
G1 X180.231 Y147.126 E22.68849
G1 X180.712 Y148.655 E22.7418
G1 X180.942 Y149.47 E22.76997
G1 X181.163 Y150.31 E22.79886
G1 X181.366 Y151.163 E22.82802
G1 X181.558 Y152.059 E22.8585
G1 X181.732 Y153 E22.89033
G1 X181.923 Y154.278 E22.93331
G1 X182.019 Y155.136 E22.96202
G1 X182.083 Y155.948 E22.98911
G1 X182.118 Y156.744 E23.01561
G1 X182.123 Y157.746 E23.04894
G1 X182.105 Y158.265 E23.06621
G1 X182.045 Y159.063 E23.09283
G1 X181.958 Y159.773 E23.11662
G1 X181.896 Y160.157 E23.12956
G1 X181.813 Y160.595 E23.14439
G1 X181.717 Y161.028 E23.15914
G1 X181.61 Y161.452 E23.17368
G1 X181.464 Y161.956 E23.19113
G1 X181.326 Y162.375 E23.20581
G1 X181.099 Y162.975 E23.22714
G1 X181.015 Y163.171 E23.23423
G1 X180.585 Y164.019 E23.26586
G1 X180.415 Y164.307 E23.27698
G1 X182.34 Y166.329 E23.36984
G1 X184.863 Y169.036 E23.49291
G1 X186.448 Y170.781 E23.57132
G1 X187.292 Y171.728 E23.61351
G1 X188.194 Y172.762 E23.65915
G1 X189.86 Y174.734 E23.74501
G1 X190.71 Y175.784 E23.78994
G1 X191.522 Y176.829 E23.83396
G1 X192.31 Y177.899 E23.87816
G1 X192.96 Y178.847 E23.91639
G1 X193.341 Y179.443 E23.93992
G1 X193.657 Y179.973 E23.96044
G1 X193.959 Y180.517 E23.98113
G1 X194.304 Y181.195 E24.00644
G1 X194.603 Y181.846 E24.03026
G1 X194.814 Y182.357 E24.04865
G1 X195.053 Y183 E24.07147
G1 X195.22 Y183.502 E24.08906
G1 X195.416 Y184.211 E24.11353
G1 X195.49 Y184.526 E24.12429
G1 X195.597 Y185.075 E24.14289
G1 X195.645 Y185.382 E24.15323
G1 X195.719 Y186.056 E24.17578
G1 X195.739 Y186.371 E24.18628
G1 X195.735 Y187.369 E24.21947
G1 X195.713 Y187.676 E24.22971
G1 X195.618 Y188.439 E24.25528
G1 X195.475 Y189.097 E24.27768
G1 X195.26 Y189.835 E24.30325
G1 X194.994 Y190.494 E24.32688
G1 X194.906 Y190.685 E24.33388
G1 X194.548 Y191.365 E24.35944
G1 X193.992 Y192.174 E24.39209
G1 X193.808 Y192.407 E24.40196
G1 X193.301 Y192.985 E24.42753
G1 X192.736 Y193.507 E24.45312
G1 X192.393 Y193.777 E24.46764
G1 X192.134 Y193.968 E24.47834
G1 X191.492 Y194.391 E24.50391
G1 X190.895 Y194.711 E24.52644
G1 X190.273 Y194.991 E24.54913
G1 X190.036 Y195.085 E24.55761
G1 X189.454 Y195.288 E24.57811
G1 X188.969 Y195.435 E24.59496
G1 X188.482 Y195.565 E24.61173
G1 X188.043 Y195.666 E24.62671
G1 X187.606 Y195.752 E24.64153
G1 X186.798 Y195.879 E24.66873
G1 X186.242 Y195.939 E24.68733
G1 X185.617 Y195.984 E24.70817
G1 X184.958 Y196.006 E24.7301
G1 X184.246 Y196.004 E24.75378
G1 X183.497 Y195.976 E24.77871
G1 X182.647 Y195.913 E24.80706
G1 X181.381 Y195.772 E24.84943
G1 X180.354 Y195.615 E24.88398
G1 X179.661 Y195.489 E24.90741
G1 X178.457 Y195.235 E24.94834
G1 X177.667 Y195.046 E24.97535
G1 X176.865 Y194.835 E25.00294
G1 X176.079 Y194.612 E25.03011
G1 X175.191 Y194.342 E25.06098
G1 X174.338 Y194.065 E25.09081
G1 X173.356 Y193.727 E25.12535
G1 X172.353 Y193.359 E25.16089
G1 X171.371 Y192.979 E25.19591
G1 X170.284 Y192.538 E25.23492
G1 X169.125 Y192.042 E25.27685
G1 X166.993 Y191.07 E25.35479
G1 X164.905 Y190.044 E25.43216
G1 X162.832 Y188.959 E25.50999
G1 X160.777 Y187.82 E25.58813
G1 X158.751 Y186.639 E25.66613
G1 X156.802 Y185.453 E25.74201
G1 X154.823 Y184.198 E25.81995
G1 X152.891 Y182.925 E25.89691
G1 X151.053 Y181.674 E25.97086
G1 X149.197 Y180.371 E26.04628
G1 X147.45 Y179.108 E26.11798
G1 X145.694 Y177.803 E26.19075
G1 X144.003 Y176.517 E26.26141
G1 X142.33 Y175.212 E26.33198
G1 X140.731 Y173.936 E26.40002
G1 X140.156 Y173.426 E26.42558
G1 X139.948 Y173.199 E26.43582
G1 X139.819 Y173.126 E26.44075
G1 X139.05 Y172.565 E26.47241
G1 X136.954 Y170.816 E26.56321
G1 X134.954 Y169.104 E26.65077
G1 X132.9 Y167.304 E26.74161
G1 X130.948 Y165.555 E26.82878
G1 X129.024 Y163.794 E26.91553
G1 X127.118 Y162.015 E27.00225
G1 X125.168 Y160.157 E27.09183
G1 X123.396 Y158.441 E27.17388
G1 X121.504 Y156.572 E27.26233
G1 X119.797 Y154.858 E27.34279
G1 X117.967 Y152.992 E27.42972
G1 X116.321 Y151.287 E27.50854
G1 X114.555 Y149.429 E27.5938
G1 X112.982 Y147.75 E27.67032
G1 X111.286 Y145.915 E27.75343
G1 X109.782 Y144.267 E27.82763
G1 X108.162 Y142.469 E27.90813
G1 X106.73 Y140.861 E27.97975
