;FLAVOR:Marlin
;TIME:3022
;Filament used: 1.93647m
;Layer height: 0.2
;MINX:59.356
;MINY:22.997
;MINZ:0.2
;MAXX:175.615
;MAXY:212.022
;MAXZ:2
;Generated with Cura_SteamEngine 5.0.0
M140 S70
M105
M190 S70
M104 S200
M105
M109 S200
M82 ;absolute extrusion mode
; Ender 3 Custom Start G-code
G28 ; Home all axes
M420 S1; Bed Leveling On
G92 E0 ; Reset Extruder
G1 Z2.0 F3000 ; Move Z Axis up little to prevent scratching of Heat Bed
G1 X0.1 Y20 Z0.3 F5000.0 ; Move to start position
G1 X0.1 Y200.0 Z0.3 F1500.0 E15 ; Draw the first line
G1 X0.4 Y200.0 Z0.3 F5000.0 ; Move to side a little
G1 X0.4 Y20 Z0.3 F1500.0 E30 ; Draw the second line
G92 E0 ; Reset Extruder
G1 Z2.0 F3000 ; Move Z Axis up little to prevent scratching of Heat Bed
G1 X5 Y20 Z0.3 F5000.0 ; Move over to prevent blob squish
G92 E0
G92 E0
G1 F2700 E-5
;LAYER_COUNT:10
;LAYER:0
M107
G0 F6000 X60.032 Y27.613 Z0.2
G0 X59.356 Y30.678
;TYPE:SKIRT
G1 F2700 E0
G1 F1200 X59.407 Y29.89 E0.02626
G1 X59.538 Y29.111 E0.05254
G1 X59.747 Y28.35 E0.07879
G1 X60.032 Y27.613 E0.10507
G1 X60.39 Y26.909 E0.13134
G1 X60.817 Y26.245 E0.15759
G1 X61.309 Y25.628 E0.18384
G1 X61.861 Y25.063 E0.21011
G1 X62.468 Y24.557 E0.2364
G1 X63.122 Y24.115 E0.26265
G1 X63.818 Y23.742 E0.28891
G1 X64.548 Y23.441 E0.31518
G1 X65.305 Y23.215 E0.34145
G1 X66.08 Y23.066 E0.3677
G1 X66.867 Y22.997 E0.39398
G1 X67.657 Y23.008 E0.42026
G1 X68.441 Y23.099 E0.44651
G1 X69.212 Y23.268 E0.47276
G1 X69.963 Y23.515 E0.49905
G1 X70.684 Y23.836 E0.5253
G1 X71.369 Y24.228 E0.55155
G1 X72.011 Y24.688 E0.57782
G1 X72.604 Y25.21 E0.6041
G1 X73.14 Y25.79 E0.63036
G1 X73.808 Y26.72 E0.66845
G1 X119.205 Y100.887 E3.56067
G1 X119.582 Y101.58 E3.58691
G1 X119.679 Y101.784 E3.59442
G1 X120.249 Y102.594 E3.62737
G1 X140.719 Y136.035 E4.93145
G1 X147.506 Y147.162 E5.36495
G1 X151.555 Y153.839 E5.62467
G1 X151.929 Y154.534 E5.65092
G1 X152.011 Y154.731 E5.65802
G1 X152.617 Y155.604 E5.69336
G1 X154.991 Y159.589 E5.84764
G1 X157.582 Y163.984 E6.01733
G1 X160.36 Y168.763 E6.20119
G1 X163.046 Y173.457 E6.38106
G1 X164.412 Y175.882 E6.47364
G1 X166.337 Y179.349 E6.60553
G1 X167.571 Y181.615 E6.69135
G1 X169.336 Y184.936 E6.81644
G1 X170.401 Y187.007 E6.89389
G1 X171.55 Y189.322 E6.97985
G1 X172.666 Y191.693 E7.06701
G1 X173.221 Y192.942 E7.11247
G1 X173.734 Y194.161 E7.15646
G1 X174.222 Y195.408 E7.201
G1 X174.629 Y196.564 E7.24176
G1 X174.827 Y197.193 E7.26369
G1 X175 Y197.808 E7.28494
G1 X175.147 Y198.391 E7.30494
G1 X175.23 Y198.755 E7.31735
G1 X175.315 Y199.184 E7.3319
G1 X175.435 Y199.891 E7.35575
G1 X175.511 Y200.467 E7.37508
G1 X175.575 Y201.149 E7.39786
G1 X175.607 Y201.693 E7.41598
G1 X175.615 Y202.031 E7.42723
G1 X175.603 Y202.781 E7.45218
G1 X175.56 Y203.394 E7.47261
G1 X175.526 Y203.703 E7.48295
G1 X175.424 Y204.365 E7.50523
G1 X175.363 Y204.673 E7.51568
G1 X175.086 Y205.7 E7.55105
G1 X174.985 Y205.993 E7.56136
G1 X174.69 Y206.726 E7.58764
G1 X174.444 Y207.213 E7.60579
G1 X174.319 Y207.44 E7.61441
G1 X173.903 Y208.112 E7.6407
G1 X173.521 Y208.619 E7.66181
G1 X173.39 Y208.779 E7.66869
G1 X172.86 Y209.364 E7.69494
G1 X172.273 Y209.892 E7.7212
G1 X171.704 Y210.313 E7.74474
G1 X171.369 Y210.538 E7.75817
G1 X170.692 Y210.945 E7.78444
G1 X169.977 Y211.281 E7.81071
G1 X169.352 Y211.509 E7.83284
G1 X168.475 Y211.754 E7.86313
G1 X168.254 Y211.802 E7.87065
G1 X167.49 Y211.929 E7.89641
G1 X167.238 Y211.958 E7.90485
G1 X166.609 Y212.005 E7.92582
G1 X166.106 Y212.022 E7.94256
G1 X165.55 Y212.02 E7.96106
G1 X165.098 Y212.003 E7.9761
G1 X164.652 Y211.974 E7.99097
G1 X164.2 Y211.931 E8.00607
G1 X163.523 Y211.842 E8.02878
G1 X162.91 Y211.735 E8.04948
G1 X162.25 Y211.593 E8.07193
G1 X161.516 Y211.405 E8.09713
G1 X160.781 Y211.188 E8.12262
G1 X159.986 Y210.921 E8.15051
G1 X159.188 Y210.625 E8.17882
G1 X158.263 Y210.247 E8.21206
G1 X157.196 Y209.764 E8.25101
G1 X156.539 Y209.446 E8.27529
G1 X155.28 Y208.785 E8.32258
G1 X154.341 Y208.253 E8.35848
G1 X153.631 Y207.83 E8.38597
G1 X152.846 Y207.341 E8.41673
G1 X152.073 Y206.839 E8.44738
G1 X151.202 Y206.251 E8.48234
G1 X150.343 Y205.644 E8.51732
G1 X149.474 Y205.011 E8.55308
G1 X148.534 Y204.3 E8.59228
G1 X147.542 Y203.519 E8.63427
G1 X145.718 Y202.016 E8.71288
G1 X143.967 Y200.483 E8.79029
G1 X142.231 Y198.887 E8.86872
G1 X140.537 Y197.251 E8.94705
G1 X138.881 Y195.581 E9.02527
G1 X137.296 Y193.921 E9.10161
G1 X135.714 Y192.2 E9.17936
G1 X134.167 Y190.46 E9.2568
G1 X132.71 Y188.77 E9.33101
G1 X131.254 Y187.03 E9.40647
G1 X129.891 Y185.354 E9.47832
G1 X128.528 Y183.634 E9.55132
G1 X127.225 Y181.951 E9.62211
G1 X125.945 Y180.255 E9.69278
G1 X124.731 Y178.61 E9.76078
G1 X124.295 Y177.951 E9.78706
G1 X124.157 Y177.689 E9.79691
G1 X123.749 Y177.23 E9.81734
G1 X123.456 Y176.84 E9.83356
G1 X121.881 Y174.604 E9.92453
G1 X120.388 Y172.428 E10.0123
G1 X118.87 Y170.157 E10.10315
G1 X117.436 Y167.961 E10.19038
G1 X116.023 Y165.749 E10.27769
G1 X114.647 Y163.541 E10.36422
G1 X113.24 Y161.237 E10.45401
G1 X111.973 Y159.119 E10.5361
G1 X110.628 Y156.823 E10.6246
G1 X109.418 Y154.719 E10.70532
G1 X108.133 Y152.439 E10.79237
G1 X106.986 Y150.368 E10.87111
G1 X105.761 Y148.116 E10.95638
G1 X104.67 Y146.079 E11.03324
G1 X103.506 Y143.865 E11.11643
G1 X102.481 Y141.884 E11.19062
G1 X101.377 Y139.721 E11.27139
G1 X100.413 Y137.801 E11.34284
G1 X99.375 Y135.706 E11.42061
G1 X98.469 Y133.85 E11.4893
G1 X97.493 Y131.821 E11.56419
G1 X95.744 Y128.123 E11.70025
G1 X94.134 Y124.629 E11.8282
G1 X92.752 Y121.567 E11.93994
G1 X91.993 Y119.861 E12.00204
G1 X90.612 Y116.707 E12.11656
G1 X89.371 Y113.821 E12.22104
G1 X89.097 Y113.081 E12.24729
G1 X89.028 Y112.815 E12.25643
G1 X88.814 Y112.445 E12.27065
G1 X88.554 Y111.886 E12.29115
G1 X87.6 Y109.595 E12.37369
G1 X85.867 Y105.367 E12.52567
G1 X84.112 Y100.981 E12.68279
G1 X82.514 Y96.893 E12.82878
G1 X80.971 Y92.864 E12.97228
G1 X79.548 Y89.075 E13.10689
G1 X78.189 Y85.391 E13.2375
G1 X76.948 Y81.969 E13.35857
G1 X75.251 Y77.199 E13.52696
G1 X73.783 Y72.989 E13.67525
G1 X68.999 Y59.036 E14.16585
G1 X67.152 Y53.676 E14.35441
G1 X64.945 Y47.352 E14.57719
G1 X63.383 Y42.959 E14.73226
G1 X62.127 Y39.487 E14.85507
G1 X60.973 Y36.379 E14.96533
G1 X60.286 Y34.596 E15.02889
G1 X59.942 Y33.761 E15.05892
G1 X59.679 Y33.017 E15.08517
G1 X59.492 Y32.25 E15.11143
G1 X59.384 Y31.467 E15.13772
G1 X59.356 Y30.678 E15.16398
G0 F6000 X59.757 Y30.604
G1 F1200 X59.817 Y29.837 E15.18956
G1 X59.956 Y29.081 E15.21513
G1 X60.172 Y28.343 E15.24071
G1 X60.464 Y27.631 E15.2663
G1 X60.828 Y26.954 E15.29187
G1 X61.261 Y26.318 E15.31746
G1 X61.757 Y25.73 E15.34304
G1 X62.312 Y25.197 E15.36864
G1 X62.919 Y24.725 E15.39421
G1 X63.571 Y24.318 E15.41977
G1 X64.263 Y23.981 E15.44537
G1 X64.985 Y23.717 E15.47094
G1 X65.731 Y23.53 E15.49652
G1 X66.493 Y23.422 E15.52212
G1 X67.262 Y23.393 E15.54772
G1 X68.029 Y23.444 E15.57328
G1 X68.787 Y23.574 E15.59886
G1 X69.527 Y23.783 E15.62444
G1 X70.242 Y24.067 E15.65003
G1 X70.924 Y24.424 E15.67563
G1 X71.564 Y24.849 E15.70118
G1 X72.157 Y25.339 E15.72677
G1 X72.696 Y25.888 E15.75236
G1 X73.175 Y26.489 E15.77792
G1 X73.467 Y26.929 E15.79548
G1 X118.864 Y101.096 E18.6877
G1 X119.23 Y101.772 E18.71327
G1 X119.323 Y101.996 E18.72134
G1 X119.538 Y102.256 E18.73256
G1 X119.907 Y102.803 E18.75451
G1 X140.378 Y136.244 E20.05861
G1 X147.163 Y147.369 E20.49202
G1 X151.212 Y154.046 E20.75174
G1 X151.577 Y154.723 E20.77732
G1 X151.676 Y154.966 E20.78604
G1 X151.858 Y155.186 E20.79554
G1 X152.273 Y155.809 E20.82044
G1 X154.646 Y159.792 E20.97464
G1 X157.236 Y164.185 E21.14426
G1 X160.013 Y168.961 E21.32801
G1 X162.698 Y173.654 E21.50784
G1 X164.063 Y176.076 E21.60031
G1 X165.986 Y179.54 E21.73208
G1 X167.218 Y181.802 E21.81775
G1 X168.98 Y185.119 E21.94268
G1 X170.042 Y187.185 E22.01994
G1 X171.189 Y189.493 E22.10566
G1 X172.3 Y191.855 E22.19248
G1 X172.852 Y193.097 E22.23768
G1 X173.362 Y194.308 E22.28139
G1 X173.845 Y195.542 E22.32546
G1 X174.248 Y196.685 E22.36577
G1 X174.442 Y197.304 E22.38735
G1 X174.613 Y197.908 E22.40823
G1 X174.757 Y198.48 E22.42785
G1 X174.84 Y198.844 E22.44026
G1 X174.921 Y199.251 E22.45407
G1 X175.041 Y199.958 E22.47792
G1 X175.113 Y200.505 E22.49627
G1 X175.177 Y201.187 E22.51905
G1 X175.207 Y201.703 E22.53624
G1 X175.215 Y202.041 E22.54749
G1 X175.203 Y202.769 E22.5717
G1 X175.163 Y203.35 E22.59107
G1 X175.129 Y203.659 E22.60141
G1 X175.032 Y204.288 E22.62258
G1 X174.971 Y204.596 E22.63302
G1 X174.708 Y205.57 E22.66658
G1 X174.607 Y205.863 E22.67689
G1 X174.319 Y206.576 E22.70246
G1 X174.093 Y207.02 E22.71903
G1 X173.968 Y207.247 E22.72765
G1 X173.563 Y207.901 E22.75324
G1 X173.212 Y208.366 E22.77261
G1 X173.081 Y208.526 E22.77949
G1 X172.563 Y209.095 E22.80509
G1 X171.989 Y209.607 E22.83067
G1 X171.481 Y209.981 E22.85165
G1 X171.146 Y210.206 E22.86507
G1 X170.486 Y210.601 E22.89065
G1 X169.789 Y210.926 E22.91623
G1 X169.222 Y211.131 E22.93629
G1 X168.39 Y211.363 E22.96501
G1 X168.169 Y211.411 E22.97254
G1 X167.444 Y211.531 E22.99698
G1 X167.192 Y211.56 E23.00541
G1 X166.596 Y211.605 E23.02529
G1 X166.093 Y211.622 E23.04203
G1 X165.565 Y211.621 E23.05959
G1 X165.113 Y211.604 E23.07464
G1 X164.69 Y211.576 E23.08874
G1 X164.238 Y211.533 E23.10384
G1 X163.58 Y211.446 E23.12592
G1 X162.983 Y211.341 E23.14608
G1 X162.337 Y211.203 E23.16805
G1 X161.619 Y211.019 E23.1927
G1 X160.897 Y210.805 E23.21775
G1 X160.115 Y210.543 E23.24518
G1 X159.329 Y210.251 E23.27307
G1 X158.416 Y209.877 E23.30588
G1 X157.362 Y209.401 E23.34435
G1 X156.512 Y208.983 E23.37585
G1 X155.258 Y208.317 E23.42308
G1 X154.545 Y207.909 E23.4504
G1 X153.842 Y207.49 E23.47762
G1 X153.063 Y207.005 E23.50814
G1 X152.296 Y206.508 E23.53854
G1 X151.433 Y205.924 E23.5732
G1 X150.578 Y205.32 E23.60801
G1 X149.715 Y204.691 E23.64353
G1 X148.781 Y203.985 E23.68247
G1 X147.796 Y203.21 E23.72416
G1 X145.981 Y201.714 E23.80239
G1 X144.237 Y200.189 E23.87944
G1 X142.509 Y198.599 E23.95755
G1 X140.821 Y196.969 E24.03559
G1 X139.17 Y195.304 E24.11358
G1 X137.591 Y193.65 E24.18964
G1 X136.013 Y191.934 E24.26717
G1 X134.47 Y190.199 E24.3444
G1 X133.017 Y188.513 E24.41843
G1 X131.564 Y186.777 E24.49372
G1 X130.204 Y185.105 E24.56541
G1 X128.844 Y183.389 E24.63823
G1 X127.544 Y181.71 E24.70886
G1 X126.267 Y180.017 E24.77939
G1 X125.053 Y178.372 E24.84739
G1 X124.629 Y177.73 E24.87298
G1 X124.486 Y177.454 E24.88332
G1 X124.38 Y177.351 E24.88823
G1 X123.783 Y176.61 E24.91988
G1 X122.211 Y174.378 E25.01068
G1 X120.721 Y172.206 E25.09829
G1 X119.205 Y169.939 E25.18899
G1 X117.773 Y167.746 E25.27611
G1 X116.363 Y165.537 E25.36327
G1 X114.989 Y163.333 E25.44965
G1 X113.583 Y161.031 E25.53937
G1 X112.318 Y158.916 E25.62134
G1 X110.975 Y156.623 E25.70972
G1 X109.767 Y154.523 E25.7903
G1 X108.483 Y152.245 E25.87727
G1 X107.337 Y150.176 E25.95594
G1 X106.113 Y147.927 E26.0411
G1 X105.024 Y145.892 E26.11787
G1 X103.861 Y143.681 E26.20096
G1 X102.837 Y141.702 E26.27507
G1 X101.734 Y139.541 E26.35577
G1 X100.772 Y137.623 E26.42713
G1 X99.735 Y135.531 E26.50479
G1 X98.829 Y133.676 E26.57346
G1 X97.854 Y131.65 E26.64824
G1 X96.107 Y127.955 E26.78418
G1 X94.499 Y124.464 E26.91202
G1 X93.117 Y121.404 E27.02369
G1 X92.359 Y119.7 E27.08572
G1 X90.98 Y116.549 E27.20012
G1 X89.739 Y113.663 E27.30461
G1 X89.472 Y112.942 E27.33018
G1 X89.407 Y112.685 E27.339
G1 X88.924 Y111.732 E27.37453
G1 X87.97 Y109.443 E27.45701
G1 X86.239 Y105.218 E27.60887
G1 X84.485 Y100.835 E27.76589
G1 X82.888 Y96.75 E27.91177
G1 X81.345 Y92.723 E28.05521
G1 X79.924 Y88.937 E28.18971
G1 X78.565 Y85.255 E28.32025
G1 X77.325 Y81.835 E28.44124
G1 X75.629 Y77.067 E28.60956
G1 X74.161 Y72.859 E28.75779
G1 X69.377 Y58.906 E29.24839
G1 X67.53 Y53.546 E29.43695
G1 X65.336 Y47.261 E29.65836
G1 X63.76 Y42.825 E29.81494
G1 X62.503 Y39.35 E29.93785
G1 X61.348 Y36.24 E30.04819
G1 X60.654 Y34.441 E30.11232
G1 X60.312 Y33.609 E30.14224
G1 X60.057 Y32.884 E30.1678
G1 X59.878 Y32.136 E30.19338
G1 X59.778 Y31.373 E30.21898
G1 X59.757 Y30.604 E30.24456
G0 F6000 X60.16 Y30.532
G1 F1200 X60.227 Y29.787 E30.26944
G1 X60.374 Y29.054 E30.29431
G1 X60.598 Y28.34 E30.3192
G1 X60.898 Y27.654 E30.3441
G1 X61.268 Y27.005 E30.36895
G1 X61.706 Y26.398 E30.39384
G1 X62.206 Y25.842 E30.41871
G1 X62.762 Y25.342 E30.44358
G1 X63.369 Y24.904 E30.46848
G1 X64.019 Y24.534 E30.49336
G1 X64.705 Y24.235 E30.51825
G1 X65.419 Y24.011 E30.54314
G1 X66.152 Y23.864 E30.568
G1 X66.897 Y23.797 E30.59288
G1 X67.645 Y23.809 E30.61776
G1 X68.388 Y23.901 E30.64266
G1 X69.116 Y24.072 E30.66753
G1 X69.822 Y24.32 E30.69242
G1 X70.497 Y24.641 E30.71728
G1 X71.134 Y25.033 E30.74216
G1 X71.726 Y25.491 E30.76705
G1 X72.266 Y26.009 E30.79194
G1 X72.747 Y26.581 E30.8168
G1 X73.125 Y27.138 E30.83919
G1 X118.522 Y101.305 E33.73141
G1 X118.878 Y101.963 E33.75629
G1 X118.971 Y102.19 E33.76445
G1 X119.566 Y103.011 E33.79818
G1 X140.036 Y136.452 E35.10226
G1 X146.821 Y147.576 E35.53564
G1 X150.87 Y154.253 E35.79536
G1 X151.224 Y154.913 E35.82027
G1 X151.324 Y155.16 E35.82913
G1 X151.703 Y155.659 E35.84998
G1 X151.929 Y156.014 E35.86397
G1 X154.302 Y159.995 E36.01812
G1 X156.891 Y164.386 E36.18766
G1 X159.666 Y169.16 E36.37132
G1 X162.349 Y173.85 E36.55103
G1 X163.713 Y176.27 E36.64343
G1 X165.635 Y179.732 E36.77513
G1 X166.865 Y181.99 E36.86065
G1 X168.625 Y185.302 E36.98539
G1 X169.684 Y187.363 E37.06246
G1 X170.827 Y189.663 E37.14789
G1 X171.935 Y192.018 E37.23445
G1 X172.484 Y193.253 E37.2794
G1 X172.99 Y194.455 E37.32278
G1 X173.468 Y195.676 E37.36639
G1 X173.867 Y196.807 E37.40628
G1 X174.058 Y197.414 E37.42745
G1 X174.225 Y198.007 E37.44794
G1 X174.367 Y198.569 E37.46722
G1 X174.45 Y198.933 E37.47963
G1 X174.526 Y199.318 E37.49269
G1 X174.646 Y200.025 E37.51654
G1 X174.714 Y200.542 E37.53388
G1 X174.778 Y201.224 E37.55666
G1 X174.807 Y201.712 E37.57292
G1 X174.814 Y202.431 E37.59684
G1 X174.804 Y202.756 E37.60765
G1 X174.765 Y203.307 E37.62603
G1 X174.731 Y203.616 E37.63636
G1 X174.64 Y204.21 E37.65635
G1 X174.579 Y204.518 E37.66679
G1 X174.33 Y205.439 E37.69853
G1 X174.229 Y205.732 E37.70883
G1 X173.948 Y206.425 E37.73371
G1 X173.743 Y206.828 E37.74875
G1 X173.618 Y207.055 E37.75736
G1 X173.222 Y207.69 E37.78225
G1 X172.902 Y208.113 E37.7999
G1 X172.771 Y208.273 E37.80677
G1 X172.267 Y208.825 E37.83164
G1 X171.707 Y209.321 E37.85652
G1 X171.258 Y209.649 E37.87501
G1 X170.923 Y209.874 E37.88843
G1 X170.28 Y210.257 E37.91332
G1 X169.293 Y210.684 E37.94909
G1 X169.092 Y210.753 E37.95616
G1 X168.305 Y210.973 E37.98334
G1 X168.084 Y211.021 E37.99086
G1 X167.398 Y211.134 E38.01399
G1 X167.146 Y211.163 E38.02242
G1 X166.582 Y211.205 E38.04123
G1 X166.079 Y211.222 E38.05797
G1 X165.58 Y211.221 E38.07457
G1 X165.128 Y211.204 E38.08961
G1 X164.728 Y211.178 E38.10295
G1 X164.276 Y211.135 E38.11805
G1 X163.638 Y211.05 E38.13946
G1 X163.055 Y210.948 E38.15914
G1 X162.423 Y210.812 E38.18064
G1 X161.721 Y210.632 E38.20475
G1 X161.013 Y210.422 E38.22931
G1 X160.245 Y210.164 E38.25625
G1 X159.247 Y209.789 E38.29171
G1 X158.338 Y209.407 E38.32451
G1 X157.363 Y208.958 E38.36021
G1 X156.699 Y208.63 E38.38484
G1 X155.457 Y207.969 E38.43164
G1 X154.749 Y207.565 E38.45875
G1 X154.053 Y207.15 E38.4857
G1 X153.28 Y206.669 E38.51598
G1 X152.52 Y206.176 E38.54611
G1 X151.663 Y205.597 E38.58051
G1 X150.813 Y204.996 E38.61514
G1 X149.956 Y204.372 E38.6504
G1 X149.028 Y203.67 E38.6891
G1 X148.05 Y202.901 E38.73048
G1 X146.244 Y201.413 E38.80831
G1 X144.508 Y199.894 E38.88503
G1 X142.787 Y198.312 E38.96278
G1 X141.105 Y196.687 E39.04057
G1 X139.459 Y195.028 E39.1183
G1 X137.885 Y193.379 E39.19412
G1 X136.311 Y191.668 E39.27144
G1 X134.773 Y189.938 E39.34843
G1 X133.324 Y188.256 E39.42227
G1 X131.875 Y186.525 E39.49736
G1 X130.517 Y184.857 E39.5689
G1 X129.16 Y183.144 E39.64158
G1 X127.863 Y181.469 E39.71204
G1 X126.589 Y179.78 E39.78241
G1 X125.375 Y178.135 E39.85041
G1 X124.963 Y177.51 E39.8753
G1 X124.807 Y177.207 E39.88664
G1 X124.498 Y176.88 E39.9016
G1 X124.11 Y176.379 E39.92268
G1 X122.541 Y174.151 E40.01331
G1 X121.053 Y171.983 E40.10077
G1 X119.54 Y169.72 E40.19131
G1 X118.11 Y167.53 E40.2783
G1 X116.702 Y165.326 E40.36529
G1 X115.33 Y163.124 E40.45158
G1 X113.927 Y160.826 E40.54113
G1 X112.663 Y158.714 E40.623
