;FLAVOR:Marlin
;TIME:12352
;Filament used: 8.78332m
;Layer height: 0.2
;MINX:31.992
;MINY:38.814
;MINZ:0.2
;MAXX:196.406
;MAXY:203.295
;MAXZ:13.4
;Generated with Cura_SteamEngine 5.0.0
M140 S70
M105
M190 S70
M104 S200
M105
M109 S200
M82 ;absolute extrusion mode
; Ender 3 Custom Start G-code
G28 ; Home all axes
M420 S1; Bed Leveling On
G92 E0 ; Reset Extruder
G1 Z2.0 F3000 ; Move Z Axis up little to prevent scratching of Heat Bed
G1 X0.1 Y20 Z0.3 F5000.0 ; Move to start position
G1 X0.1 Y200.0 Z0.3 F1500.0 E15 ; Draw the first line
G1 X0.4 Y200.0 Z0.3 F5000.0 ; Move to side a little
G1 X0.4 Y20 Z0.3 F1500.0 E30 ; Draw the second line
G92 E0 ; Reset Extruder
G1 Z2.0 F3000 ; Move Z Axis up little to prevent scratching of Heat Bed
G1 X5 Y20 Z0.3 F5000.0 ; Move over to prevent blob squish
G92 E0
G92 E0
G1 F2700 E-5
;LAYER_COUNT:67
;LAYER:0
M107
G0 F6000 X41.687 Y41.964 Z0.2
G0 X33.185 Y53.295
;TYPE:SKIRT
G1 F2700 E0
G1 F1200 X33.222 Y52.569 E0.02418
G1 X33.338 Y51.852 E0.04834
G1 X33.532 Y51.153 E0.07246
G1 X33.802 Y50.478 E0.09664
G1 X34.144 Y49.838 E0.12078
G1 X34.555 Y49.238 E0.14497
G1 X35.029 Y48.688 E0.16912
G1 X35.561 Y48.193 E0.19329
G1 X36.143 Y47.76 E0.21741
G1 X36.77 Y47.393 E0.24158
G1 X37.434 Y47.097 E0.26576
G1 X38.126 Y46.876 E0.28992
G1 X38.838 Y46.732 E0.31408
G1 X39.561 Y46.668 E0.33822
G1 X39.777 Y46.672 E0.34541
G1 X39.771 Y46.541 E0.34977
G1 X39.819 Y45.816 E0.37393
G1 X39.947 Y45.101 E0.39809
G1 X40.152 Y44.405 E0.42222
G1 X40.432 Y43.734 E0.44641
G1 X40.785 Y43.099 E0.47057
G1 X41.205 Y42.507 E0.49471
G1 X41.687 Y41.964 E0.51886
G1 X42.227 Y41.477 E0.54305
G1 X42.816 Y41.053 E0.56719
G1 X43.449 Y40.696 E0.59136
G1 X44.117 Y40.411 E0.61551
G1 X44.812 Y40.201 E0.63966
G1 X45.526 Y40.068 E0.66382
G1 X46.251 Y40.015 E0.68799
G1 X46.977 Y40.042 E0.71216
G1 X47.695 Y40.148 E0.7363
G1 X48.398 Y40.333 E0.76048
G1 X49.076 Y40.594 E0.78464
G1 X49.721 Y40.927 E0.80878
G1 X50.405 Y41.39 E0.83625
G1 X50.905 Y41.776 E0.85726
G1 X52.238 Y42.755 E0.91227
G1 X54.785 Y44.571 E1.01631
G1 X58.402 Y47.097 E1.16305
G1 X62.366 Y49.828 E1.32315
G1 X68.095 Y53.725 E1.5536
G1 X84.772 Y64.953 E2.22228
G1 X88.571 Y67.538 E2.37512
G1 X92.66 Y70.359 E2.54034
G1 X95.661 Y72.456 E2.66211
G1 X98.821 Y74.688 E2.79078
G1 X102.126 Y77.052 E2.92594
G1 X105.696 Y79.645 E3.07269
G1 X109.233 Y82.25 E3.21879
G1 X112.85 Y84.957 E3.36906
G1 X114.776 Y86.417 E3.44944
G1 X118.419 Y89.216 E3.60224
G1 X118.97 Y89.69 E3.62642
G1 X119.191 Y89.927 E3.63719
G1 X119.356 Y90.013 E3.64338
G1 X120.072 Y90.504 E3.67226
G1 X122.829 Y92.677 E3.78901
G1 X125.345 Y94.691 E3.89621
G1 X128.032 Y96.874 E4.01135
G1 X130.872 Y99.219 E4.13385
G1 X133.878 Y101.745 E4.26444
G1 X137.013 Y104.431 E4.40175
G1 X138.706 Y105.904 E4.47639
G1 X140.417 Y107.411 E4.55222
G1 X142.027 Y108.843 E4.62389
G1 X143.786 Y110.43 E4.70269
G1 X145.52 Y112.013 E4.78078
G1 X147.272 Y113.635 E4.86019
G1 X149.037 Y115.291 E4.94069
G1 X150.825 Y116.992 E5.02277
G1 X152.628 Y118.733 E5.10613
G1 X154.382 Y120.456 E5.18791
G1 X156.131 Y122.201 E5.27008
G1 X157.94 Y124.034 E5.35574
G1 X159.799 Y125.954 E5.44462
G1 X161.561 Y127.807 E5.52967
G1 X163.366 Y129.745 E5.61775
G1 X165.12 Y131.664 E5.70423
G1 X166.859 Y133.609 E5.791
G1 X168.596 Y135.595 E5.87876
G1 X170.38 Y137.685 E5.97015
G1 X171.947 Y139.562 E6.05148
G1 X172.382 Y140.145 E6.07567
G1 X172.563 Y140.454 E6.08758
G1 X172.677 Y140.55 E6.09254
G1 X173.305 Y141.231 E6.12335
G1 X174.668 Y142.938 E6.196
G1 X175.997 Y144.644 E6.26793
G1 X177.294 Y146.352 E6.33926
G1 X178.556 Y148.057 E6.40981
G1 X179.847 Y149.846 E6.48319
G1 X181.135 Y151.687 E6.55792
G1 X182.396 Y153.545 E6.63261
G1 X183.654 Y155.465 E6.70895
G1 X184.867 Y157.382 E6.7844
G1 X186.087 Y159.394 E6.86267
G1 X187.244 Y161.388 E6.93934
G1 X188.396 Y163.48 E7.01877
G1 X189.482 Y165.572 E7.09717
G1 X190.487 Y167.64 E7.17365
G1 X191.424 Y169.716 E7.2494
G1 X191.862 Y170.753 E7.28684
G1 X192.283 Y171.795 E7.32422
G1 X192.679 Y172.829 E7.36105
G1 X193.033 Y173.805 E7.39558
G1 X193.357 Y174.752 E7.42887
G1 X193.642 Y175.641 E7.45992
G1 X193.887 Y176.457 E7.48826
G1 X194.118 Y177.285 E7.51685
G1 X194.309 Y178.033 E7.54252
G1 X194.493 Y178.813 E7.56918
G1 X194.758 Y180.111 E7.61324
G1 X194.935 Y181.196 E7.64981
G1 X195.061 Y182.175 E7.68264
G1 X195.14 Y183.016 E7.71073
G1 X195.188 Y183.802 E7.73692
G1 X195.206 Y184.54 E7.76147
G1 X195.198 Y185.235 E7.78459
G1 X195.166 Y185.857 E7.80531
G1 X195.101 Y186.54 E7.82813
G1 X195.03 Y187.068 E7.84585
G1 X194.957 Y187.502 E7.86048
G1 X194.807 Y188.209 E7.88452
G1 X194.653 Y188.79 E7.90451
G1 X194.508 Y189.264 E7.921
G1 X194.304 Y189.835 E7.94117
G1 X194.211 Y190.062 E7.94933
G1 X193.96 Y190.604 E7.96919
G1 X193.855 Y190.806 E7.97676
G1 X193.485 Y191.431 E8.00092
G1 X193.125 Y191.92 E8.02112
G1 X192.876 Y192.227 E8.03427
G1 X192.388 Y192.765 E8.05842
G1 X191.844 Y193.246 E8.08258
G1 X191.345 Y193.604 E8.103
G1 X191.091 Y193.769 E8.11308
G1 X190.461 Y194.13 E8.13723
G1 X189.583 Y194.495 E8.16885
G1 X189.361 Y194.569 E8.17663
G1 X188.66 Y194.761 E8.20081
G1 X188.044 Y194.86 E8.22156
G1 X188 Y195.214 E8.23342
G1 X187.853 Y195.862 E8.25552
G1 X187.642 Y196.557 E8.27968
G1 X187.299 Y197.336 E8.30799
G1 X187.156 Y197.611 E8.3183
G1 X186.786 Y198.236 E8.34246
G1 X186.349 Y198.817 E8.36664
G1 X186.055 Y199.143 E8.38124
G1 X185.849 Y199.357 E8.39112
G1 X185.317 Y199.852 E8.41529
G1 X184.821 Y200.227 E8.43597
G1 X184.65 Y200.344 E8.44286
G1 X183.944 Y200.765 E8.4702
G1 X183.742 Y200.869 E8.47776
G1 X183.181 Y201.125 E8.49827
G1 X182.952 Y201.217 E8.50648
G1 X182.409 Y201.408 E8.52562
G1 X181.928 Y201.554 E8.54234
G1 X181.488 Y201.672 E8.55749
G1 X181.035 Y201.776 E8.57295
G1 X180.655 Y201.851 E8.58583
G1 X180.204 Y201.927 E8.60104
G1 X179.754 Y201.987 E8.61614
G1 X179.135 Y202.048 E8.63683
G1 X178.744 Y202.075 E8.64987
G1 X178.13 Y202.095 E8.6703
G1 X177.443 Y202.094 E8.69315
G1 X176.713 Y202.068 E8.71745
G1 X175.924 Y202.01 E8.74376
G1 X175.112 Y201.925 E8.77091
G1 X174.224 Y201.805 E8.80072
G1 X173.592 Y201.704 E8.822
G1 X172.478 Y201.493 E8.85971
G1 X171.758 Y201.334 E8.88424
G1 X171.042 Y201.161 E8.90874
G1 X170.273 Y200.96 E8.93517
G1 X169.5 Y200.742 E8.96189
G1 X168.638 Y200.48 E8.99185
G1 X167.753 Y200.192 E9.02281
G1 X166.807 Y199.866 E9.05609
G1 X165.831 Y199.508 E9.09066
G1 X164.833 Y199.123 E9.12624
G1 X163.787 Y198.699 E9.16378
G1 X162.625 Y198.202 E9.20582
G1 X160.563 Y197.262 E9.28119
G1 X158.473 Y196.237 E9.35861
G1 X156.439 Y195.174 E9.43494
G1 X154.36 Y194.024 E9.51397
G1 X152.333 Y192.841 E9.59203
G1 X150.394 Y191.661 E9.66752
G1 X148.441 Y190.422 E9.74445
G1 X146.548 Y189.177 E9.81981
G1 X144.669 Y187.897 E9.89542
G1 X142.835 Y186.609 E9.96996
G1 X141.09 Y185.348 E10.04157
G1 X139.37 Y184.071 E10.11282
G1 X137.647 Y182.76 E10.18483
G1 X135.939 Y181.425 E10.25693
G1 X134.403 Y180.199 E10.3223
G1 X133.987 Y179.828 E10.34084
G1 X133.732 Y179.65 E10.35118
G1 X133.42 Y179.396 E10.36456
G1 X133.064 Y179.072 E10.38057
G1 X132.735 Y178.839 E10.39398
G1 X130.648 Y177.097 E10.4844
G1 X128.615 Y175.359 E10.57336
G1 X126.649 Y173.637 E10.66028
G1 X124.704 Y171.895 E10.74713
G1 X122.749 Y170.104 E10.83531
G1 X120.867 Y168.35 E10.92088
G1 X118.918 Y166.493 E11.01042
G1 X117.064 Y164.693 E11.09636
G1 X115.288 Y162.942 E11.17931
G1 X113.537 Y161.184 E11.26184
G1 X111.77 Y159.381 E11.34581
G1 X110.034 Y157.583 E11.42893
G1 X108.344 Y155.806 E11.5105
G1 X106.692 Y154.042 E11.59088
G1 X105.073 Y152.292 E11.67017
G1 X103.452 Y150.514 E11.7502
G1 X101.986 Y148.887 E11.82304
G1 X100.438 Y147.148 E11.90047
G1 X98.927 Y145.43 E11.97657
G1 X97.577 Y143.878 E12.04499
G1 X96.141 Y142.208 E12.11824
G1 X93.532 Y139.13 E12.25245
G1 X91.099 Y136.207 E12.37894
G1 X88.862 Y133.473 E12.49643
G1 X87.828 Y132.197 E12.55105
G1 X85.677 Y129.507 E12.66561
G1 X83.675 Y126.968 E12.77315
G1 X83.353 Y126.509 E12.7918
G1 X83.156 Y126.292 E12.80155
G1 X82.908 Y125.973 E12.81499
G1 X82.654 Y125.606 E12.82983
G1 X82.387 Y125.311 E12.84307
G1 X79.564 Y121.635 E12.99722
G1 X77.993 Y119.563 E13.08371
G1 X75.283 Y115.939 E13.23422
G1 X72.682 Y112.406 E13.38013
G1 X70.197 Y108.981 E13.52088
G1 X67.835 Y105.68 E13.65588
G1 X65.607 Y102.526 E13.78432
G1 X63.511 Y99.526 E13.90604
G1 X61.557 Y96.699 E14.02034
G1 X58.91 Y92.825 E14.17639
G1 X55.884 Y88.343 E14.35626
G1 X49.847 Y79.361 E14.71621
G1 X46.779 Y74.813 E14.89868
G1 X42.944 Y69.178 E15.12538
G1 X40.881 Y66.178 E15.24648
G1 X38.664 Y62.991 E15.37561
G1 X36.944 Y60.552 E15.47487
G1 X35.7 Y58.82 E15.5458
G1 X34.794 Y57.595 E15.59647
G1 X34.593 Y57.338 E15.60732
G1 X34.176 Y56.743 E15.63149
G1 X33.828 Y56.106 E15.65563
G1 X33.552 Y55.434 E15.67979
G1 X33.351 Y54.736 E15.70395
G1 X33.228 Y54.02 E15.72812
G1 X33.185 Y53.295 E15.75227
G0 F6000 X32.787 Y53.431
G1 F1200 X32.809 Y52.683 E15.77716
G1 X32.911 Y51.942 E15.80204
G1 X33.091 Y51.216 E15.82692
G1 X33.348 Y50.513 E15.85181
G1 X33.678 Y49.842 E15.87668
G1 X34.078 Y49.21 E15.90156
G1 X34.544 Y48.624 E15.92646
G1 X35.069 Y48.091 E15.95135
G1 X35.648 Y47.618 E15.97621
G1 X36.274 Y47.208 E16.0011
G1 X36.94 Y46.868 E16.02597
G1 X37.639 Y46.601 E16.05086
G1 X38.362 Y46.41 E16.07573
G1 X39.102 Y46.297 E16.10063
G1 X39.389 Y46.284 E16.11018
G1 X39.403 Y45.946 E16.12144
G1 X39.514 Y45.206 E16.14632
G1 X39.703 Y44.482 E16.17121
G1 X39.969 Y43.783 E16.19609
G1 X40.308 Y43.116 E16.22097
G1 X40.716 Y42.489 E16.24585
G1 X41.188 Y41.909 E16.27072
G1 X41.72 Y41.383 E16.29561
G1 X42.305 Y40.916 E16.3205
G1 X42.936 Y40.515 E16.34537
G1 X43.606 Y40.183 E16.37024
G1 X44.308 Y39.925 E16.39512
G1 X45.034 Y39.743 E16.42001
G1 X45.775 Y39.639 E16.4449
G1 X46.522 Y39.616 E16.46975
G1 X47.268 Y39.672 E16.49464
G1 X48.004 Y39.807 E16.51952
G1 X48.721 Y40.02 E16.5444
G1 X49.411 Y40.309 E16.56928
G1 X50.067 Y40.669 E16.59417
G1 X50.649 Y41.073 E16.61774
G1 X51.126 Y41.441 E16.63777
G1 X52.517 Y42.463 E16.69518
G1 X54.962 Y44.206 E16.79505
G1 X58.667 Y46.795 E16.94539
G1 X62.559 Y49.475 E17.10256
G1 X68.318 Y53.393 E17.33423
G1 X84.997 Y64.622 E18.00298
G1 X88.798 Y67.208 E18.15588
G1 X92.89 Y70.031 E18.32123
G1 X95.892 Y72.129 E18.44304
G1 X99.054 Y74.363 E18.57181
G1 X102.361 Y76.729 E18.70706
G1 X105.933 Y79.323 E18.85388
G1 X109.472 Y81.93 E19.00008
G1 X113.091 Y84.638 E19.15042
G1 X115.02 Y86.1 E19.23092
G1 X118.663 Y88.899 E19.38372
G1 X119.231 Y89.386 E19.40861
G1 X119.434 Y89.602 E19.41846
G1 X119.965 Y89.928 E19.43919
G1 X120.32 Y90.19 E19.45386
G1 X123.079 Y92.365 E19.57071
G1 X125.598 Y94.381 E19.67802
G1 X128.286 Y96.566 E19.79324
G1 X131.129 Y98.913 E19.91586
G1 X134.138 Y101.441 E20.04657
G1 X137.276 Y104.129 E20.18399
G1 X138.971 Y105.604 E20.25873
G1 X140.683 Y107.112 E20.33461
G1 X142.295 Y108.546 E20.40637
G1 X144.056 Y110.134 E20.48524
G1 X145.792 Y111.72 E20.56344
G1 X147.545 Y113.343 E20.6429
G1 X149.312 Y115.001 E20.72349
G1 X151.102 Y116.704 E20.80567
G1 X152.908 Y118.447 E20.88915
G1 X154.665 Y120.172 E20.97104
G1 X156.416 Y121.92 E21.05333
G1 X158.227 Y123.756 E21.13911
G1 X160.089 Y125.679 E21.22814
G1 X161.853 Y127.534 E21.31328
G1 X163.661 Y129.475 E21.4015
G1 X165.418 Y131.398 E21.48814
G1 X167.16 Y133.346 E21.57506
G1 X168.9 Y135.335 E21.66295
G1 X170.688 Y137.429 E21.75454
G1 X172.255 Y139.306 E21.83586
G1 X172.703 Y139.905 E21.86074
G1 X172.88 Y140.203 E21.87227
G1 X173.259 Y140.567 E21.88975
G1 X173.618 Y140.981 E21.90797
G1 X174.984 Y142.692 E21.98079
G1 X176.315 Y144.402 E22.05286
G1 X177.615 Y146.114 E22.12436
G1 X178.88 Y147.823 E22.19508
G1 X180.174 Y149.617 E22.26865
G1 X181.466 Y151.463 E22.34359
G1 X182.731 Y153.325 E22.41846
G1 X183.992 Y155.251 E22.49503
G1 X185.209 Y157.174 E22.57072
G1 X186.433 Y159.193 E22.64925
G1 X187.594 Y161.195 E22.72623
G1 X188.751 Y163.296 E22.806
G1 X189.841 Y165.397 E22.88472
G1 X190.852 Y167.475 E22.96158
G1 X191.792 Y169.56 E23.03765
G1 X192.233 Y170.603 E23.07532
G1 X192.657 Y171.652 E23.11295
G1 X193.055 Y172.692 E23.14999
G1 X193.411 Y173.675 E23.18476
G1 X193.738 Y174.63 E23.21833
G1 X194.024 Y175.525 E23.24958
G1 X194.272 Y176.349 E23.2782
G1 X194.505 Y177.186 E23.3071
G1 X194.698 Y177.94 E23.33299
G1 X194.884 Y178.732 E23.36005
G1 X195.152 Y180.045 E23.40462
G1 X195.331 Y181.143 E23.44162
G1 X195.459 Y182.136 E23.47492
G1 X195.539 Y182.989 E23.50342
G1 X195.588 Y183.791 E23.53014
G1 X195.606 Y184.542 E23.55513
G1 X195.597 Y185.252 E23.57874
G1 X195.565 Y185.889 E23.59996
G1 X195.498 Y186.593 E23.62348
G1 X195.427 Y187.121 E23.6412
G1 X195.349 Y187.582 E23.65675
G1 X195.195 Y188.305 E23.68133
G1 X195.036 Y188.907 E23.70204
G1 X194.891 Y189.381 E23.71853
G1 X194.674 Y189.987 E23.73994
G1 X194.581 Y190.214 E23.7481
G1 X194.315 Y190.789 E23.76917
G1 X194.21 Y190.991 E23.77674
G1 X193.83 Y191.635 E23.80161
G1 X193.436 Y192.171 E23.82374
G1 X193.187 Y192.478 E23.83688
G1 X192.685 Y193.033 E23.86177
G1 X192.127 Y193.532 E23.88667
G1 X191.563 Y193.939 E23.90981
G1 X191.309 Y194.104 E23.91988
G1 X190.661 Y194.478 E23.94476
G1 X189.71 Y194.875 E23.97904
G1 X189.488 Y194.949 E23.98682
G1 X188.766 Y195.147 E24.01172
G1 X188.404 Y195.206 E24.02392
G1 X188.305 Y195.701 E24.04071
G1 X188.242 Y195.958 E24.04951
G1 X188.025 Y196.674 E24.0744
G1 X187.654 Y197.52 E24.10512
G1 X187.511 Y197.795 E24.11543
G1 X187.13 Y198.44 E24.14035
G1 X186.684 Y199.04 E24.16521
G1 X186.343 Y199.421 E24.18222
G1 X186.137 Y199.635 E24.1921
G1 X185.59 Y200.145 E24.21697
G1 X185.047 Y200.557 E24.23964
G1 X184.876 Y200.674 E24.24653
G1 X184.127 Y201.121 E24.27555
G1 X183.925 Y201.225 E24.2831
G1 X183.331 Y201.496 E24.30482
G1 X183.102 Y201.588 E24.31303
G1 X182.525 Y201.791 E24.33337
G1 X182.044 Y201.937 E24.35009
G1 X181.577 Y202.062 E24.36617
G1 X181.124 Y202.166 E24.38163
G1 X180.721 Y202.246 E24.39529
G1 X180.27 Y202.322 E24.4105
G1 X179.793 Y202.385 E24.42651
G1 X179.174 Y202.446 E24.4472
G1 X178.759 Y202.475 E24.46103
G1 X178.131 Y202.495 E24.48193
G1 X177.431 Y202.494 E24.50521
G1 X176.686 Y202.467 E24.53001
G1 X175.885 Y202.408 E24.55672
G1 X175.058 Y202.322 E24.58438
G1 X174.163 Y202.2 E24.61442
G1 X173.519 Y202.097 E24.63611
G1 X172.393 Y201.884 E24.67422
G1 X171.664 Y201.723 E24.69906
G1 X170.941 Y201.548 E24.7238
G1 X170.165 Y201.345 E24.75048
G1 X169.384 Y201.125 E24.77746
G1 X168.514 Y200.861 E24.8077
G1 X167.623 Y200.571 E24.83887
G1 X166.67 Y200.242 E24.8724
G1 X165.688 Y199.881 E24.9072
G1 X164.683 Y199.494 E24.94302
G1 X163.63 Y199.067 E24.98081
G1 X162.46 Y198.566 E25.02314
G1 X160.387 Y197.621 E25.09892
G1 X158.288 Y196.591 E25.17668
G1 X156.246 Y195.524 E25.25331
G1 X154.158 Y194.369 E25.33268
G1 X152.125 Y193.183 E25.41096
G1 X150.18 Y191.999 E25.48669
G1 X148.221 Y190.756 E25.56386
G1 X146.323 Y189.508 E25.63941
G1 X144.44 Y188.225 E25.7152
G1 X142.601 Y186.933 E25.78995
G1 X140.852 Y185.669 E25.86172
G1 X139.127 Y184.39 E25.93314
G1 X137.401 Y183.075 E26.00531
G1 X135.689 Y181.738 E26.07756
G1 X134.153 Y180.512 E26.14293
G1 X133.82 Y180.216 E26.15775
G1 X133.48 Y179.961 E26.17188
G1 X133.168 Y179.707 E26.18526
G1 X132.917 Y179.479 E26.19654
G1 X132.479 Y179.146 E26.21484
G1 X130.388 Y177.401 E26.30543
G1 X128.352 Y175.66 E26.39453
G1 X126.382 Y173.935 E26.48162
G1 X124.434 Y172.19 E26.5686
G1 X122.476 Y170.397 E26.6569
G1 X120.591 Y168.639 E26.74263
G1 X118.639 Y166.78 E26.83229
G1 X116.783 Y164.978 E26.91833
G1 X115.005 Y163.224 E27.0014
G1 X113.251 Y161.464 E27.08404
G1 X111.482 Y159.659 E27.1681
G1 X109.744 Y157.858 E27.25135
G1 X108.052 Y156.079 E27.33301
G1 X106.398 Y154.314 E27.41346
G1 X104.778 Y152.562 E27.49282
G1 X103.155 Y150.782 E27.57294
G1 X101.687 Y149.153 E27.64588
G1 X100.138 Y147.412 E27.72338
G1 X98.625 Y145.692 E27.79957
G1 X97.274 Y144.138 E27.86806
G1 X95.836 Y142.467 E27.94139
G1 X93.224 Y139.386 E28.07573
G1 X90.79 Y136.46 E28.20232
G1 X88.551 Y133.724 E28.31991
G1 X87.516 Y132.447 E28.37458
G1 X85.363 Y129.754 E28.48925
G1 X83.361 Y127.215 E28.5968
G1 X83.083 Y126.821 E28.61283
G1 X82.841 Y126.537 E28.62524
G1 X82.593 Y126.218 E28.63868
G1 X82.411 Y125.956 E28.64929
G1 X82.07 Y125.555 E28.6668
G1 X79.245 Y121.877 E28.82105
G1 X77.673 Y119.803 E28.90761
G1 X74.961 Y116.177 E29.05821
