;FLAVOR:Marlin
;TIME:17500
;Filament used: 12.2719m
;Layer height: 0.2
;MINX:26.7
;MINY:47.004
;MINZ:0.2
;MAXX:208.301
;MAXY:187.929
;MAXZ:3
;Generated with Cura_SteamEngine 5.0.0
M140 S70
M105
M190 S70
M104 S200
M105
M109 S200
M82 ;absolute extrusion mode
; Ender 3 Custom Start G-code
G28 ; Home all axes
M420 S1; Bed Leveling On
G92 E0 ; Reset Extruder
G1 Z2.0 F3000 ; Move Z Axis up little to prevent scratching of Heat Bed
G1 X0.1 Y20 Z0.3 F5000.0 ; Move to start position
G1 X0.1 Y200.0 Z0.3 F1500.0 E15 ; Draw the first line
G1 X0.4 Y200.0 Z0.3 F5000.0 ; Move to side a little
G1 X0.4 Y20 Z0.3 F1500.0 E30 ; Draw the second line
G92 E0 ; Reset Extruder
G1 Z2.0 F3000 ; Move Z Axis up little to prevent scratching of Heat Bed
G1 X5 Y20 Z0.3 F5000.0 ; Move over to prevent blob squish
G92 E0
G92 E0
G1 F2700 E-5
;LAYER_COUNT:15
;LAYER:0
M107
G0 F6000 X31.061 Y65.96 Z0.2
G0 X26.7 Y72.961
;TYPE:SKIRT
G1 F2700 E0
G1 F1200 X26.74 Y72.172 E0.02628
G1 X26.859 Y71.392 E0.05252
G1 X27.057 Y70.627 E0.0788
G1 X27.331 Y69.887 E0.10505
G1 X27.679 Y69.178 E0.13132
G1 X28.097 Y68.507 E0.15761
G1 X28.58 Y67.883 E0.18385
G1 X29.123 Y67.31 E0.21011
G1 X29.722 Y66.795 E0.23638
G1 X30.37 Y66.344 E0.26264
G1 X31.061 Y65.96 E0.28894
G1 X31.786 Y65.648 E0.31519
G1 X32.539 Y65.411 E0.34144
G1 X33.313 Y65.252 E0.36773
G1 X34.098 Y65.171 E0.39397
G1 X34.5 Y65.161 E0.40735
G1 X53.356 Y65.162 E1.0345
G1 X53.356 Y54.805 E1.37898
G1 X53.396 Y54.016 E1.40525
G1 X53.515 Y53.236 E1.4315
G1 X53.713 Y52.471 E1.45778
G1 X53.987 Y51.731 E1.48402
G1 X54.335 Y51.022 E1.51029
G1 X54.753 Y50.351 E1.53659
G1 X55.236 Y49.727 E1.56283
G1 X55.779 Y49.154 E1.58909
G1 X56.378 Y48.639 E1.61536
G1 X57.026 Y48.188 E1.64162
G1 X57.717 Y47.804 E1.66791
G1 X58.442 Y47.492 E1.69416
G1 X59.195 Y47.255 E1.72042
G1 X59.969 Y47.096 E1.7467
G1 X60.754 Y47.015 E1.77295
G1 X61.156 Y47.005 E1.78632
G1 X173.823 Y47.004 E5.53364
G1 X174.612 Y47.044 E5.55992
G1 X175.392 Y47.163 E5.58616
G1 X176.157 Y47.361 E5.61245
G1 X176.897 Y47.635 E5.63869
G1 X177.606 Y47.983 E5.66496
G1 X178.277 Y48.4 E5.69124
G1 X178.901 Y48.884 E5.7175
G1 X179.474 Y49.427 E5.74376
G1 X179.989 Y50.026 E5.77003
G1 X180.44 Y50.674 E5.79629
G1 X180.824 Y51.364 E5.82255
G1 X181.136 Y52.09 E5.84884
G1 X181.373 Y52.843 E5.87509
G1 X181.532 Y53.617 E5.90137
G1 X181.613 Y54.402 E5.92762
G1 X181.623 Y54.804 E5.941
G1 X181.623 Y65.162 E6.2855
G1 X200.5 Y65.162 E6.91336
G1 X201.289 Y65.202 E6.93963
G1 X202.069 Y65.321 E6.96588
G1 X202.834 Y65.519 E6.99216
G1 X203.574 Y65.793 E7.0184
G1 X204.283 Y66.141 E7.04467
G1 X204.954 Y66.559 E7.07097
G1 X205.578 Y67.042 E7.09721
G1 X206.151 Y67.585 E7.12347
G1 X206.666 Y68.184 E7.14974
G1 X207.117 Y68.832 E7.176
G1 X207.501 Y69.523 E7.20229
G1 X207.813 Y70.248 E7.22854
G1 X208.05 Y71.001 E7.2548
G1 X208.209 Y71.775 E7.28108
G1 X208.29 Y72.56 E7.30733
G1 X208.3 Y72.962 E7.3207
G1 X208.3 Y89.628 E7.87502
G1 X208.262 Y90.385 E7.90023
G1 X208.29 Y90.66 E7.90942
G1 X208.3 Y91.062 E7.9228
G1 X208.3 Y107.728 E8.47711
G1 X208.262 Y108.485 E8.50232
G1 X208.29 Y108.76 E8.51151
G1 X208.3 Y109.162 E8.52489
G1 X208.3 Y125.828 E9.0792
G1 X208.262 Y126.578 E9.10418
G1 X208.291 Y126.86 E9.11361
G1 X208.301 Y127.262 E9.12698
G1 X208.301 Y143.928 E9.68129
G1 X208.261 Y144.717 E9.70757
G1 X208.142 Y145.497 E9.73381
G1 X207.944 Y146.262 E9.7601
G1 X207.67 Y147.002 E9.78634
G1 X207.322 Y147.711 E9.81261
G1 X206.904 Y148.382 E9.8389
G1 X206.421 Y149.006 E9.86515
G1 X205.878 Y149.579 E9.89141
G1 X205.279 Y150.094 E9.91768
G1 X204.631 Y150.545 E9.94394
G1 X203.94 Y150.929 E9.97023
G1 X203.215 Y151.241 E9.99648
G1 X202.462 Y151.478 E10.02274
G1 X201.688 Y151.637 E10.04902
G1 X200.903 Y151.718 E10.07527
G1 X200.501 Y151.728 E10.08864
G1 X194.707 Y151.728 E10.28135
G1 X194.876 Y152.533 E10.30871
G1 X194.957 Y153.318 E10.33496
G1 X194.967 Y153.72 E10.34833
G1 X194.967 Y162.028 E10.62466
G1 X194.927 Y162.817 E10.65093
G1 X194.808 Y163.597 E10.67718
G1 X194.61 Y164.362 E10.70346
G1 X194.336 Y165.102 E10.7297
G1 X193.988 Y165.811 E10.75597
G1 X193.57 Y166.482 E10.78227
G1 X193.087 Y167.106 E10.80851
G1 X192.544 Y167.679 E10.83477
G1 X191.945 Y168.194 E10.86104
G1 X191.297 Y168.645 E10.8873
G1 X190.606 Y169.029 E10.91359
G1 X189.881 Y169.341 E10.93985
G1 X189.128 Y169.578 E10.9661
G1 X188.354 Y169.737 E10.99238
G1 X187.569 Y169.818 E11.01863
G1 X187.167 Y169.828 E11.03201
G1 X167.3 Y169.828 E11.69279
G1 X167.3 Y180.128 E12.03536
G1 X167.26 Y180.917 E12.06164
G1 X167.141 Y181.697 E12.08788
G1 X166.943 Y182.462 E12.11417
G1 X166.669 Y183.202 E12.14041
G1 X166.321 Y183.911 E12.16668
G1 X165.903 Y184.582 E12.19297
G1 X165.42 Y185.206 E12.21922
G1 X164.877 Y185.779 E12.24548
G1 X164.278 Y186.294 E12.27175
G1 X163.63 Y186.745 E12.29801
G1 X162.939 Y187.129 E12.3243
G1 X162.214 Y187.441 E12.35055
G1 X161.461 Y187.678 E12.37681
G1 X160.687 Y187.837 E12.40309
G1 X159.902 Y187.918 E12.42934
G1 X159.5 Y187.928 E12.44271
G1 X75.5 Y187.929 E15.23656
G1 X74.711 Y187.889 E15.26284
G1 X73.931 Y187.77 E15.28908
G1 X73.166 Y187.572 E15.31537
G1 X72.426 Y187.298 E15.34161
G1 X71.717 Y186.95 E15.36788
G1 X71.046 Y186.533 E15.39416
G1 X70.422 Y186.049 E15.42042
G1 X69.849 Y185.506 E15.44668
G1 X69.334 Y184.907 E15.47295
G1 X68.883 Y184.259 E15.49921
G1 X68.499 Y183.569 E15.52547
G1 X68.187 Y182.843 E15.55176
G1 X67.95 Y182.09 E15.57801
G1 X67.791 Y181.316 E15.60429
G1 X67.71 Y180.531 E15.63054
G1 X67.7 Y180.129 E15.64392
G1 X67.7 Y171.82 E15.92027
G1 X67.74 Y171.031 E15.94655
G1 X67.859 Y170.251 E15.97279
G1 X67.968 Y169.829 E15.98729
G1 X47.833 Y169.829 E16.65698
G1 X47.044 Y169.789 E16.68326
G1 X46.264 Y169.67 E16.7095
G1 X45.499 Y169.472 E16.73578
G1 X44.759 Y169.198 E16.76203
G1 X44.05 Y168.85 E16.7883
G1 X43.379 Y168.433 E16.81457
G1 X42.755 Y167.949 E16.84084
G1 X42.182 Y167.406 E16.8671
G1 X41.667 Y166.807 E16.89337
G1 X41.216 Y166.159 E16.91963
G1 X40.832 Y165.469 E16.94589
G1 X40.52 Y164.743 E16.97218
G1 X40.283 Y163.99 E16.99843
G1 X40.124 Y163.216 E17.02471
G1 X40.043 Y162.431 E17.05096
G1 X40.033 Y162.029 E17.06434
G1 X40.033 Y151.729 E17.40691
G1 X34.501 Y151.729 E17.59091
G1 X33.712 Y151.689 E17.61719
G1 X32.932 Y151.57 E17.64343
G1 X32.167 Y151.372 E17.66971
G1 X31.427 Y151.098 E17.69596
G1 X30.718 Y150.75 E17.72223
G1 X30.047 Y150.333 E17.7485
G1 X29.423 Y149.849 E17.77477
G1 X28.85 Y149.306 E17.80102
G1 X28.335 Y148.707 E17.8273
G1 X27.884 Y148.059 E17.85356
G1 X27.5 Y147.369 E17.87982
G1 X27.188 Y146.643 E17.9061
G1 X26.951 Y145.89 E17.93236
G1 X26.792 Y145.116 E17.95864
G1 X26.711 Y144.331 E17.98489
G1 X26.701 Y143.929 E17.99826
G1 X26.701 Y127.261 E18.55264
G1 X26.739 Y126.512 E18.57759
G1 X26.71 Y126.231 E18.58698
G1 X26.7 Y125.829 E18.60036
G1 X26.7 Y109.161 E19.15474
G1 X26.738 Y108.405 E19.17991
G1 X26.71 Y108.131 E19.18907
G1 X26.7 Y107.729 E19.20245
G1 X26.7 Y91.061 E19.75683
G1 X26.738 Y90.305 E19.782
G1 X26.71 Y90.031 E19.79117
G1 X26.7 Y89.629 E19.80454
G1 X26.7 Y72.961 E20.35892
G0 F6000 X27.1 Y72.961
G1 F1200 X27.14 Y72.193 E20.3845
G1 X27.259 Y71.433 E20.41008
G1 X27.457 Y70.69 E20.43566
G1 X27.731 Y69.971 E20.46125
G1 X28.078 Y69.285 E20.48682
G1 X28.494 Y68.638 E20.5124
G1 X28.975 Y68.038 E20.53798
G1 X29.516 Y67.491 E20.56357
G1 X30.111 Y67.003 E20.58916
G1 X30.753 Y66.58 E20.61473
G1 X31.436 Y66.225 E20.64034
G1 X32.151 Y65.944 E20.66589
G1 X32.893 Y65.738 E20.6915
G1 X33.651 Y65.61 E20.71707
G1 X34.5 Y65.561 E20.74535
G1 X53.756 Y65.562 E21.38581
G1 X53.756 Y54.805 E21.74359
G1 X53.796 Y54.037 E21.76917
G1 X53.915 Y53.277 E21.79475
G1 X54.113 Y52.534 E21.82033
G1 X54.387 Y51.815 E21.84592
G1 X54.734 Y51.129 E21.87149
G1 X55.15 Y50.482 E21.89707
G1 X55.631 Y49.882 E21.92265
G1 X56.172 Y49.335 E21.94824
G1 X56.767 Y48.847 E21.97383
G1 X57.409 Y48.424 E21.9994
G1 X58.092 Y48.069 E22.02501
G1 X58.807 Y47.788 E22.05056
G1 X59.549 Y47.582 E22.07617
G1 X60.307 Y47.454 E22.10174
G1 X61.156 Y47.405 E22.13002
G1 X173.823 Y47.404 E25.87734
G1 X174.591 Y47.444 E25.90292
G1 X175.351 Y47.563 E25.92851
G1 X176.094 Y47.761 E25.95408
G1 X176.813 Y48.035 E25.97967
G1 X177.499 Y48.382 E26.00524
G1 X178.146 Y48.798 E26.03083
G1 X178.746 Y49.279 E26.0564
G1 X179.293 Y49.82 E26.08199
G1 X179.781 Y50.415 E26.10759
G1 X180.204 Y51.057 E26.13316
G1 X180.559 Y51.74 E26.15876
G1 X180.84 Y52.455 E26.18431
G1 X181.046 Y53.196 E26.20989
G1 X181.174 Y53.955 E26.23549
G1 X181.223 Y54.804 E26.26378
G1 X181.223 Y65.562 E26.62159
G1 X200.5 Y65.562 E27.26275
G1 X201.268 Y65.602 E27.28832
G1 X202.028 Y65.721 E27.31391
G1 X202.771 Y65.919 E27.33948
G1 X203.49 Y66.193 E27.36508
G1 X204.176 Y66.54 E27.39065
G1 X204.823 Y66.956 E27.41623
G1 X205.423 Y67.437 E27.44181
G1 X205.97 Y67.978 E27.46739
G1 X206.458 Y68.573 E27.49299
G1 X206.881 Y69.215 E27.51856
G1 X207.236 Y69.898 E27.54416
G1 X207.517 Y70.613 E27.56971
G1 X207.723 Y71.355 E27.59533
G1 X207.851 Y72.113 E27.62089
G1 X207.9 Y72.962 E27.64918
G1 X207.9 Y89.628 E28.20349
G1 X207.861 Y90.382 E28.2286
G1 X207.9 Y91.062 E28.25126
G1 X207.9 Y107.728 E28.80557
G1 X207.861 Y108.482 E28.83068
G1 X207.9 Y109.162 E28.85334
G1 X207.9 Y125.828 E29.40765
G1 X207.861 Y126.573 E29.43246
G1 X207.901 Y127.262 E29.45542
G1 X207.901 Y143.928 E30.00973
G1 X207.861 Y144.696 E30.03531
G1 X207.742 Y145.456 E30.0609
G1 X207.544 Y146.199 E30.08647
G1 X207.27 Y146.918 E30.11206
G1 X206.923 Y147.604 E30.13763
G1 X206.507 Y148.251 E30.16322
G1 X206.026 Y148.851 E30.18879
G1 X205.485 Y149.398 E30.21438
G1 X204.89 Y149.886 E30.23998
G1 X204.248 Y150.309 E30.26555
G1 X203.565 Y150.664 E30.29115
G1 X202.85 Y150.945 E30.3167
G1 X202.108 Y151.151 E30.34231
G1 X201.35 Y151.279 E30.36788
G1 X200.501 Y151.328 E30.39617
G1 X194.167 Y151.328 E30.60684
G1 X194.39 Y152.113 E30.63398
G1 X194.518 Y152.871 E30.65955
G1 X194.567 Y153.72 E30.68783
G1 X194.567 Y162.028 E30.96416
G1 X194.527 Y162.796 E30.98973
G1 X194.408 Y163.556 E31.01532
G1 X194.21 Y164.299 E31.04089
G1 X193.936 Y165.018 E31.06649
G1 X193.589 Y165.704 E31.09206
G1 X193.173 Y166.351 E31.11764
G1 X192.692 Y166.951 E31.14322
G1 X192.151 Y167.498 E31.1688
G1 X191.556 Y167.986 E31.1944
G1 X190.914 Y168.409 E31.21997
G1 X190.231 Y168.764 E31.24557
G1 X189.516 Y169.045 E31.27112
G1 X188.774 Y169.251 E31.29674
G1 X188.016 Y169.379 E31.3223
G1 X187.167 Y169.428 E31.35059
G1 X166.9 Y169.428 E32.02467
G1 X166.9 Y180.128 E32.38056
G1 X166.86 Y180.896 E32.40613
G1 X166.741 Y181.656 E32.43172
G1 X166.543 Y182.399 E32.4573
G1 X166.269 Y183.118 E32.48289
G1 X165.922 Y183.804 E32.50846
G1 X165.506 Y184.451 E32.53404
G1 X165.025 Y185.051 E32.55962
G1 X164.484 Y185.598 E32.58521
G1 X163.889 Y186.086 E32.6108
G1 X163.247 Y186.509 E32.63637
G1 X162.564 Y186.864 E32.66197
G1 X161.849 Y187.145 E32.68752
G1 X161.107 Y187.351 E32.71314
G1 X160.349 Y187.479 E32.73871
G1 X159.5 Y187.528 E32.76699
G1 X75.5 Y187.529 E35.56084
G1 X74.732 Y187.489 E35.58642
G1 X73.972 Y187.37 E35.61201
G1 X73.229 Y187.172 E35.63758
G1 X72.51 Y186.898 E35.66317
G1 X71.824 Y186.551 E35.68874
G1 X71.177 Y186.135 E35.71432
G1 X70.577 Y185.654 E35.7399
G1 X70.03 Y185.113 E35.76549
G1 X69.542 Y184.518 E35.79108
G1 X69.119 Y183.876 E35.81666
G1 X68.764 Y183.193 E35.84226
G1 X68.483 Y182.478 E35.86781
G1 X68.277 Y181.737 E35.89339
G1 X68.149 Y180.978 E35.91899
G1 X68.1 Y180.129 E35.94728
G1 X68.1 Y171.82 E36.22363
G1 X68.14 Y171.052 E36.24921
G1 X68.259 Y170.292 E36.2748
G1 X68.457 Y169.549 E36.30037
G1 X68.503 Y169.429 E36.30465
G1 X47.833 Y169.429 E36.99213
G1 X47.065 Y169.389 E37.01771
G1 X46.305 Y169.27 E37.0433
G1 X45.562 Y169.072 E37.06887
G1 X44.843 Y168.798 E37.09447
G1 X44.157 Y168.451 E37.12003
G1 X43.51 Y168.035 E37.14562
G1 X42.91 Y167.554 E37.1712
G1 X42.363 Y167.013 E37.19678
G1 X41.875 Y166.418 E37.22238
G1 X41.452 Y165.776 E37.24795
G1 X41.097 Y165.093 E37.27355
G1 X40.816 Y164.378 E37.2991
G1 X40.61 Y163.637 E37.32468
G1 X40.482 Y162.878 E37.35028
G1 X40.433 Y162.029 E37.37857
G1 X40.433 Y151.329 E37.73445
G1 X34.501 Y151.329 E37.93175
G1 X33.733 Y151.289 E37.95733
G1 X32.973 Y151.17 E37.98292
G1 X32.23 Y150.972 E38.00849
G1 X31.511 Y150.698 E38.03408
G1 X30.825 Y150.351 E38.05965
G1 X30.178 Y149.935 E38.08524
G1 X29.578 Y149.454 E38.11081
G1 X29.031 Y148.913 E38.1364
G1 X28.543 Y148.318 E38.162
G1 X28.12 Y147.676 E38.18757
G1 X27.765 Y146.993 E38.21317
G1 X27.484 Y146.278 E38.23872
G1 X27.278 Y145.536 E38.26433
G1 X27.15 Y144.778 E38.2899
G1 X27.101 Y143.929 E38.31819
G1 X27.101 Y127.261 E38.87257
G1 X27.14 Y126.517 E38.89734
G1 X27.1 Y125.829 E38.92027
G1 X27.1 Y109.161 E39.47465
G1 X27.139 Y108.408 E39.49972
G1 X27.1 Y107.729 E39.52235
G1 X27.1 Y91.061 E40.07673
G1 X27.139 Y90.308 E40.1018
G1 X27.1 Y89.629 E40.12442
G1 X27.1 Y72.961 E40.6788
G0 F6000 X27.5 Y72.961
G1 F1200 X27.54 Y72.214 E40.70369
G1 X27.659 Y71.476 E40.72855
G1 X27.857 Y70.754 E40.75345
G1 X28.13 Y70.058 E40.77832
G1 X28.477 Y69.395 E40.8032
G1 X28.892 Y68.772 E40.8281
G1 X29.371 Y68.198 E40.85297
G1 X29.908 Y67.677 E40.87785
G1 X30.498 Y67.218 E40.90272
G1 X31.134 Y66.823 E40.92762
G1 X31.808 Y66.499 E40.95249
G1 X32.513 Y66.249 E40.97737
G1 X33.241 Y66.075 E41.00226
G1 X33.983 Y65.98 E41.02714
G1 X34.5 Y65.961 E41.04435
G1 X54.156 Y65.962 E41.69811
G1 X54.156 Y54.805 E42.0692
G1 X54.196 Y54.058 E42.09408
G1 X54.315 Y53.32 E42.11894
G1 X54.513 Y52.598 E42.14384
G1 X54.786 Y51.902 E42.16871
G1 X55.133 Y51.239 E42.1936
G1 X55.548 Y50.616 E42.21849
G1 X56.027 Y50.042 E42.24336
G1 X56.564 Y49.521 E42.26824
G1 X57.154 Y49.062 E42.29311
G1 X57.79 Y48.667 E42.31801
G1 X58.464 Y48.343 E42.34288
G1 X59.169 Y48.093 E42.36776
G1 X59.897 Y47.919 E42.39266
G1 X60.639 Y47.824 E42.41754
G1 X61.156 Y47.805 E42.43474
G1 X173.823 Y47.804 E46.18206
G1 X174.57 Y47.844 E46.20694
G1 X175.308 Y47.963 E46.23181
G1 X176.03 Y48.161 E46.25671
G1 X176.726 Y48.434 E46.28157
G1 X177.389 Y48.781 E46.30646
G1 X178.012 Y49.196 E46.33136
G1 X178.586 Y49.675 E46.35623
G1 X179.107 Y50.212 E46.38111
G1 X179.566 Y50.802 E46.40597
G1 X179.961 Y51.438 E46.43087
G1 X180.285 Y52.112 E46.45575
G1 X180.535 Y52.817 E46.48063
G1 X180.709 Y53.545 E46.50552
G1 X180.804 Y54.287 E46.5304
G1 X180.823 Y54.804 E46.54761
G1 X180.823 Y65.962 E46.91873
G1 X200.5 Y65.962 E47.57319
G1 X201.247 Y66.002 E47.59807
G1 X201.985 Y66.121 E47.62293
G1 X202.707 Y66.319 E47.64783
G1 X203.403 Y66.592 E47.6727
G1 X204.066 Y66.939 E47.69759
G1 X204.689 Y67.354 E47.72248
G1 X205.263 Y67.833 E47.74735
G1 X205.784 Y68.37 E47.77223
G1 X206.243 Y68.96 E47.7971
G1 X206.638 Y69.596 E47.822
G1 X206.962 Y70.27 E47.84687
G1 X207.212 Y70.975 E47.87175
G1 X207.386 Y71.703 E47.89664
G1 X207.481 Y72.445 E47.92152
G1 X207.5 Y72.962 E47.93873
G1 X207.5 Y89.628 E48.49305
G1 X207.46 Y90.378 E48.51803
G1 X207.481 Y90.545 E48.52362
G1 X207.5 Y91.062 E48.54083
G1 X207.5 Y107.728 E49.09514
G1 X207.46 Y108.478 E49.12013
G1 X207.481 Y108.645 E49.12572
G1 X207.5 Y109.162 E49.14293
G1 X207.5 Y125.828 E49.69724
G1 X207.46 Y126.574 E49.72209
G1 X207.482 Y126.745 E49.72783
G1 X207.501 Y127.262 E49.74503
G1 X207.501 Y143.928 E50.29935
G1 X207.461 Y144.675 E50.32423
G1 X207.342 Y145.413 E50.34909
G1 X207.144 Y146.135 E50.37399
G1 X206.871 Y146.831 E50.39886
G1 X206.524 Y147.494 E50.42375
G1 X206.109 Y148.117 E50.44864
G1 X205.63 Y148.691 E50.47351
G1 X205.093 Y149.212 E50.49839
G1 X204.503 Y149.671 E50.52326
G1 X203.867 Y150.066 E50.54816
G1 X203.193 Y150.39 E50.57303
G1 X202.488 Y150.64 E50.59791
G1 X201.76 Y150.814 E50.62281
G1 X201.018 Y150.909 E50.64769
G1 X200.501 Y150.928 E50.66489
G1 X193.581 Y150.928 E50.89505
G1 X193.629 Y151.028 E50.89874
G1 X193.879 Y151.733 E50.92362
G1 X194.053 Y152.461 E50.94852
G1 X194.148 Y153.203 E50.9734
G1 X194.167 Y153.72 E50.9906
G1 X194.167 Y162.028 E51.26693
G1 X194.127 Y162.775 E51.29181
G1 X194.008 Y163.513 E51.31667
G1 X193.81 Y164.235 E51.34157
G1 X193.537 Y164.931 E51.36644
G1 X193.19 Y165.594 E51.39133
G1 X192.775 Y166.217 E51.41623
G1 X192.296 Y166.791 E51.44109
G1 X191.759 Y167.312 E51.46598
G1 X191.169 Y167.771 E51.49084
G1 X190.533 Y168.166 E51.51574
G1 X189.859 Y168.49 E51.54061
G1 X189.154 Y168.74 E51.56549
G1 X188.426 Y168.914 E51.59039
