;FLAVOR:Marlin
;TIME:18223
;Filament used: 12.7546m
;Layer height: 0.2
;MINX:26.678
;MINY:44.315
;MINZ:0.2
;MAXX:208.314
;MAXY:190.694
;MAXZ:3
;Generated with Cura_SteamEngine 5.0.0
M140 S70
M105
M190 S70
M104 S200
M105
M109 S200
M82 ;absolute extrusion mode
; Ender 3 Custom Start G-code
G28 ; Home all axes
M420 S1; Bed Leveling On
G92 E0 ; Reset Extruder
G1 Z2.0 F3000 ; Move Z Axis up little to prevent scratching of Heat Bed
G1 X0.1 Y20 Z0.3 F5000.0 ; Move to start position
G1 X0.1 Y200.0 Z0.3 F1500.0 E15 ; Draw the first line
G1 X0.4 Y200.0 Z0.3 F5000.0 ; Move to side a little
G1 X0.4 Y20 Z0.3 F1500.0 E30 ; Draw the second line
G92 E0 ; Reset Extruder
G1 Z2.0 F3000 ; Move Z Axis up little to prevent scratching of Heat Bed
G1 X5 Y20 Z0.3 F5000.0 ; Move over to prevent blob squish
G92 E0
G92 E0
G1 F2700 E-5
;LAYER_COUNT:15
;LAYER:0
M107
G0 F6000 X31.039 Y64.041 Z0.2
G0 X26.678 Y71.042
;TYPE:SKIRT
G1 F2700 E0
G1 F1200 X26.718 Y70.253 E0.02628
G1 X26.837 Y69.473 E0.05252
G1 X27.035 Y68.708 E0.0788
G1 X27.309 Y67.968 E0.10505
G1 X27.657 Y67.259 E0.13132
G1 X28.075 Y66.588 E0.15761
G1 X28.558 Y65.964 E0.18385
G1 X29.101 Y65.391 E0.21011
G1 X29.7 Y64.876 E0.23638
G1 X30.348 Y64.425 E0.26264
G1 X31.039 Y64.041 E0.28894
G1 X31.764 Y63.729 E0.31519
G1 X32.517 Y63.492 E0.34144
G1 X33.291 Y63.333 E0.36773
G1 X34.076 Y63.252 E0.39397
G1 X34.478 Y63.242 E0.40735
G1 X53.367 Y63.242 E1.0356
G1 X53.367 Y52.116 E1.40565
G1 X53.407 Y51.327 E1.43193
G1 X53.526 Y50.547 E1.45817
G1 X53.724 Y49.782 E1.48445
G1 X53.998 Y49.042 E1.5107
G1 X54.346 Y48.333 E1.53697
G1 X54.764 Y47.662 E1.56326
G1 X55.247 Y47.038 E1.58951
G1 X55.79 Y46.465 E1.61576
G1 X56.389 Y45.95 E1.64204
G1 X57.037 Y45.499 E1.66829
G1 X57.728 Y45.115 E1.69459
G1 X58.453 Y44.803 E1.72084
G1 X59.206 Y44.566 E1.7471
G1 X59.98 Y44.407 E1.77338
G1 X60.765 Y44.326 E1.79962
G1 X61.167 Y44.316 E1.813
G1 X87.833 Y44.316 E2.69991
G1 X88.622 Y44.356 E2.72619
G1 X88.831 Y44.388 E2.73322
G1 X89.431 Y44.326 E2.75328
G1 X89.833 Y44.316 E2.76666
G1 X143.167 Y44.315 E4.54056
G1 X143.956 Y44.355 E4.56683
G1 X144.736 Y44.474 E4.59307
G1 X145.154 Y44.582 E4.60743
G1 X145.98 Y44.407 E4.63552
G1 X146.765 Y44.326 E4.66176
G1 X147.167 Y44.316 E4.67514
G1 X173.833 Y44.315 E5.56205
G1 X174.621 Y44.355 E5.5883
G1 X175.402 Y44.474 E5.61457
G1 X176.166 Y44.672 E5.64082
G1 X176.907 Y44.946 E5.6671
G1 X177.616 Y45.294 E5.69337
G1 X178.286 Y45.711 E5.71962
G1 X178.911 Y46.194 E5.74589
G1 X179.484 Y46.738 E5.77217
G1 X179.998 Y47.337 E5.79842
G1 X180.45 Y47.985 E5.8247
G1 X180.834 Y48.675 E5.85096
G1 X181.146 Y49.401 E5.87724
G1 X181.382 Y50.154 E5.90349
G1 X181.542 Y50.927 E5.92974
G1 X181.623 Y51.713 E5.95602
G1 X181.633 Y52.115 E5.9694
G1 X181.633 Y63.242 E6.33949
G1 X200.478 Y63.242 E6.96627
G1 X201.267 Y63.282 E6.99255
G1 X202.047 Y63.401 E7.01879
G1 X202.812 Y63.599 E7.04507
G1 X203.552 Y63.873 E7.07132
G1 X204.261 Y64.221 E7.09759
G1 X204.932 Y64.639 E7.12388
G1 X205.556 Y65.122 E7.15013
G1 X206.129 Y65.665 E7.17638
G1 X206.644 Y66.264 E7.20266
G1 X207.095 Y66.912 E7.22892
G1 X207.479 Y67.603 E7.25521
G1 X207.791 Y68.328 E7.28146
G1 X208.028 Y69.081 E7.30772
G1 X208.187 Y69.855 E7.334
G1 X208.268 Y70.64 E7.36025
G1 X208.278 Y71.042 E7.37362
G1 X208.278 Y88.42 E7.95162
G1 X208.245 Y89.069 E7.97323
G1 X208.29 Y89.504 E7.98777
G1 X208.3 Y89.906 E8.00115
G1 X208.3 Y107.284 E8.57914
G1 X208.258 Y108.089 E8.60595
G1 X208.29 Y108.404 E8.61649
G1 X208.3 Y108.806 E8.62986
G1 X208.3 Y126.184 E9.20785
G1 X208.264 Y126.885 E9.2312
G1 X208.304 Y127.269 E9.24404
G1 X208.314 Y127.671 E9.25742
G1 X208.314 Y145.05 E9.83544
G1 X208.274 Y145.839 E9.86172
G1 X208.155 Y146.619 E9.88796
G1 X207.957 Y147.384 E9.91425
G1 X207.683 Y148.124 E9.94049
G1 X207.335 Y148.833 E9.96676
G1 X206.917 Y149.504 E9.99305
G1 X206.434 Y150.128 E10.0193
G1 X205.891 Y150.701 E10.04556
G1 X205.292 Y151.216 E10.07183
G1 X204.644 Y151.667 E10.09809
G1 X203.953 Y152.051 E10.12438
G1 X203.228 Y152.363 E10.15063
G1 X202.475 Y152.6 E10.17689
G1 X201.701 Y152.759 E10.20317
G1 X200.916 Y152.84 E10.22942
G1 X200.514 Y152.85 E10.24279
G1 X194.967 Y152.85 E10.42729
G1 X194.967 Y163.984 E10.7976
G1 X194.927 Y164.773 E10.82388
G1 X194.808 Y165.553 E10.85012
G1 X194.61 Y166.318 E10.87641
G1 X194.336 Y167.058 E10.90265
G1 X193.988 Y167.767 E10.92892
G1 X193.57 Y168.438 E10.95521
G1 X193.087 Y169.062 E10.98146
G1 X192.544 Y169.635 E11.00772
G1 X191.945 Y170.15 E11.03399
G1 X191.297 Y170.601 E11.06025
G1 X190.606 Y170.985 E11.08654
G1 X189.881 Y171.297 E11.11279
G1 X189.128 Y171.534 E11.13905
G1 X188.354 Y171.693 E11.16533
G1 X187.569 Y171.774 E11.19158
G1 X187.167 Y171.784 E11.20495
G1 X167.3 Y171.784 E11.86573
G1 X167.3 Y182.894 E12.23525
G1 X167.26 Y183.683 E12.26153
G1 X167.141 Y184.463 E12.28777
G1 X166.943 Y185.228 E12.31405
G1 X166.669 Y185.968 E12.3403
G1 X166.321 Y186.677 E12.36657
G1 X165.903 Y187.348 E12.39286
G1 X165.42 Y187.972 E12.41911
G1 X164.877 Y188.545 E12.44536
G1 X164.278 Y189.06 E12.47164
G1 X163.63 Y189.511 E12.4979
G1 X162.939 Y189.895 E12.52419
G1 X162.214 Y190.207 E12.55044
G1 X161.461 Y190.444 E12.5767
G1 X160.687 Y190.603 E12.60298
G1 X159.902 Y190.684 E12.62922
G1 X159.5 Y190.694 E12.6426
G1 X75.5 Y190.694 E15.43645
G1 X74.711 Y190.654 E15.46273
G1 X73.931 Y190.535 E15.48897
G1 X73.166 Y190.337 E15.51525
G1 X72.426 Y190.063 E15.5415
G1 X71.717 Y189.715 E15.56777
G1 X71.046 Y189.297 E15.59406
G1 X70.422 Y188.814 E15.62031
G1 X69.849 Y188.271 E15.64656
G1 X69.334 Y187.672 E15.67284
G1 X68.883 Y187.024 E15.69909
G1 X68.499 Y186.333 E15.72539
G1 X68.187 Y185.608 E15.75164
G1 X67.95 Y184.855 E15.7779
G1 X67.791 Y184.081 E15.80418
G1 X67.71 Y183.296 E15.83042
G1 X67.7 Y182.894 E15.8438
G1 X67.7 Y174.407 E16.12608
G1 X67.74 Y173.618 E16.15235
G1 X67.859 Y172.838 E16.1786
G1 X68.057 Y172.073 E16.20488
G1 X68.164 Y171.784 E16.21513
G1 X49.833 Y171.784 E16.82482
G1 X49.044 Y171.744 E16.8511
G1 X48.264 Y171.625 E16.87734
G1 X47.499 Y171.427 E16.90362
G1 X46.759 Y171.153 E16.92987
G1 X46.05 Y170.805 E16.95614
G1 X45.379 Y170.387 E16.98243
G1 X44.755 Y169.904 E17.00868
G1 X44.182 Y169.361 E17.03493
G1 X43.667 Y168.762 E17.06121
G1 X43.216 Y168.114 E17.08746
G1 X42.832 Y167.423 E17.11376
G1 X42.52 Y166.698 E17.14001
G1 X42.283 Y165.945 E17.16627
G1 X42.124 Y165.171 E17.19255
G1 X42.043 Y164.386 E17.21879
G1 X42.033 Y163.984 E17.23217
G1 X42.033 Y160.297 E17.3548
G1 X41.667 Y159.871 E17.37348
G1 X41.216 Y159.223 E17.39974
G1 X40.832 Y158.532 E17.42603
G1 X40.52 Y157.807 E17.45228
G1 X40.283 Y157.054 E17.47854
G1 X40.124 Y156.28 E17.50482
G1 X40.043 Y155.495 E17.53107
G1 X40.033 Y155.093 E17.54444
G1 X40.033 Y152.85 E17.61904
G1 X34.514 Y152.85 E17.80261
G1 X33.725 Y152.81 E17.82888
G1 X32.945 Y152.691 E17.85513
G1 X32.18 Y152.493 E17.88141
G1 X31.44 Y152.219 E17.90765
G1 X30.731 Y151.871 E17.93392
G1 X30.06 Y151.453 E17.96022
G1 X29.436 Y150.97 E17.98646
G1 X28.863 Y150.427 E18.01272
G1 X28.348 Y149.828 E18.03899
G1 X27.897 Y149.18 E18.06525
G1 X27.513 Y148.489 E18.09154
G1 X27.201 Y147.764 E18.1178
G1 X26.964 Y147.011 E18.14405
G1 X26.805 Y146.237 E18.17033
G1 X26.724 Y145.452 E18.19658
G1 X26.714 Y145.05 E18.20996
G1 X26.714 Y127.672 E18.78795
G1 X26.75 Y126.971 E18.8113
G1 X26.71 Y126.587 E18.82414
G1 X26.7 Y126.185 E18.83751
G1 X26.7 Y108.806 E19.41554
G1 X26.742 Y108.001 E19.44235
G1 X26.71 Y107.687 E19.45285
G1 X26.7 Y107.285 E19.46622
G1 X26.7 Y89.906 E20.04425
G1 X26.733 Y89.258 E20.06583
G1 X26.688 Y88.823 E20.08038
G1 X26.678 Y88.421 E20.09375
G1 X26.678 Y71.042 E20.67178
G0 F6000 X27.078 Y71.042
G1 F1200 X27.118 Y70.274 E20.69736
G1 X27.237 Y69.514 E20.72294
G1 X27.435 Y68.771 E20.74852
G1 X27.709 Y68.052 E20.77411
G1 X28.056 Y67.366 E20.79968
G1 X28.472 Y66.719 E20.82526
G1 X28.953 Y66.119 E20.85084
G1 X29.494 Y65.572 E20.87643
G1 X30.089 Y65.084 E20.90202
G1 X30.731 Y64.661 E20.92759
G1 X31.414 Y64.306 E20.9532
G1 X32.129 Y64.025 E20.97875
G1 X32.871 Y63.819 E21.00436
G1 X33.629 Y63.691 E21.02993
G1 X34.478 Y63.642 E21.05821
G1 X53.767 Y63.642 E21.69977
G1 X53.767 Y52.116 E22.08312
G1 X53.807 Y51.348 E22.1087
G1 X53.926 Y50.588 E22.13429
G1 X54.124 Y49.845 E22.15986
G1 X54.398 Y49.126 E22.18545
G1 X54.745 Y48.44 E22.21102
G1 X55.161 Y47.793 E22.23661
G1 X55.642 Y47.193 E22.26218
G1 X56.183 Y46.646 E22.28777
G1 X56.778 Y46.158 E22.31337
G1 X57.42 Y45.735 E22.33894
G1 X58.103 Y45.38 E22.36454
G1 X58.818 Y45.099 E22.39009
G1 X59.56 Y44.893 E22.4157
G1 X60.318 Y44.765 E22.44127
G1 X61.167 Y44.716 E22.46956
G1 X87.833 Y44.716 E23.35647
G1 X88.601 Y44.756 E23.38205
G1 X88.827 Y44.791 E23.38966
G1 X88.984 Y44.765 E23.39495
G1 X89.833 Y44.716 E23.42323
G1 X143.167 Y44.715 E25.19713
G1 X143.935 Y44.755 E25.22271
G1 X144.695 Y44.874 E25.2483
G1 X145.171 Y45.001 E25.26468
G1 X145.56 Y44.893 E25.27811
G1 X146.318 Y44.765 E25.30368
G1 X147.167 Y44.716 E25.33196
G1 X173.833 Y44.715 E26.21888
G1 X174.601 Y44.755 E26.24445
G1 X175.361 Y44.874 E26.27004
G1 X176.104 Y45.072 E26.29561
G1 X176.823 Y45.346 E26.32121
G1 X177.509 Y45.693 E26.34678
G1 X178.156 Y46.109 E26.37236
G1 X178.756 Y46.59 E26.39794
G1 X179.303 Y47.131 E26.42352
G1 X179.791 Y47.726 E26.44912
G1 X180.214 Y48.368 E26.47469
G1 X180.569 Y49.05 E26.50026
G1 X180.85 Y49.766 E26.52585
G1 X181.056 Y50.507 E26.55143
G1 X181.184 Y51.266 E26.57703
G1 X181.233 Y52.115 E26.60531
G1 X181.233 Y63.642 E26.9887
G1 X200.478 Y63.642 E27.62879
G1 X201.246 Y63.682 E27.65437
G1 X202.006 Y63.801 E27.67996
G1 X202.749 Y63.999 E27.70553
G1 X203.468 Y64.273 E27.73112
G1 X204.154 Y64.62 E27.75669
G1 X204.801 Y65.036 E27.78228
G1 X205.401 Y65.517 E27.80785
G1 X205.948 Y66.058 E27.83344
G1 X206.436 Y66.653 E27.85904
G1 X206.859 Y67.295 E27.88461
G1 X207.214 Y67.978 E27.91021
G1 X207.495 Y68.693 E27.93576
G1 X207.701 Y69.435 E27.96137
G1 X207.829 Y70.193 E27.98694
G1 X207.878 Y71.042 E28.01523
G1 X207.878 Y88.42 E28.59322
G1 X207.846 Y89.029 E28.6135
G1 X207.9 Y89.906 E28.64273
G1 X207.9 Y107.284 E29.22072
G1 X207.857 Y108.068 E29.24684
G1 X207.9 Y108.806 E29.27143
G1 X207.9 Y126.184 E29.84942
G1 X207.866 Y126.838 E29.8712
G1 X207.914 Y127.671 E29.89895
G1 X207.914 Y145.05 E30.47698
G1 X207.874 Y145.818 E30.50256
G1 X207.755 Y146.578 E30.52815
G1 X207.557 Y147.321 E30.55372
G1 X207.283 Y148.04 E30.57931
G1 X206.936 Y148.726 E30.60488
G1 X206.52 Y149.373 E30.63047
G1 X206.039 Y149.973 E30.65604
G1 X205.498 Y150.52 E30.68163
G1 X204.903 Y151.008 E30.70723
G1 X204.261 Y151.431 E30.7328
G1 X203.578 Y151.786 E30.7584
G1 X202.863 Y152.067 E30.78395
G1 X202.121 Y152.273 E30.80956
G1 X201.363 Y152.401 E30.83513
G1 X200.514 Y152.45 E30.86342
G1 X194.567 Y152.45 E31.06121
G1 X194.567 Y163.984 E31.44484
G1 X194.527 Y164.752 E31.47041
G1 X194.408 Y165.512 E31.496
G1 X194.21 Y166.255 E31.52157
G1 X193.936 Y166.974 E31.54717
G1 X193.589 Y167.66 E31.57274
G1 X193.173 Y168.307 E31.59832
G1 X192.692 Y168.907 E31.6239
G1 X192.151 Y169.454 E31.64949
G1 X191.556 Y169.942 E31.67508
G1 X190.914 Y170.365 E31.70065
G1 X190.231 Y170.72 E31.72625
G1 X189.516 Y171.001 E31.7518
G1 X188.774 Y171.207 E31.77742
G1 X188.016 Y171.335 E31.80298
G1 X187.167 Y171.384 E31.83127
G1 X166.9 Y171.384 E32.50535
G1 X166.9 Y182.894 E32.88818
G1 X166.86 Y183.662 E32.91376
G1 X166.741 Y184.422 E32.93934
G1 X166.543 Y185.165 E32.96492
G1 X166.269 Y185.884 E32.99051
G1 X165.922 Y186.57 E33.01608
G1 X165.506 Y187.217 E33.04166
G1 X165.025 Y187.817 E33.06724
G1 X164.484 Y188.364 E33.09283
G1 X163.889 Y188.852 E33.11842
G1 X163.247 Y189.275 E33.14399
G1 X162.564 Y189.63 E33.16959
G1 X161.849 Y189.911 E33.19515
G1 X161.107 Y190.117 E33.22076
G1 X160.349 Y190.245 E33.24633
G1 X159.5 Y190.294 E33.27461
G1 X75.5 Y190.294 E36.06846
G1 X74.732 Y190.254 E36.09404
G1 X73.972 Y190.135 E36.11963
G1 X73.229 Y189.937 E36.1452
G1 X72.51 Y189.663 E36.17079
G1 X71.824 Y189.316 E36.19636
G1 X71.177 Y188.9 E36.22195
G1 X70.577 Y188.419 E36.24752
G1 X70.03 Y187.878 E36.27311
G1 X69.542 Y187.283 E36.29871
G1 X69.119 Y186.641 E36.32428
G1 X68.764 Y185.958 E36.34988
G1 X68.483 Y185.243 E36.37543
G1 X68.277 Y184.501 E36.40104
G1 X68.149 Y183.743 E36.42661
G1 X68.1 Y182.894 E36.4549
G1 X68.1 Y174.407 E36.73717
G1 X68.14 Y173.639 E36.76275
G1 X68.259 Y172.879 E36.78834
G1 X68.457 Y172.136 E36.81391
G1 X68.748 Y171.384 E36.84073
G1 X49.833 Y171.384 E37.46985
G1 X49.065 Y171.344 E37.49543
G1 X48.305 Y171.225 E37.52101
G1 X47.562 Y171.027 E37.54659
G1 X46.843 Y170.753 E37.57218
G1 X46.157 Y170.406 E37.59775
G1 X45.51 Y169.99 E37.62333
G1 X44.91 Y169.509 E37.64891
G1 X44.363 Y168.968 E37.6745
G1 X43.875 Y168.373 E37.70009
G1 X43.452 Y167.731 E37.72566
G1 X43.097 Y167.048 E37.75126
G1 X42.816 Y166.333 E37.77682
G1 X42.61 Y165.591 E37.80243
G1 X42.482 Y164.833 E37.828
G1 X42.433 Y163.984 E37.85628
G1 X42.433 Y160.146 E37.98393
G1 X42.363 Y160.077 E37.9872
G1 X41.875 Y159.482 E38.0128
G1 X41.452 Y158.84 E38.03837
G1 X41.097 Y158.157 E38.06397
G1 X40.816 Y157.442 E38.08952
G1 X40.61 Y156.7 E38.11513
G1 X40.482 Y155.942 E38.1407
G1 X40.433 Y155.093 E38.16899
G1 X40.433 Y152.45 E38.25689
G1 X34.514 Y152.45 E38.45376
G1 X33.746 Y152.41 E38.47934
G1 X32.986 Y152.291 E38.50493
G1 X32.243 Y152.093 E38.5305
G1 X31.524 Y151.819 E38.55609
G1 X30.838 Y151.472 E38.58166
G1 X30.191 Y151.056 E38.60724
G1 X29.591 Y150.575 E38.63282
G1 X29.044 Y150.034 E38.65841
G1 X28.556 Y149.439 E38.684
G1 X28.133 Y148.797 E38.70958
G1 X27.778 Y148.114 E38.73518
G1 X27.497 Y147.399 E38.76073
G1 X27.291 Y146.657 E38.78634
G1 X27.163 Y145.899 E38.81191
G1 X27.114 Y145.05 E38.84019
G1 X27.114 Y127.672 E39.41819
G1 X27.148 Y127.018 E39.43997
G1 X27.1 Y126.185 E39.46772
G1 X27.1 Y108.806 E40.04575
G1 X27.143 Y108.022 E40.07187
G1 X27.1 Y107.285 E40.09642
G1 X27.1 Y89.906 E40.67445
G1 X27.132 Y89.298 E40.6947
G1 X27.078 Y88.421 E40.72392
G1 X27.078 Y71.042 E41.30195
G0 F6000 X27.478 Y71.042
G1 F1200 X27.518 Y70.295 E41.32683
G1 X27.637 Y69.557 E41.35169
G1 X27.835 Y68.835 E41.37659
G1 X28.108 Y68.139 E41.40146
G1 X28.455 Y67.476 E41.42635
G1 X28.87 Y66.853 E41.45125
G1 X29.349 Y66.279 E41.47611
G1 X29.886 Y65.758 E41.501
G1 X30.476 Y65.299 E41.52586
G1 X31.112 Y64.904 E41.55076
G1 X31.786 Y64.58 E41.57564
G1 X32.491 Y64.33 E41.60051
G1 X33.219 Y64.156 E41.62541
G1 X33.961 Y64.061 E41.65029
G1 X34.478 Y64.042 E41.6675
G1 X54.167 Y64.042 E42.32236
G1 X54.167 Y52.116 E42.71902
G1 X54.207 Y51.369 E42.7439
G1 X54.326 Y50.631 E42.76876
G1 X54.524 Y49.909 E42.79366
G1 X54.797 Y49.213 E42.81853
G1 X55.144 Y48.55 E42.84342
G1 X55.559 Y47.927 E42.86831
G1 X56.038 Y47.353 E42.89318
G1 X56.575 Y46.832 E42.91806
G1 X57.165 Y46.373 E42.94293
G1 X57.801 Y45.978 E42.96783
G1 X58.475 Y45.654 E42.9927
G1 X59.18 Y45.404 E43.01758
G1 X59.908 Y45.23 E43.04248
G1 X60.65 Y45.135 E43.06736
G1 X61.167 Y45.116 E43.08456
G1 X87.833 Y45.116 E43.97148
G1 X88.58 Y45.156 E43.99636
G1 X88.833 Y45.197 E44.00488
G1 X89.316 Y45.135 E44.02108
G1 X89.833 Y45.116 E44.03829
G1 X143.167 Y45.115 E45.81218
G1 X143.914 Y45.155 E45.83706
G1 X144.652 Y45.274 E45.86193
G1 X145.156 Y45.412 E45.87931
G1 X145.908 Y45.23 E45.90504
G1 X146.65 Y45.135 E45.92992
G1 X147.167 Y45.116 E45.94713
G1 X173.833 Y45.115 E46.83404
G1 X174.58 Y45.155 E46.85892
G1 X175.318 Y45.274 E46.88379
G1 X176.04 Y45.472 E46.90869
G1 X176.736 Y45.745 E46.93355
G1 X177.399 Y46.092 E46.95844
G1 X178.022 Y46.506 E46.98332
G1 X178.596 Y46.985 E47.00819
G1 X179.116 Y47.523 E47.03307
G1 X179.576 Y48.113 E47.05796
G1 X179.97 Y48.749 E47.08284
G1 X180.295 Y49.423 E47.10773
G1 X180.545 Y50.128 E47.13261
G1 X180.719 Y50.856 E47.1575
G1 X180.814 Y51.598 E47.18238
G1 X180.833 Y52.115 E47.19959
G1 X180.833 Y64.042 E47.59628
G1 X200.478 Y64.042 E48.24968
G1 X201.225 Y64.082 E48.27456
G1 X201.963 Y64.201 E48.29942
G1 X202.685 Y64.399 E48.32432
G1 X203.381 Y64.672 E48.34919
G1 X204.044 Y65.019 E48.37408
G1 X204.667 Y65.434 E48.39898
G1 X205.241 Y65.913 E48.42384
G1 X205.762 Y66.45 E48.44873
G1 X206.221 Y67.04 E48.47359
G1 X206.616 Y67.676 E48.49849
G1 X206.94 Y68.35 E48.52336
G1 X207.19 Y69.055 E48.54824
G1 X207.364 Y69.783 E48.57314
G1 X207.459 Y70.525 E48.59802
