;FLAVOR:Marlin
;TIME:7063
;Filament used: 4.40966m
;Layer height: 0.2
;MINX:40.326
;MINY:46.456
;MINZ:0.2
;MAXX:186.222
;MAXY:192.631
;MAXZ:2
;Generated with Cura_SteamEngine 5.0.0
M140 S70
M105
M190 S70
M104 S200
M105
M109 S200
M82 ;absolute extrusion mode
; Ender 3 Custom Start G-code
G28 ; Home all axes
M420 S1; Bed Leveling On
G92 E0 ; Reset Extruder
G1 Z2.0 F3000 ; Move Z Axis up little to prevent scratching of Heat Bed
G1 X0.1 Y20 Z0.3 F5000.0 ; Move to start position
G1 X0.1 Y200.0 Z0.3 F1500.0 E15 ; Draw the first line
G1 X0.4 Y200.0 Z0.3 F5000.0 ; Move to side a little
G1 X0.4 Y20 Z0.3 F1500.0 E30 ; Draw the second line
G92 E0 ; Reset Extruder
G1 Z2.0 F3000 ; Move Z Axis up little to prevent scratching of Heat Bed
G1 X5 Y20 Z0.3 F5000.0 ; Move over to prevent blob squish
G92 E0
G92 E0
G1 F2700 E-5
;LAYER_COUNT:10
;LAYER:0
M107
G0 F6000 X60.809 Y58.391 Z0.2
G0 X58.461 Y64.597
;TYPE:SKIRT
G1 F2700 E0
G1 F1200 X58.509 Y63.582 E0.0338
G1 X58.538 Y63.325 E0.0424
G1 X58.666 Y62.546 E0.06866
G1 X58.787 Y62.065 E0.08515
G1 X58.857 Y61.819 E0.09366
G1 X59.111 Y61.072 E0.1199
G1 X59.44 Y60.354 E0.14617
G1 X59.712 Y59.873 E0.16455
G1 X59.852 Y59.645 E0.17345
G1 X60.299 Y58.993 E0.19974
G1 X60.809 Y58.391 E0.22598
G1 X61.378 Y57.843 E0.25226
G1 X62.13 Y57.265 E0.2838
G1 X62.34 Y57.123 E0.29223
G1 X63.016 Y56.714 E0.31851
G1 X63.729 Y56.376 E0.34476
G1 X64.473 Y56.111 E0.37103
G1 X65.412 Y55.893 E0.40309
G1 X65.667 Y55.85 E0.41169
G1 X66.451 Y55.758 E0.43794
G1 X67.241 Y55.746 E0.46422
G1 X67.858 Y55.792 E0.4848
G1 X68.267 Y55.847 E0.49853
G1 X68.285 Y55.556 E0.50822
G1 X68.345 Y55.056 E0.52497
G1 X68.574 Y53.897 E0.56427
G1 X68.694 Y53.465 E0.57918
G1 X68.943 Y52.716 E0.60543
G1 X69.214 Y52.102 E0.62775
G1 X69.4 Y51.725 E0.64174
G1 X69.785 Y51.035 E0.66802
G1 X70.3 Y50.308 E0.69765
G1 X70.546 Y50 E0.71076
G1 X71.07 Y49.409 E0.73703
G1 X71.773 Y48.773 E0.76856
G1 X72.081 Y48.527 E0.78167
G1 X72.722 Y48.066 E0.80793
G1 X73.498 Y47.627 E0.83759
G1 X73.875 Y47.441 E0.85157
G1 X74.6 Y47.128 E0.87783
G1 X75.238 Y46.921 E0.90014
G1 X75.67 Y46.801 E0.91505
G1 X76.829 Y46.572 E0.95435
G1 X77.329 Y46.512 E0.9711
G1 X78.258 Y46.456 E1.00205
G1 X78.813 Y46.456 E1.02051
G1 X79.568 Y46.493 E1.04565
G1 X80.185 Y46.553 E1.06627
G1 X80.74 Y46.627 E1.08489
G1 X81.415 Y46.742 E1.10767
G1 X81.916 Y46.844 E1.12467
G1 X82.645 Y47.018 E1.1496
G1 X83.01 Y47.115 E1.16216
G1 X84.101 Y47.439 E1.20002
G1 X85.192 Y47.81 E1.23834
G1 X86.283 Y48.221 E1.27712
G1 X87.416 Y48.685 E1.31784
G1 X88.569 Y49.192 E1.35973
G1 X89.739 Y49.738 E1.40268
G1 X90.953 Y50.332 E1.44763
G1 X92.091 Y50.913 E1.49013
G1 X92.775 Y51.307 E1.51638
G1 X93.103 Y51.531 E1.52959
G1 X96.645 Y54.083 E1.67479
G1 X99.971 Y56.514 E1.81181
G1 X103.741 Y59.314 E1.968
G1 X107.252 Y61.965 E2.11433
G1 X111.168 Y64.977 E2.27865
G1 X114.797 Y67.821 E2.432
G1 X118.802 Y71.027 E2.60263
G1 X122.759 Y74.272 E2.77283
G1 X126.288 Y77.224 E2.92586
G1 X129.88 Y80.299 E3.08313
G1 X133.365 Y83.355 E3.23729
G1 X136.745 Y86.388 E3.38834
G1 X140.027 Y89.405 E3.53661
G1 X143.198 Y92.397 E3.68162
G1 X146.271 Y95.369 E3.82381
G1 X149.238 Y98.32 E3.96299
G1 X152.103 Y101.249 E4.09926
G1 X154.862 Y104.152 E4.23247
G1 X157.523 Y107.035 E4.36296
G1 X160.078 Y109.893 E4.49046
G1 X162.531 Y112.727 E4.61513
G1 X164.883 Y115.538 E4.73703
G1 X167.133 Y118.324 E4.85614
G1 X169.284 Y121.088 E4.97263
G1 X171.33 Y123.825 E5.08629
G1 X173.315 Y126.591 E5.19952
G1 X175.237 Y129.392 E5.31251
G1 X177.089 Y132.231 E5.42525
G1 X178.847 Y135.084 E5.53671
G1 X180.437 Y137.829 E5.64222
G1 X182.002 Y140.733 E5.75194
G1 X183.317 Y143.381 E5.85027
G1 X183.632 Y144.105 E5.87653
G1 X183.872 Y144.857 E5.90279
G1 X184.035 Y145.63 E5.92906
G1 X184.119 Y146.415 E5.95532
G1 X184.123 Y147.205 E5.9816
G1 X184.047 Y147.991 E6.00786
G1 X183.892 Y148.765 E6.03411
G1 X183.66 Y149.52 E6.06039
G1 X183.352 Y150.247 E6.08665
G1 X183.284 Y150.371 E6.09135
G1 X183.972 Y152.097 E6.15315
G1 X184.765 Y154.265 E6.22993
G1 X185.153 Y155.437 E6.27099
G1 X185.498 Y156.594 E6.31115
G1 X185.703 Y157.369 E6.33781
G1 X185.794 Y157.753 E6.35094
G1 X185.957 Y158.525 E6.37718
G1 X186.054 Y159.09 E6.39625
G1 X186.142 Y159.74 E6.41806
G1 X186.211 Y160.632 E6.44782
G1 X186.222 Y161.189 E6.46635
G1 X186.172 Y162.244 E6.50148
G1 X186.142 Y162.502 E6.51012
G1 X186.011 Y163.281 E6.53639
G1 X185.826 Y163.982 E6.5605
G1 X185.572 Y164.729 E6.58675
G1 X185.243 Y165.447 E6.61301
G1 X184.976 Y165.92 E6.63108
G1 X184.837 Y166.147 E6.63993
G1 X184.391 Y166.799 E6.66621
G1 X183.881 Y167.402 E6.69247
G1 X183.314 Y167.951 E6.71872
G1 X182.561 Y168.531 E6.75034
G1 X182.35 Y168.674 E6.75881
G1 X181.675 Y169.083 E6.78506
G1 X180.961 Y169.422 E6.81135
G1 X180.218 Y169.687 E6.83759
G1 X179.266 Y169.909 E6.8701
G1 X179.01 Y169.952 E6.87874
G1 X178.226 Y170.043 E6.90499
G1 X177.436 Y170.055 E6.93127
G1 X176.791 Y170.005 E6.95278
G1 X176.416 Y169.954 E6.96537
G1 X176.398 Y170.245 E6.97507
G1 X176.338 Y170.745 E6.99182
G1 X176.205 Y171.524 E7.0181
G1 X175.988 Y172.339 E7.04615
G1 X175.738 Y173.088 E7.07242
G1 X175.473 Y173.691 E7.09432
G1 X175.288 Y174.067 E7.10826
G1 X174.904 Y174.757 E7.13453
G1 X174.389 Y175.484 E7.16416
G1 X174.142 Y175.794 E7.17734
G1 X173.62 Y176.386 E7.20359
G1 X172.898 Y177.037 E7.23593
G1 X172.59 Y177.282 E7.24902
G1 X171.948 Y177.742 E7.27528
G1 X171.178 Y178.177 E7.3047
G1 X170.8 Y178.363 E7.31871
G1 X170.074 Y178.675 E7.34499
G1 X169.464 Y178.874 E7.36633
G1 X169.033 Y178.995 E7.38122
G1 X168.263 Y179.169 E7.40748
G1 X167.854 Y179.229 E7.42123
G1 X167.354 Y179.289 E7.43798
G1 X166.411 Y179.345 E7.4694
G1 X165.856 Y179.344 E7.48786
G1 X165.128 Y179.309 E7.5121
G1 X164.511 Y179.25 E7.53271
G1 X163.932 Y179.172 E7.55215
G1 X163.257 Y179.056 E7.57492
G1 X162.767 Y178.956 E7.59156
G1 X162.323 Y178.85 E7.60674
G1 X162.652 Y179.423 E7.62872
G1 X163.092 Y180.327 E7.66216
G1 X163.281 Y180.789 E7.67876
G1 X163.543 Y181.534 E7.70503
G1 X163.716 Y182.222 E7.72862
G1 X163.855 Y183 E7.75491
G1 X163.905 Y183.571 E7.77397
G1 X163.917 Y183.802 E7.78166
G1 X163.918 Y184.592 E7.80794
G1 X163.84 Y185.378 E7.83421
G1 X163.687 Y186.129 E7.8597
G1 X163.628 Y186.361 E7.86766
G1 X163.395 Y187.116 E7.89394
G1 X163.087 Y187.843 E7.9202
G1 X162.707 Y188.535 E7.94646
G1 X162.222 Y189.232 E7.9747
G1 X162.081 Y189.413 E7.98234
G1 X161.565 Y190.011 E8.00861
G1 X160.991 Y190.553 E8.03486
G1 X160.365 Y191.035 E8.06114
G1 X159.822 Y191.383 E8.08259
G1 X159.129 Y191.762 E8.10886
G1 X158.402 Y192.07 E8.13512
G1 X157.943 Y192.222 E8.15121
G1 X157.703 Y192.293 E8.15953
G1 X156.935 Y192.478 E8.1858
G1 X156.081 Y192.591 E8.21446
G1 X155.568 Y192.63 E8.23157
G1 X154.408 Y192.631 E8.27015
G1 X153.847 Y192.59 E8.28886
G1 X152.932 Y192.469 E8.31956
G1 X151.678 Y192.226 E8.36204
G1 X151.063 Y192.08 E8.38306
G1 X149.803 Y191.728 E8.42658
G1 X149.455 Y191.622 E8.43868
G1 X147.834 Y191.082 E8.4955
G1 X145.974 Y190.396 E8.56144
G1 X144.252 Y189.703 E8.62318
G1 X143.617 Y189.995 E8.64643
G1 X142.87 Y190.251 E8.67269
G1 X142.101 Y190.43 E8.69895
G1 X141.317 Y190.53 E8.72524
G1 X140.528 Y190.551 E8.75149
G1 X139.74 Y190.491 E8.77777
G1 X138.963 Y190.353 E8.80402
G1 X138.204 Y190.136 E8.83028
G1 X137.255 Y189.741 E8.86447
G1 X134.374 Y188.307 E8.9715
G1 X131.338 Y186.657 E9.08643
G1 X128.411 Y184.945 E9.19921
G1 X125.462 Y183.106 E9.3148
G1 X122.514 Y181.158 E9.43233
G1 X119.555 Y179.101 E9.55219
G1 X116.595 Y176.942 E9.67404
G1 X113.626 Y174.68 E9.79819
G1 X110.657 Y172.321 E9.92431
G1 X107.676 Y169.862 E10.05284
G1 X104.694 Y167.309 E10.18341
G1 X101.711 Y164.665 E10.31598
G1 X98.726 Y161.933 E10.45057
G1 X95.736 Y159.112 E10.5873
G1 X92.829 Y156.286 E10.72214
G1 X89.769 Y153.226 E10.86607
G1 X86.786 Y150.162 E11.0083
G1 X83.814 Y147.027 E11.15198
G1 X80.843 Y143.815 E11.29751
G1 X77.881 Y140.534 E11.44452
G1 X74.926 Y137.182 E11.59315
G1 X71.822 Y133.576 E11.7514
G1 X66.245 Y126.887 E12.04106
G1 X60.689 Y119.95 E12.33666
G1 X55.318 Y112.994 E12.62896
G1 X50.155 Y106.084 E12.91586
G1 X47.658 Y102.664 E13.0567
G1 X45.396 Y99.521 E13.18549
G1 X44.968 Y98.858 E13.21174
G1 X44.778 Y98.507 E13.22502
G1 X44.138 Y97.25 E13.27193
G1 X43.543 Y96.026 E13.3172
G1 X42.989 Y94.83 E13.36104
G1 X42.479 Y93.66 E13.40349
G1 X42.01 Y92.501 E13.44507
G1 X41.585 Y91.351 E13.48585
G1 X41.213 Y90.219 E13.52548
G1 X40.985 Y89.435 E13.55264
G1 X40.887 Y89.063 E13.56543
G1 X40.713 Y88.332 E13.59043
G1 X40.614 Y87.851 E13.60676
G1 X40.498 Y87.178 E13.62947
G1 X40.421 Y86.598 E13.64893
G1 X40.362 Y85.983 E13.66948
G1 X40.326 Y85.238 E13.69429
G1 X40.326 Y84.681 E13.71282
G1 X40.382 Y83.752 E13.74377
G1 X40.442 Y83.252 E13.76052
G1 X40.671 Y82.093 E13.79981
G1 X40.791 Y81.661 E13.81473
G1 X41.04 Y80.912 E13.84098
G1 X41.311 Y80.298 E13.8633
G1 X41.497 Y79.921 E13.87728
G1 X41.882 Y79.231 E13.90356
G1 X42.397 Y78.504 E13.9332
G1 X42.643 Y78.196 E13.94631
G1 X43.167 Y77.605 E13.97258
G1 X43.87 Y76.969 E14.00411
G1 X44.178 Y76.723 E14.01722
G1 X44.819 Y76.262 E14.04348
G1 X45.595 Y75.823 E14.07313
G1 X45.972 Y75.637 E14.08711
G1 X46.697 Y75.324 E14.11338
G1 X47.335 Y75.117 E14.13569
G1 X47.767 Y74.997 E14.1506
G1 X48.926 Y74.768 E14.18989
G1 X49.426 Y74.708 E14.20664
G1 X50.355 Y74.652 E14.2376
G1 X50.91 Y74.652 E14.25606
G1 X51.665 Y74.689 E14.2812
G1 X52.282 Y74.749 E14.30182
G1 X52.837 Y74.823 E14.32044
G1 X53.512 Y74.938 E14.34321
G1 X54.013 Y75.04 E14.36022
G1 X54.742 Y75.214 E14.38515
G1 X55.109 Y75.311 E14.39777
G1 X56.195 Y75.634 E14.43546
G1 X57.289 Y76.006 E14.47389
G1 X58.38 Y76.417 E14.51267
G1 X59.522 Y76.885 E14.55371
G1 X60.715 Y77.413 E14.59711
G1 X60.79 Y77.037 E14.60986
G1 X61.023 Y76.282 E14.63614
G1 X61.33 Y75.555 E14.66239
G1 X61.399 Y75.429 E14.66716
G1 X60.711 Y73.704 E14.72893
G1 X59.915 Y71.527 E14.80603
G1 X59.531 Y70.365 E14.84673
G1 X59.186 Y69.204 E14.88702
G1 X58.981 Y68.428 E14.91371
G1 X58.892 Y68.055 E14.92647
G1 X58.728 Y67.282 E14.95275
G1 X58.629 Y66.711 E14.97202
G1 X58.541 Y66.062 E14.99381
G1 X58.471 Y65.154 E15.0241
G1 X58.461 Y64.597 E15.04263
G0 F6000 X58.861 Y64.59
G1 F1200 X58.907 Y63.627 E15.07469
G1 X58.936 Y63.37 E15.08329
G1 X59.062 Y62.611 E15.10888
G1 X59.242 Y61.929 E15.13234
G1 X59.49 Y61.201 E15.15792
G1 X59.813 Y60.503 E15.1835
G1 X60.053 Y60.082 E15.19962
G1 X60.193 Y59.854 E15.20852
G1 X60.629 Y59.22 E15.23411
G1 X61.128 Y58.635 E15.25969
G1 X61.686 Y58.105 E15.28528
G1 X62.354 Y57.596 E15.31322
G1 X62.564 Y57.454 E15.32165
G1 X63.223 Y57.057 E15.34724
G1 X63.919 Y56.73 E15.37281
G1 X64.645 Y56.478 E15.39837
G1 X65.479 Y56.287 E15.42683
G1 X65.734 Y56.244 E15.43543
G1 X66.498 Y56.156 E15.46101
G1 X67.267 Y56.147 E15.48659
G1 X67.812 Y56.19 E15.50477
G1 X68.072 Y56.22 E15.51348
G1 X68.639 Y56.316 E15.5326
G1 X68.682 Y55.603 E15.55636
G1 X68.742 Y55.103 E15.57311
G1 X68.959 Y54.004 E15.61037
G1 X69.079 Y53.572 E15.62528
G1 X69.323 Y52.843 E15.65085
G1 X69.573 Y52.279 E15.67137
G1 X69.759 Y51.902 E15.68535
G1 X70.134 Y51.231 E15.71092
G1 X70.613 Y50.558 E15.73839
G1 X70.859 Y50.25 E15.7515
G1 X71.37 Y49.675 E15.77709
G1 X72.023 Y49.086 E15.80634
G1 X72.331 Y48.84 E15.81945
G1 X72.956 Y48.392 E15.84502
G1 X73.675 Y47.986 E15.87249
G1 X74.052 Y47.8 E15.88647
G1 X74.758 Y47.496 E15.91204
G1 X75.345 Y47.306 E15.93256
G1 X75.777 Y47.186 E15.94747
G1 X76.876 Y46.969 E15.98473
G1 X77.376 Y46.909 E16.00148
G1 X78.258 Y46.856 E16.03087
G1 X78.813 Y46.856 E16.04933
G1 X79.529 Y46.891 E16.07317
G1 X80.146 Y46.951 E16.09379
G1 X80.673 Y47.021 E16.11147
G1 X81.348 Y47.136 E16.13424
G1 X81.823 Y47.233 E16.15037
G1 X82.552 Y47.407 E16.17529
G1 X82.898 Y47.499 E16.1872
G1 X83.974 Y47.818 E16.22453
G1 X85.052 Y48.184 E16.26239
G1 X86.132 Y48.592 E16.30079
G1 X87.256 Y49.052 E16.34119
G1 X88.4 Y49.555 E16.38275
G1 X89.564 Y50.098 E16.42547
G1 X90.771 Y50.688 E16.47016
G1 X91.909 Y51.269 E16.51265
G1 X92.869 Y51.856 E16.55008
G1 X96.409 Y54.406 E16.69519
G1 X99.732 Y56.836 E16.83211
G1 X103.5 Y59.633 E16.98819
G1 X107.008 Y62.282 E17.13439
G1 X110.922 Y65.292 E17.29862
G1 X114.547 Y68.133 E17.4518
G1 X118.549 Y71.337 E17.62231
G1 X122.503 Y74.579 E17.79238
G1 X126.028 Y77.528 E17.94524
G1 X129.617 Y80.6 E18.10237
G1 X133.098 Y83.652 E18.25634
G1 X136.474 Y86.682 E18.40722
G1 X139.753 Y89.696 E18.55535
G1 X142.92 Y92.684 E18.70017
G1 X145.989 Y95.653 E18.8422
G1 X148.952 Y98.599 E18.98117
G1 X151.813 Y101.524 E19.11725
G1 X154.568 Y104.423 E19.25027
G1 X157.225 Y107.302 E19.38057
G1 X159.775 Y110.155 E19.50784
G1 X162.224 Y112.984 E19.63229
G1 X164.572 Y115.789 E19.75396
G1 X166.817 Y118.569 E19.87281
G1 X168.963 Y121.327 E19.98904
G1 X171.005 Y124.058 E20.10245
G1 X172.985 Y126.818 E20.21543
G1 X174.902 Y129.611 E20.3281
G1 X176.749 Y132.441 E20.4405
G1 X178.501 Y135.285 E20.5516
G1 X180.085 Y138.019 E20.65669
G1 X181.644 Y140.911 E20.76597
G1 X182.959 Y143.559 E20.8643
G1 X183.265 Y144.264 E20.88987
G1 X183.496 Y144.998 E20.91546
G1 X183.649 Y145.752 E20.94105
G1 X183.724 Y146.517 E20.96661
G1 X183.718 Y147.286 E20.99219
G1 X183.633 Y148.051 E21.01779
G1 X183.469 Y148.802 E21.04336
G1 X183.228 Y149.533 E21.06896
G1 X182.912 Y150.234 E21.09454
G1 X182.844 Y150.351 E21.09904
G1 X183.597 Y152.235 E21.16652
G1 X184.386 Y154.392 E21.24291
G1 X184.77 Y155.553 E21.28358
G1 X185.111 Y156.697 E21.32329
G1 X185.316 Y157.472 E21.34995
G1 X185.402 Y157.835 E21.36236
G1 X185.565 Y158.607 E21.3886
G1 X185.658 Y159.143 E21.40669
G1 X185.746 Y159.793 E21.42851
G1 X185.812 Y160.64 E21.45677
G1 X185.823 Y161.197 E21.4753
G1 X185.774 Y162.198 E21.50863
G1 X185.744 Y162.456 E21.51727
G1 X185.616 Y163.214 E21.54284
G1 X185.441 Y163.872 E21.56548
G1 X185.193 Y164.6 E21.59106
G1 X184.87 Y165.298 E21.61664
G1 X184.635 Y165.711 E21.63245
G1 X184.496 Y165.938 E21.6413
G1 X184.061 Y166.573 E21.6669
G1 X183.562 Y167.158 E21.69247
G1 X183.005 Y167.689 E21.71807
G1 X182.337 Y168.2 E21.74604
G1 X182.126 Y168.343 E21.75452
G1 X181.467 Y168.741 E21.78013
G1 X180.771 Y169.068 E21.8057
G1 X180.045 Y169.321 E21.83127
G1 X179.2 Y169.515 E21.86011
G1 X178.944 Y169.558 E21.86874
G1 X178.18 Y169.646 E21.89432
G1 X177.411 Y169.654 E21.9199
G1 X176.839 Y169.608 E21.93899
G1 X176.58 Y169.577 E21.94766
G1 X176.044 Y169.484 E21.96576
G1 X176.001 Y170.198 E21.98955
G1 X175.941 Y170.698 E22.0063
G1 X175.723 Y171.801 E22.04369
G1 X175.603 Y172.232 E22.05857
G1 X175.358 Y172.961 E22.08415
G1 X175.114 Y173.514 E22.10426
G1 X174.929 Y173.89 E22.11819
G1 X174.554 Y174.561 E22.14376
G1 X174.077 Y175.234 E22.1712
G1 X173.83 Y175.544 E22.18438
G1 X173.32 Y176.12 E22.20997
G1 X172.649 Y176.724 E22.24
G1 X172.341 Y176.969 E22.25308
G1 X171.715 Y177.416 E22.27867
G1 X171.001 Y177.818 E22.30592
G1 X170.623 Y178.004 E22.31993
G1 X169.916 Y178.307 E22.34552
G1 X169.356 Y178.489 E22.3651
G1 X168.925 Y178.61 E22.37999
G1 X167.807 Y178.832 E22.4179
G1 X167.307 Y178.892 E22.43465
G1 X166.412 Y178.945 E22.46447
G1 X165.857 Y178.944 E22.48293
G1 X165.166 Y178.91 E22.50594
G1 X164.549 Y178.851 E22.52656
G1 X164 Y178.778 E22.54498
G1 X163.325 Y178.662 E22.56776
G1 X162.86 Y178.567 E22.58354
G1 X162.131 Y178.393 E22.60847
G1 X161.419 Y178.195 E22.63305
G1 X161.663 Y178.549 E22.64735
G1 X162.004 Y179.091 E22.66865
G1 X162.305 Y179.62 E22.68889
G1 X162.722 Y180.478 E22.72062
G1 X162.911 Y180.94 E22.73722
G1 X163.165 Y181.666 E22.7628
G1 X163.326 Y182.312 E22.78495
G1 X163.46 Y183.069 E22.81052
G1 X163.506 Y183.592 E22.82798
G1 X163.518 Y183.823 E22.83567
G1 X163.518 Y184.592 E22.86125
G1 X163.438 Y185.357 E22.88683
G1 X163.3 Y186.031 E22.90972
G1 X163.241 Y186.263 E22.91768
G1 X163.013 Y186.997 E22.94324
G1 X162.71 Y187.704 E22.96882
G1 X162.335 Y188.376 E22.99442
G1 X161.907 Y188.987 E23.01923
G1 X161.766 Y189.168 E23.02686
G1 X161.262 Y189.749 E23.05244
G1 X160.701 Y190.275 E23.07802
G1 X159.81 Y190.92 E23.11461
G1 X159.612 Y191.042 E23.12234
G1 X158.937 Y191.411 E23.14793
G1 X158.227 Y191.708 E23.17353
G1 X157.589 Y191.909 E23.19577
G1 X156.841 Y192.089 E23.22136
G1 X156.051 Y192.192 E23.24786
G1 X155.538 Y192.231 E23.26497
G1 X154.438 Y192.232 E23.30156
G1 X153.877 Y192.191 E23.32027
G1 X153.008 Y192.076 E23.34942
G1 X151.754 Y191.833 E23.39191
