;FLAVOR:Marlin
;TIME:8876
;Filament used: 6.22375m
;Layer height: 0.2
;MINX:36.087
;MINY:33.664
;MINZ:0.2
;MAXX:198.911
;MAXY:201.346
;MAXZ:5.4
;Generated with Cura_SteamEngine 5.0.0
M140 S70
M105
M190 S70
M104 S200
M105
M109 S200
M82 ;absolute extrusion mode
; Ender 3 Custom Start G-code
G28 ; Home all axes
M420 S1; Bed Leveling On
G92 E0 ; Reset Extruder
G1 Z2.0 F3000 ; Move Z Axis up little to prevent scratching of Heat Bed
G1 X0.1 Y20 Z0.3 F5000.0 ; Move to start position
G1 X0.1 Y200.0 Z0.3 F1500.0 E15 ; Draw the first line
G1 X0.4 Y200.0 Z0.3 F5000.0 ; Move to side a little
G1 X0.4 Y20 Z0.3 F1500.0 E30 ; Draw the second line
G92 E0 ; Reset Extruder
G1 Z2.0 F3000 ; Move Z Axis up little to prevent scratching of Heat Bed
G1 X5 Y20 Z0.3 F5000.0 ; Move over to prevent blob squish
G92 E0
G92 E0
G1 F2700 E-5
;LAYER_COUNT:27
;LAYER:0
M107
G0 F6000 X96.481 Y94.957 Z0.2
;TYPE:SKIRT
G1 F2700 E0
G1 F1200 X97.066 Y94.427 E0.02625
G1 X97.238 Y94.301 E0.03335
G1 X97.617 Y93.835 E0.05332
G1 X97.895 Y93.543 E0.06673
G1 X141.736 Y49.702 E2.12888
G1 X142.322 Y49.172 E2.15516
G1 X142.958 Y48.705 E2.1814
G1 X143.638 Y48.304 E2.20766
G1 X144.356 Y47.974 E2.23394
G1 X145.103 Y47.719 E2.2602
G1 X145.872 Y47.54 E2.28646
G1 X146.656 Y47.44 E2.31274
G1 X147.445 Y47.419 E2.339
G1 X148.232 Y47.479 E2.36525
G1 X149.01 Y47.618 E2.39153
G1 X149.769 Y47.835 E2.41779
G1 X150.503 Y48.127 E2.44406
G1 X151.203 Y48.492 E2.47032
G1 X151.863 Y48.926 E2.49659
G1 X152.475 Y49.425 E2.52286
G1 X152.767 Y49.702 E2.53624
G1 X157.448 Y54.384 E2.75645
G1 X157.651 Y54.609 E2.76653
G1 X176.312 Y35.947 E3.64431
G1 X176.897 Y35.417 E3.67056
G1 X177.534 Y34.95 E3.69683
G1 X178.214 Y34.549 E3.72309
G1 X178.932 Y34.219 E3.74937
G1 X179.679 Y33.964 E3.77562
G1 X180.448 Y33.785 E3.80188
G1 X181.232 Y33.685 E3.82817
G1 X182.021 Y33.664 E3.85442
G1 X182.808 Y33.724 E3.88067
G1 X183.586 Y33.863 E3.90696
G1 X184.345 Y34.08 E3.93322
G1 X185.079 Y34.372 E3.95949
G1 X185.779 Y34.737 E3.98575
G1 X186.439 Y35.171 E4.01202
G1 X187.051 Y35.67 E4.03828
G1 X187.342 Y35.947 E4.05165
G1 X192.024 Y40.629 E4.27187
G1 X192.241 Y40.869 E4.28263
G1 X192.59 Y41.193 E4.29847
G1 X196.628 Y45.23 E4.48838
G1 X197.157 Y45.816 E4.51464
G1 X197.625 Y46.452 E4.54091
G1 X198.026 Y47.133 E4.56719
G1 X198.355 Y47.85 E4.59343
G1 X198.611 Y48.597 E4.61969
G1 X198.79 Y49.366 E4.64595
G1 X198.89 Y50.15 E4.67224
G1 X198.911 Y50.939 E4.69849
G1 X198.851 Y51.727 E4.72478
G1 X198.712 Y52.504 E4.75103
G1 X198.496 Y53.263 E4.77728
G1 X198.203 Y53.997 E4.80356
G1 X197.838 Y54.697 E4.82982
G1 X197.404 Y55.357 E4.85609
G1 X196.906 Y55.969 E4.88234
G1 X196.627 Y56.263 E4.89582
G1 X190.053 Y62.834 E5.20497
G1 X189.797 Y63.148 E5.21844
G1 X189.52 Y63.439 E5.2318
G1 X184.481 Y68.478 E5.46882
G1 X185.023 Y69.077 E5.49569
G1 X185.491 Y69.713 E5.52195
G1 X185.892 Y70.394 E5.54824
G1 X186.222 Y71.111 E5.57449
G1 X186.477 Y71.858 E5.60074
G1 X186.656 Y72.627 E5.62701
G1 X186.756 Y73.411 E5.65329
G1 X186.777 Y74.2 E5.67954
G1 X186.717 Y74.988 E5.70583
G1 X186.578 Y75.765 E5.73208
G1 X186.362 Y76.524 E5.75833
G1 X186.069 Y77.258 E5.78462
G1 X185.704 Y77.958 E5.81087
G1 X185.27 Y78.618 E5.83714
G1 X184.772 Y79.23 E5.86339
G1 X184.494 Y79.522 E5.8768
G1 X181.545 Y82.471 E6.01551
G1 X181.899 Y82.952 E6.03537
G1 X182.3 Y83.632 E6.06163
G1 X182.63 Y84.35 E6.08791
G1 X182.885 Y85.097 E6.11416
G1 X183.064 Y85.866 E6.14043
G1 X183.164 Y86.65 E6.16671
G1 X183.185 Y87.439 E6.19296
G1 X183.125 Y88.226 E6.21922
G1 X182.986 Y89.004 E6.2455
G1 X182.769 Y89.763 E6.27176
G1 X182.477 Y90.497 E6.29803
G1 X182.112 Y91.197 E6.32429
G1 X181.678 Y91.857 E6.35056
G1 X181.179 Y92.469 E6.37683
G1 X180.902 Y92.76 E6.39019
G1 X137.061 Y136.6 E8.45231
G1 X136.475 Y137.13 E8.47859
G1 X136.307 Y137.253 E8.48552
G1 X135.924 Y137.725 E8.50573
G1 X135.647 Y138.015 E8.51907
G1 X91.807 Y181.855 E10.58117
G1 X91.221 Y182.385 E10.60745
G1 X90.585 Y182.852 E10.63369
G1 X89.905 Y183.253 E10.65995
G1 X89.742 Y183.328 E10.66592
G1 X89.481 Y183.828 E10.68468
G1 X89.047 Y184.488 E10.71095
G1 X88.548 Y185.1 E10.73721
G1 X88.271 Y185.391 E10.75058
G1 X86.857 Y186.805 E10.81709
G1 X86.271 Y187.335 E10.84337
G1 X85.635 Y187.802 E10.86961
G1 X84.955 Y188.203 E10.89587
G1 X84.237 Y188.533 E10.92215
G1 X83.49 Y188.788 E10.9484
G1 X82.721 Y188.967 E10.97466
G1 X81.937 Y189.067 E11.00095
G1 X81.148 Y189.088 E11.0272
G1 X80.361 Y189.028 E11.05345
G1 X79.583 Y188.889 E11.07974
G1 X78.824 Y188.672 E11.10599
G1 X78.09 Y188.38 E11.13227
G1 X77.39 Y188.015 E11.15853
G1 X76.73 Y187.581 E11.1848
G1 X76.118 Y187.082 E11.21106
G1 X75.827 Y186.806 E11.2244
G1 X70.991 Y181.97 E11.45187
G1 X53.898 Y199.063 E12.25587
G1 X53.313 Y199.593 E12.28213
G1 X52.676 Y200.06 E12.3084
G1 X51.996 Y200.461 E12.33466
G1 X51.278 Y200.791 E12.36094
G1 X50.531 Y201.046 E12.38719
G1 X49.762 Y201.225 E12.41345
G1 X48.978 Y201.325 E12.43974
G1 X48.189 Y201.346 E12.46599
G1 X47.402 Y201.286 E12.49224
G1 X46.624 Y201.147 E12.51853
G1 X45.865 Y200.93 E12.54479
G1 X45.131 Y200.638 E12.57106
G1 X44.431 Y200.273 E12.59732
G1 X43.771 Y199.839 E12.62359
G1 X43.159 Y199.34 E12.64985
G1 X42.868 Y199.063 E12.66321
G1 X38.37 Y194.565 E12.87479
G1 X37.84 Y193.979 E12.90107
G1 X37.373 Y193.343 E12.92731
G1 X36.972 Y192.663 E12.95357
G1 X36.642 Y191.945 E12.97985
G1 X36.387 Y191.198 E13.0061
G1 X36.208 Y190.429 E13.03236
G1 X36.108 Y189.645 E13.05865
G1 X36.087 Y188.856 E13.0849
G1 X36.147 Y188.069 E13.11115
G1 X36.286 Y187.291 E13.13744
G1 X36.503 Y186.532 E13.1637
G1 X36.795 Y185.798 E13.18997
G1 X37.16 Y185.098 E13.21623
G1 X37.594 Y184.438 E13.2425
G1 X38.093 Y183.826 E13.26876
G1 X38.37 Y183.534 E13.28215
G1 X41.318 Y180.587 E13.42079
G1 X40.965 Y180.106 E13.44063
G1 X40.564 Y179.426 E13.46689
G1 X40.234 Y178.708 E13.49317
G1 X39.979 Y177.961 E13.51943
G1 X39.8 Y177.192 E13.54569
G1 X39.7 Y176.408 E13.57197
G1 X39.679 Y175.619 E13.59823
G1 X39.739 Y174.832 E13.62448
G1 X39.878 Y174.054 E13.65076
G1 X40.095 Y173.295 E13.67702
G1 X40.387 Y172.561 E13.70329
G1 X40.752 Y171.861 E13.72955
G1 X41.186 Y171.201 E13.75582
G1 X41.685 Y170.589 E13.78209
G1 X41.962 Y170.298 E13.79545
G1 X51.602 Y160.658 E14.24889
G1 X51.119 Y160.179 E14.27151
G1 X50.675 Y159.694 E14.29338
G1 X50.215 Y159.143 E14.31725
G1 X49.856 Y158.67 E14.337
G1 X49.453 Y158.086 E14.3606
G1 X49.122 Y157.556 E14.38139
G1 X48.766 Y156.922 E14.40557
G1 X48.483 Y156.358 E14.42656
G1 X48.199 Y155.722 E14.44973
G1 X48.001 Y155.22 E14.46767
G1 X47.812 Y154.685 E14.48655
G1 X47.659 Y154.18 E14.5041
G1 X47.549 Y153.782 E14.51783
G1 X47.409 Y153.184 E14.53826
G1 X47.311 Y152.677 E14.55543
G1 X47.233 Y152.197 E14.57161
G1 X47.192 Y151.88 E14.58224
G1 X47.142 Y151.354 E14.59981
G1 X47.107 Y150.779 E14.61897
G1 X47.095 Y150.126 E14.64069
G1 X47.106 Y149.648 E14.6566
G1 X47.142 Y149.031 E14.67715
G1 X47.191 Y148.565 E14.69274
G1 X47.268 Y147.997 E14.7118
G1 X47.408 Y147.245 E14.73724
G1 X47.547 Y146.659 E14.75727
G1 X47.727 Y146.022 E14.77929
G1 X47.992 Y145.239 E14.80678
G1 X48.064 Y145.049 E14.81354
G1 X48.276 Y144.544 E14.83176
G1 X48.523 Y144.009 E14.85136
G1 X48.856 Y143.367 E14.87541
G1 X49.162 Y142.839 E14.89571
G1 X49.58 Y142.194 E14.92127
G1 X49.942 Y141.691 E14.94189
G1 X50.465 Y141.041 E14.96963
G1 X50.932 Y140.52 E14.99291
G1 X51.488 Y139.959 E15.01918
G1 X51.992 Y139.545 E15.04087
G1 X52.364 Y139.089 E15.06044
G1 X52.641 Y138.798 E15.0738
G1 X96.481 Y94.957 E17.13593
G0 F6000 X96.763 Y95.239
G1 F1200 X97.335 Y94.725 E17.16151
G1 X97.518 Y94.592 E17.16903
G1 X97.611 Y94.461 E17.17437
G1 X98.177 Y93.825 E17.20269
G1 X142.018 Y49.984 E19.26484
G1 X142.59 Y49.47 E19.29041
G1 X143.212 Y49.017 E19.31601
G1 X143.877 Y48.631 E19.34158
G1 X144.579 Y48.316 E19.36717
G1 X145.31 Y48.076 E19.39276
G1 X146.061 Y47.913 E19.41832
G1 X146.826 Y47.829 E19.44392
G1 X147.595 Y47.825 E19.4695
G1 X148.36 Y47.901 E19.49507
G1 X149.114 Y48.055 E19.52066
G1 X149.847 Y48.287 E19.54623
G1 X150.552 Y48.594 E19.57181
G1 X151.222 Y48.973 E19.59741
G1 X151.849 Y49.419 E19.623
G1 X152.484 Y49.985 E19.65129
G1 X157.165 Y54.667 E19.8715
G1 X157.443 Y54.975 E19.8853
G1 X157.657 Y55.166 E19.89484
G1 X176.594 Y36.229 E20.78558
G1 X177.166 Y35.715 E20.81115
G1 X177.788 Y35.262 E20.83675
G1 X178.453 Y34.876 E20.86232
G1 X179.155 Y34.561 E20.88791
G1 X179.885 Y34.321 E20.91347
G1 X180.637 Y34.158 E20.93906
G1 X181.402 Y34.074 E20.96466
G1 X182.171 Y34.07 E20.99024
G1 X182.936 Y34.146 E21.01581
G1 X183.69 Y34.3 E21.0414
G1 X184.423 Y34.532 E21.06697
G1 X185.128 Y34.839 E21.09255
G1 X185.798 Y35.218 E21.11815
G1 X186.425 Y35.664 E21.14374
G1 X187.06 Y36.229 E21.17201
G1 X191.742 Y40.911 E21.39224
G1 X192.019 Y41.219 E21.40602
G1 X192.307 Y41.476 E21.41886
G1 X196.345 Y45.513 E21.60877
G1 X196.86 Y46.084 E21.63434
G1 X197.313 Y46.706 E21.65994
G1 X197.699 Y47.371 E21.68551
G1 X198.013 Y48.073 E21.71109
G1 X198.254 Y48.804 E21.73669
G1 X198.417 Y49.555 E21.76225
G1 X198.501 Y50.32 E21.78785
G1 X198.505 Y51.089 E21.81342
G1 X198.43 Y51.854 E21.83899
G1 X198.275 Y52.608 E21.86459
G1 X198.043 Y53.341 E21.89016
G1 X197.736 Y54.047 E21.91577
G1 X197.358 Y54.716 E21.94133
G1 X196.912 Y55.343 E21.96692
G1 X196.344 Y55.98 E21.9953
G1 X189.803 Y62.522 E22.303
G1 X189.238 Y63.157 E22.33127
G1 X183.916 Y68.479 E22.5816
G1 X184.211 Y68.774 E22.59547
G1 X184.726 Y69.345 E22.62105
G1 X185.179 Y69.967 E22.64664
G1 X185.565 Y70.632 E22.67221
G1 X185.879 Y71.334 E22.69779
G1 X186.12 Y72.065 E22.72339
G1 X186.283 Y72.816 E22.74895
G1 X186.367 Y73.581 E22.77455
G1 X186.371 Y74.35 E22.80013
G1 X186.295 Y75.116 E22.82573
G1 X186.141 Y75.869 E22.85129
G1 X185.909 Y76.602 E22.87686
G1 X185.602 Y77.308 E22.90247
G1 X185.224 Y77.977 E22.92803
G1 X184.778 Y78.604 E22.95362
G1 X184.212 Y79.24 E22.98194
G1 X181.008 Y82.444 E23.13264
G1 X181.134 Y82.584 E23.13891
G1 X181.587 Y83.206 E23.1645
G1 X181.973 Y83.871 E23.19007
G1 X182.288 Y84.573 E23.21567
G1 X182.528 Y85.304 E23.24126
G1 X182.691 Y86.055 E23.26682
G1 X182.775 Y86.82 E23.29241
G1 X182.779 Y87.589 E23.31799
G1 X182.703 Y88.354 E23.34356
G1 X182.549 Y89.108 E23.36916
G1 X182.317 Y89.841 E23.39473
G1 X182.01 Y90.546 E23.4203
G1 X181.631 Y91.216 E23.4459
G1 X181.185 Y91.843 E23.4715
G1 X180.62 Y92.478 E23.49977
G1 X136.779 Y136.318 E25.56189
G1 X136.207 Y136.833 E25.58749
G1 X136.024 Y136.966 E25.59501
G1 X135.93 Y137.098 E25.6004
G1 X135.365 Y137.733 E25.62867
G1 X91.525 Y181.573 E27.69077
G1 X90.953 Y182.087 E27.71635
G1 X90.331 Y182.54 E27.74194
G1 X89.666 Y182.926 E27.76752
G1 X89.445 Y183.025 E27.77557
G1 X89.379 Y183.177 E27.78108
G1 X89 Y183.847 E27.80669
G1 X88.554 Y184.474 E27.83228
G1 X87.989 Y185.109 E27.86055
G1 X86.575 Y186.523 E27.92706
G1 X86.003 Y187.037 E27.95263
G1 X85.381 Y187.49 E27.97823
G1 X84.716 Y187.876 E28.0038
G1 X84.014 Y188.191 E28.02939
G1 X83.283 Y188.431 E28.05498
G1 X82.532 Y188.594 E28.08054
G1 X81.767 Y188.678 E28.10614
G1 X80.998 Y188.682 E28.13172
G1 X80.233 Y188.606 E28.15729
G1 X79.479 Y188.452 E28.18288
G1 X78.746 Y188.22 E28.20845
G1 X78.041 Y187.913 E28.23403
G1 X77.371 Y187.534 E28.25963
G1 X76.744 Y187.088 E28.28522
G1 X76.11 Y186.523 E28.31347
G1 X70.992 Y181.405 E28.5542
G1 X53.616 Y198.781 E29.37152
G1 X53.044 Y199.295 E29.3971
G1 X52.422 Y199.748 E29.42269
G1 X51.757 Y200.134 E29.44826
G1 X51.055 Y200.449 E29.47385
G1 X50.324 Y200.689 E29.49944
G1 X49.573 Y200.852 E29.525
G1 X48.808 Y200.936 E29.5506
G1 X48.039 Y200.94 E29.57618
G1 X47.274 Y200.864 E29.60175
G1 X46.52 Y200.71 E29.62734
G1 X45.787 Y200.478 E29.65291
G1 X45.082 Y200.171 E29.67849
G1 X44.412 Y199.792 E29.70409
G1 X43.785 Y199.346 E29.72968
G1 X43.15 Y198.781 E29.75795
G1 X38.652 Y194.283 E29.96953
G1 X38.138 Y193.711 E29.9951
G1 X37.685 Y193.089 E30.0207
G1 X37.299 Y192.424 E30.04627
G1 X36.984 Y191.722 E30.07186
G1 X36.744 Y190.991 E30.09745
G1 X36.581 Y190.24 E30.12301
G1 X36.497 Y189.475 E30.14861
G1 X36.493 Y188.706 E30.17419
G1 X36.569 Y187.941 E30.19976
G1 X36.723 Y187.187 E30.22535
G1 X36.955 Y186.454 E30.25092
G1 X37.262 Y185.749 E30.2765
G1 X37.641 Y185.079 E30.3021
G1 X38.087 Y184.452 E30.32769
G1 X38.653 Y183.817 E30.35599
G1 X41.856 Y180.614 E30.50664
G1 X41.73 Y180.474 E30.51291
G1 X41.277 Y179.852 E30.5385
G1 X40.891 Y179.187 E30.56408
G1 X40.576 Y178.485 E30.58967
G1 X40.336 Y177.754 E30.61526
G1 X40.173 Y177.003 E30.64082
G1 X40.089 Y176.238 E30.66641
G1 X40.085 Y175.469 E30.69199
G1 X40.161 Y174.704 E30.71756
G1 X40.315 Y173.95 E30.74316
G1 X40.547 Y173.217 E30.76873
G1 X40.854 Y172.512 E30.7943
G1 X41.233 Y171.842 E30.81991
G1 X41.679 Y171.215 E30.8455
G1 X42.244 Y170.58 E30.87377
G1 X52.179 Y160.645 E31.34108
G1 X51.912 Y160.403 E31.35307
G1 X51.414 Y159.909 E31.3764
G1 X50.97 Y159.424 E31.39827
G1 X50.534 Y158.901 E31.42091
G1 X50.175 Y158.428 E31.44066
G1 X49.792 Y157.874 E31.46306
G1 X49.461 Y157.344 E31.48385
G1 X49.124 Y156.743 E31.50676
G1 X48.841 Y156.179 E31.52775
G1 X48.571 Y155.575 E31.54976
G1 X48.373 Y155.073 E31.56771
G1 X48.194 Y154.565 E31.58562
G1 X48.044 Y154.073 E31.60273
G1 X47.934 Y153.675 E31.61646
G1 X47.801 Y153.108 E31.63583
G1 X47.703 Y152.601 E31.65301
G1 X47.63 Y152.146 E31.66833
G1 X47.589 Y151.829 E31.67896
G1 X47.542 Y151.33 E31.69564
G1 X47.507 Y150.755 E31.7148
G1 X47.495 Y150.135 E31.73542
G1 X47.506 Y149.657 E31.75132
G1 X47.541 Y149.061 E31.77118
G1 X47.587 Y148.619 E31.78596
G1 X47.664 Y148.051 E31.80503
G1 X47.797 Y147.337 E31.82918
G1 X47.936 Y146.751 E31.84921
G1 X48.107 Y146.147 E31.87009
G1 X48.366 Y145.381 E31.89699
G1 X48.639 Y144.711 E31.92105
G1 X48.886 Y144.176 E31.94065
G1 X49.203 Y143.567 E31.96348
G1 X49.509 Y143.039 E31.98378
G1 X49.905 Y142.427 E32.00803
G1 X50.267 Y141.924 E32.02864
G1 X50.763 Y141.308 E32.05494
G1 X51.23 Y140.787 E32.07821
G1 X51.772 Y140.241 E32.1038
G1 X52.276 Y139.83 E32.12543
G1 X52.358 Y139.715 E32.13013
G1 X52.923 Y139.08 E32.1584
G1 X96.763 Y95.239 E34.22052
G0 F6000 X97.046 Y95.522
G1 F1200 X97.603 Y95.022 E34.24542
G1 X97.811 Y94.872 E34.25395
G1 X98.108 Y94.488 E34.27009
G1 X98.46 Y94.108 E34.28732
G1 X142.301 Y50.267 E36.34947
G1 X142.858 Y49.767 E36.37436
G1 X143.464 Y49.33 E36.39921
G1 X144.114 Y48.959 E36.4241
G1 X144.8 Y48.66 E36.44899
G1 X145.514 Y48.436 E36.47388
G1 X146.247 Y48.289 E36.49875
G1 X146.992 Y48.222 E36.52363
G1 X147.74 Y48.234 E36.54851
G1 X148.483 Y48.326 E36.57341
G1 X149.211 Y48.497 E36.59828
G1 X149.917 Y48.744 E36.62316
G1 X150.592 Y49.066 E36.64803
G1 X151.23 Y49.458 E36.67294
G1 X151.821 Y49.915 E36.69779
G1 X152.201 Y50.268 E36.71504
G1 X156.882 Y54.95 E36.93524
G1 X157.091 Y55.183 E36.94565
G1 X157.448 Y55.515 E36.96187
G1 X157.661 Y55.728 E36.97188
G1 X176.877 Y36.512 E37.87575
G1 X177.434 Y36.012 E37.90064
G1 X178.04 Y35.575 E37.92549
G1 X178.69 Y35.204 E37.95038
G1 X179.376 Y34.905 E37.97527
G1 X180.09 Y34.681 E38.00016
G1 X180.823 Y34.534 E38.02503
G1 X181.568 Y34.467 E38.04991
G1 X182.316 Y34.479 E38.07479
G1 X183.058 Y34.571 E38.09966
G1 X183.787 Y34.742 E38.12456
G1 X184.493 Y34.989 E38.14944
G1 X185.168 Y35.311 E38.17431
G1 X185.806 Y35.703 E38.19922
G1 X186.397 Y36.16 E38.22407
G1 X186.777 Y36.512 E38.24129
G1 X191.459 Y41.194 E38.46152
G1 X191.676 Y41.436 E38.47233
G1 X192.024 Y41.759 E38.48812
G1 X196.062 Y45.796 E38.67804
G1 X196.562 Y46.352 E38.70291
G1 X197 Y46.959 E38.7278
G1 X197.37 Y47.608 E38.75265
G1 X197.67 Y48.294 E38.77755
G1 X197.894 Y49.008 E38.80244
G1 X198.041 Y49.741 E38.82731
G1 X198.108 Y50.486 E38.85219
G1 X198.096 Y51.234 E38.87707
G1 X198.004 Y51.977 E38.90197
G1 X197.833 Y52.705 E38.92684
G1 X197.586 Y53.411 E38.95172
G1 X197.264 Y54.087 E38.97662
G1 X196.873 Y54.724 E39.00148
G1 X196.416 Y55.316 E39.02636
G1 X196.062 Y55.697 E39.04365
G1 X189.466 Y62.288 E39.35379
G1 X189.307 Y62.494 E39.36245
G1 X188.955 Y62.874 E39.37967
G1 X183.35 Y68.479 E39.64332
G1 X183.928 Y69.057 E39.6705
G1 X184.428 Y69.613 E39.69537
G1 X184.866 Y70.22 E39.72027
G1 X185.237 Y70.87 E39.74516
G1 X185.536 Y71.555 E39.77002
G1 X185.76 Y72.269 E39.79491
G1 X185.907 Y73.002 E39.81978
G1 X185.974 Y73.747 E39.84466
G1 X185.962 Y74.495 E39.86954
G1 X185.87 Y75.238 E39.89444
G1 X185.699 Y75.966 E39.91931
