;FLAVOR:Marlin
;TIME:9521
;Filament used: 6.99954m
;Layer height: 0.2
;MINX:31.075
;MINY:38.316
;MINZ:0.2
;MAXX:203.938
;MAXY:196.72
;MAXZ:2
;Generated with Cura_SteamEngine 5.0.0
M140 S70
M105
M190 S70
M104 S200
M105
M109 S200
M82 ;absolute extrusion mode
; Ender 3 Custom Start G-code
G28 ; Home all axes
M420 S1; Bed Leveling On
G92 E0 ; Reset Extruder
G1 Z2.0 F3000 ; Move Z Axis up little to prevent scratching of Heat Bed
G1 X0.1 Y20 Z0.3 F5000.0 ; Move to start position
G1 X0.1 Y200.0 Z0.3 F1500.0 E15 ; Draw the first line
G1 X0.4 Y200.0 Z0.3 F5000.0 ; Move to side a little
G1 X0.4 Y20 Z0.3 F1500.0 E30 ; Draw the second line
G92 E0 ; Reset Extruder
G1 Z2.0 F3000 ; Move Z Axis up little to prevent scratching of Heat Bed
G1 X5 Y20 Z0.3 F5000.0 ; Move over to prevent blob squish
G92 E0
G92 E0
G1 F2700 E-5
;LAYER_COUNT:10
;LAYER:0
M107
G0 F6000 X88.65 Y89.734 Z0.2
;TYPE:SKIRT
G1 F2700 E0
G1 F1200 X89.236 Y89.204 E0.02628
G1 X89.404 Y89.081 E0.0332
G1 X89.787 Y88.611 E0.05337
G1 X90.064 Y88.32 E0.06673
G1 X133.905 Y44.48 E2.12886
G1 X134.491 Y43.95 E2.15514
G1 X135.127 Y43.483 E2.18138
G1 X135.808 Y43.082 E2.20766
G1 X136.525 Y42.752 E2.23392
G1 X137.272 Y42.497 E2.26017
G1 X138.041 Y42.318 E2.28643
G1 X138.825 Y42.218 E2.31272
G1 X139.614 Y42.197 E2.33897
G1 X140.402 Y42.257 E2.36525
G1 X141.179 Y42.396 E2.39151
G1 X141.938 Y42.613 E2.41776
G1 X142.672 Y42.905 E2.44404
G1 X143.372 Y43.27 E2.47029
G1 X144.032 Y43.704 E2.49657
G1 X144.644 Y44.203 E2.52283
G1 X144.935 Y44.48 E2.53619
G1 X146.737 Y46.282 E2.62095
G1 X149.637 Y43.382 E2.75736
G1 X150.223 Y42.853 E2.78362
G1 X150.859 Y42.385 E2.80988
G1 X151.54 Y41.985 E2.83615
G1 X152.257 Y41.655 E2.8624
G1 X153.005 Y41.399 E2.8887
G1 X153.774 Y41.221 E2.91495
G1 X154.557 Y41.121 E2.9412
G1 X155.347 Y41.1 E2.96749
G1 X156.134 Y41.16 E2.99374
G1 X156.911 Y41.299 E3.01999
G1 X157.671 Y41.516 E3.04628
G1 X158.404 Y41.808 E3.07252
G1 X159.104 Y42.173 E3.09878
G1 X159.764 Y42.608 E3.12507
G1 X160.376 Y43.106 E3.15132
G1 X160.667 Y43.383 E3.16468
G1 X163.432 Y46.148 E3.29474
G1 X168.981 Y40.599 E3.55574
G1 X169.567 Y40.069 E3.58202
G1 X170.203 Y39.602 E3.60827
G1 X170.883 Y39.201 E3.63452
G1 X171.601 Y38.871 E3.66081
G1 X172.348 Y38.616 E3.68706
G1 X173.117 Y38.437 E3.71332
G1 X173.901 Y38.337 E3.73961
G1 X174.69 Y38.316 E3.76586
G1 X175.477 Y38.376 E3.79211
G1 X176.255 Y38.515 E3.8184
G1 X177.014 Y38.732 E3.84465
G1 X177.748 Y39.024 E3.87093
G1 X178.448 Y39.389 E3.89718
G1 X179.108 Y39.823 E3.92345
G1 X179.72 Y40.322 E3.94972
G1 X180.012 Y40.599 E3.96311
G1 X181.822 Y42.409 E4.04824
G1 X183.448 Y40.783 E4.12472
G1 X184.034 Y40.253 E4.151
G1 X184.67 Y39.786 E4.17725
G1 X185.35 Y39.385 E4.2035
G1 X186.068 Y39.055 E4.22979
G1 X186.815 Y38.8 E4.25604
G1 X187.584 Y38.621 E4.2823
G1 X188.368 Y38.521 E4.30859
G1 X189.157 Y38.5 E4.33484
G1 X189.944 Y38.56 E4.36109
G1 X190.722 Y38.699 E4.38738
G1 X191.481 Y38.916 E4.41363
G1 X192.215 Y39.208 E4.43991
G1 X192.915 Y39.573 E4.46616
G1 X193.575 Y40.007 E4.49244
G1 X194.187 Y40.506 E4.5187
G1 X194.478 Y40.783 E4.53206
G1 X201.655 Y47.96 E4.86965
G1 X202.185 Y48.546 E4.89593
G1 X202.652 Y49.182 E4.92217
G1 X203.053 Y49.862 E4.94843
G1 X203.383 Y50.58 E4.97471
G1 X203.638 Y51.327 E5.00096
G1 X203.817 Y52.096 E5.02722
G1 X203.917 Y52.88 E5.05351
G1 X203.938 Y53.669 E5.07976
G1 X203.878 Y54.456 E5.10601
G1 X203.739 Y55.234 E5.1323
G1 X203.522 Y55.993 E5.15856
G1 X203.23 Y56.727 E5.18483
G1 X202.865 Y57.427 E5.21109
G1 X202.431 Y58.087 E5.23736
G1 X201.932 Y58.699 E5.26362
G1 X201.655 Y58.99 E5.27698
G1 X185.223 Y75.422 E6.0499
G1 X186.107 Y76 E6.08502
G1 X186.932 Y76.621 E6.11937
G1 X187.91 Y77.465 E6.16234
G1 X188.674 Y78.222 E6.19811
G1 X189.52 Y79.185 E6.24074
G1 X190.159 Y80.02 E6.27571
G1 X190.865 Y81.084 E6.31818
G1 X191.372 Y81.969 E6.35211
G1 X191.919 Y83.087 E6.3935
G1 X192.244 Y83.852 E6.42115
G1 X192.523 Y84.62 E6.44833
G1 X192.725 Y85.261 E6.47068
G1 X192.947 Y86.088 E6.49916
G1 X193.088 Y86.712 E6.52044
G1 X193.233 Y87.508 E6.54735
G1 X193.318 Y88.109 E6.56754
G1 X193.401 Y88.917 E6.59455
G1 X193.439 Y89.483 E6.61342
G1 X193.462 Y90.259 E6.63924
G1 X193.455 Y90.882 E6.65996
G1 X193.413 Y91.716 E6.68774
G1 X193.36 Y92.316 E6.70777
G1 X193.254 Y93.143 E6.7355
G1 X193.159 Y93.711 E6.75466
G1 X192.992 Y94.529 E6.78242
G1 X192.866 Y95.056 E6.80045
G1 X192.658 Y95.805 E6.8263
G1 X192.492 Y96.33 E6.84461
G1 X192.212 Y97.118 E6.87243
G1 X192.002 Y97.647 E6.89136
G1 X191.665 Y98.413 E6.91919
G1 X191.443 Y98.876 E6.93627
G1 X191.083 Y99.567 E6.96219
G1 X190.818 Y100.035 E6.98007
G1 X190.381 Y100.749 E7.00792
G1 X190.08 Y101.204 E7.02606
G1 X189.594 Y101.886 E7.05391
G1 X189.258 Y102.323 E7.07225
G1 X188.725 Y102.969 E7.1001
G1 X188.421 Y103.317 E7.11547
G1 X187.692 Y104.092 E7.15086
G1 X104.254 Y187.531 E11.07555
G1 X103.669 Y188.061 E11.10181
G1 X103.032 Y188.528 E11.12808
G1 X102.352 Y188.929 E11.15433
G1 X101.634 Y189.259 E11.18062
G1 X100.887 Y189.514 E11.20687
G1 X100.118 Y189.693 E11.23313
G1 X99.334 Y189.793 E11.25942
G1 X98.545 Y189.814 E11.28567
G1 X97.758 Y189.754 E11.31192
G1 X96.98 Y189.615 E11.33821
G1 X96.221 Y189.398 E11.36446
G1 X95.487 Y189.106 E11.39074
G1 X94.787 Y188.741 E11.41699
G1 X94.127 Y188.307 E11.44327
G1 X93.515 Y187.808 E11.46953
G1 X93.224 Y187.531 E11.48289
G1 X91.412 Y185.719 E11.56812
G1 X89.927 Y187.204 E11.63797
G1 X89.341 Y187.734 E11.66425
G1 X88.705 Y188.201 E11.6905
G1 X88.025 Y188.602 E11.71675
G1 X87.307 Y188.932 E11.74304
G1 X86.56 Y189.187 E11.76929
G1 X85.791 Y189.366 E11.79555
G1 X85.007 Y189.466 E11.82184
G1 X84.218 Y189.487 E11.84809
G1 X83.431 Y189.427 E11.87434
G1 X82.653 Y189.288 E11.90063
G1 X81.894 Y189.071 E11.92688
G1 X81.16 Y188.779 E11.95316
G1 X80.46 Y188.414 E11.97941
G1 X79.8 Y187.98 E12.00569
G1 X79.188 Y187.481 E12.03195
G1 X78.897 Y187.204 E12.04531
G1 X76.169 Y184.476 E12.17363
G1 X67.304 Y193.34 E12.59059
G1 X66.718 Y193.87 E12.61687
G1 X66.082 Y194.337 E12.64311
G1 X65.402 Y194.738 E12.66937
G1 X64.684 Y195.068 E12.69565
G1 X63.937 Y195.323 E12.7219
G1 X63.168 Y195.502 E12.74816
G1 X62.384 Y195.602 E12.77445
G1 X61.595 Y195.623 E12.8007
G1 X60.808 Y195.563 E12.82695
G1 X60.03 Y195.424 E12.85324
G1 X59.271 Y195.207 E12.8795
G1 X58.537 Y194.915 E12.90577
G1 X57.837 Y194.55 E12.93203
G1 X57.177 Y194.116 E12.9583
G1 X56.565 Y193.617 E12.98456
G1 X56.273 Y193.34 E12.99795
G1 X54.471 Y191.538 E13.08271
G1 X51.572 Y194.437 E13.21907
G1 X50.986 Y194.967 E13.24535
G1 X50.35 Y195.434 E13.27159
G1 X49.67 Y195.835 E13.29785
G1 X48.952 Y196.165 E13.32413
G1 X48.205 Y196.42 E13.35039
G1 X47.436 Y196.599 E13.37665
G1 X46.652 Y196.699 E13.40293
G1 X45.863 Y196.72 E13.42919
G1 X45.076 Y196.66 E13.45544
G1 X44.298 Y196.521 E13.48172
G1 X43.539 Y196.304 E13.50798
G1 X42.805 Y196.012 E13.53425
G1 X42.105 Y195.647 E13.56051
G1 X41.445 Y195.213 E13.58678
G1 X40.833 Y194.714 E13.61305
G1 X40.541 Y194.437 E13.62643
G1 X33.357 Y187.252 E13.96437
G1 X32.828 Y186.666 E13.99063
G1 X32.36 Y186.03 E14.01689
G1 X31.96 Y185.349 E14.04316
G1 X31.63 Y184.632 E14.06941
G1 X31.374 Y183.884 E14.09571
G1 X31.196 Y183.115 E14.12196
G1 X31.096 Y182.332 E14.14821
G1 X31.075 Y181.542 E14.1745
G1 X31.135 Y180.755 E14.20075
G1 X31.274 Y179.978 E14.227
G1 X31.491 Y179.218 E14.25329
G1 X31.783 Y178.485 E14.27953
G1 X32.149 Y177.785 E14.30581
G1 X32.583 Y177.125 E14.33208
G1 X33.081 Y176.513 E14.35832
G1 X33.358 Y176.222 E14.37168
G1 X49.942 Y159.638 E15.15175
G1 X39.859 Y149.556 E15.626
G1 X39.329 Y148.97 E15.65227
G1 X38.862 Y148.333 E15.67855
G1 X38.461 Y147.653 E15.7048
G1 X38.131 Y146.935 E15.73108
G1 X37.876 Y146.188 E15.75734
G1 X37.697 Y145.419 E15.7836
G1 X37.597 Y144.636 E15.80985
G1 X37.576 Y143.846 E15.83614
G1 X37.636 Y143.059 E15.86239
G1 X37.775 Y142.281 E15.88867
G1 X37.992 Y141.522 E15.91493
G1 X38.284 Y140.789 E15.94117
G1 X38.649 Y140.088 E15.96746
G1 X39.083 Y139.429 E15.99371
G1 X39.582 Y138.816 E16.01999
G1 X39.859 Y138.525 E16.03336
G1 X41.274 Y137.11 E16.09991
G1 X41.86 Y136.58 E16.12619
G1 X42.496 Y136.113 E16.15244
G1 X43.176 Y135.712 E16.17869
G1 X43.339 Y135.637 E16.18466
G1 X43.599 Y135.138 E16.20338
G1 X44.033 Y134.478 E16.22965
G1 X44.532 Y133.866 E16.25591
G1 X44.809 Y133.575 E16.26928
G1 X88.65 Y89.734 E18.33142
G0 F6000 X88.932 Y90.016
G1 F1200 X89.504 Y89.502 E18.357
G1 X89.688 Y89.368 E18.36457
G1 X89.781 Y89.237 E18.36991
G1 X90.346 Y88.602 E18.39818
G1 X134.187 Y44.762 E20.46031
G1 X134.759 Y44.247 E20.48591
G1 X135.381 Y43.795 E20.51148
G1 X136.046 Y43.409 E20.53705
G1 X136.748 Y43.094 E20.56264
G1 X137.479 Y42.854 E20.58823
G1 X138.23 Y42.691 E20.61379
G1 X138.995 Y42.607 E20.63939
G1 X139.764 Y42.603 E20.66497
G1 X140.529 Y42.679 E20.69054
G1 X141.283 Y42.833 E20.71613
G1 X142.016 Y43.065 E20.74171
G1 X142.721 Y43.372 E20.76728
G1 X143.391 Y43.751 E20.79288
G1 X144.018 Y44.197 E20.81848
G1 X144.653 Y44.762 E20.84675
G1 X146.738 Y46.847 E20.94482
G1 X149.92 Y43.665 E21.09449
G1 X150.491 Y43.15 E21.12006
G1 X151.113 Y42.698 E21.14564
G1 X151.778 Y42.312 E21.17121
G1 X152.48 Y41.997 E21.1968
G1 X153.211 Y41.757 E21.22239
G1 X153.963 Y41.594 E21.24799
G1 X154.727 Y41.51 E21.27355
G1 X155.496 Y41.506 E21.29913
G1 X156.262 Y41.582 E21.32473
G1 X157.015 Y41.736 E21.35029
G1 X157.749 Y41.969 E21.37591
G1 X158.454 Y42.275 E21.40147
G1 X159.123 Y42.654 E21.42704
G1 X159.75 Y43.1 E21.45263
G1 X160.385 Y43.665 E21.4809
G1 X163.432 Y46.712 E21.62422
G1 X169.263 Y40.881 E21.8985
G1 X169.835 Y40.367 E21.92407
G1 X170.457 Y39.914 E21.94967
G1 X171.122 Y39.528 E21.97524
G1 X171.824 Y39.213 E22.00083
G1 X172.555 Y38.973 E22.02642
G1 X173.306 Y38.81 E22.05198
G1 X174.071 Y38.726 E22.07758
G1 X174.84 Y38.722 E22.10316
G1 X175.605 Y38.798 E22.12873
G1 X176.359 Y38.952 E22.15432
G1 X177.092 Y39.184 E22.17989
G1 X177.797 Y39.491 E22.20547
G1 X178.467 Y39.87 E22.23107
G1 X179.094 Y40.316 E22.25666
G1 X179.729 Y40.882 E22.28496
G1 X181.821 Y42.974 E22.38336
G1 X183.73 Y41.065 E22.47315
G1 X184.302 Y40.551 E22.49873
G1 X184.924 Y40.098 E22.52432
G1 X185.589 Y39.712 E22.54989
G1 X186.291 Y39.397 E22.57549
G1 X187.022 Y39.157 E22.60108
G1 X187.773 Y38.994 E22.62664
G1 X188.538 Y38.91 E22.65223
G1 X189.307 Y38.906 E22.67781
G1 X190.072 Y38.982 E22.70338
G1 X190.826 Y39.136 E22.72898
G1 X191.559 Y39.368 E22.75455
G1 X192.264 Y39.675 E22.78012
G1 X192.934 Y40.054 E22.80572
G1 X193.561 Y40.5 E22.83132
G1 X194.196 Y41.065 E22.85959
G1 X201.373 Y48.242 E23.19717
G1 X201.887 Y48.814 E23.22275
G1 X202.34 Y49.436 E23.24834
G1 X202.726 Y50.101 E23.27392
G1 X203.041 Y50.803 E23.29951
G1 X203.281 Y51.534 E23.3251
G1 X203.444 Y52.285 E23.35066
G1 X203.528 Y53.05 E23.37625
G1 X203.532 Y53.819 E23.40183
G1 X203.456 Y54.584 E23.4274
G1 X203.302 Y55.338 E23.453
G1 X203.07 Y56.071 E23.47857
G1 X202.763 Y56.776 E23.50414
G1 X202.384 Y57.446 E23.52975
G1 X201.938 Y58.073 E23.55534
G1 X201.373 Y58.708 E23.58361
G1 X184.578 Y75.503 E24.37359
G1 X184.875 Y75.671 E24.38494
G1 X185.888 Y76.334 E24.42521
G1 X186.671 Y76.924 E24.45782
G1 X187.649 Y77.768 E24.50078
G1 X188.373 Y78.486 E24.5347
G1 X189.219 Y79.449 E24.57733
G1 X189.826 Y80.242 E24.61055
G1 X190.532 Y81.306 E24.65302
G1 X191.013 Y82.145 E24.68518
G1 X191.56 Y83.263 E24.72658
G1 X191.868 Y83.988 E24.75278
G1 X192.147 Y84.756 E24.77996
G1 X192.339 Y85.364 E24.80116
G1 X192.561 Y86.191 E24.82964
G1 X192.694 Y86.784 E24.84986
G1 X192.839 Y87.58 E24.87677
G1 X192.92 Y88.15 E24.89592
G1 X193.003 Y88.958 E24.92293
G1 X193.039 Y89.495 E24.94083
G1 X193.062 Y90.271 E24.96665
G1 X193.056 Y90.862 E24.98631
G1 X193.014 Y91.696 E25.01409
G1 X192.963 Y92.265 E25.03309
G1 X192.857 Y93.092 E25.06082
G1 X192.767 Y93.631 E25.07899
G1 X192.6 Y94.449 E25.10676
G1 X192.48 Y94.949 E25.12386
G1 X192.272 Y95.698 E25.14972
G1 X192.115 Y96.196 E25.16708
G1 X191.835 Y96.984 E25.1949
G1 X191.635 Y97.486 E25.21287
G1 X191.298 Y98.252 E25.24071
G1 X191.088 Y98.691 E25.25689
G1 X190.728 Y99.382 E25.28281
G1 X190.477 Y99.826 E25.29977
G1 X190.04 Y100.54 E25.32761
G1 X189.754 Y100.971 E25.34482
G1 X189.268 Y101.653 E25.37267
G1 X188.95 Y102.068 E25.39006
G1 X188.417 Y102.714 E25.41792
G1 X188.128 Y103.045 E25.43253
G1 X187.41 Y103.81 E25.46743
G1 X103.972 Y187.249 E29.39212
G1 X103.4 Y187.763 E29.41769
G1 X102.778 Y188.216 E29.44329
G1 X102.113 Y188.602 E29.46886
G1 X101.411 Y188.917 E29.49445
G1 X100.68 Y189.157 E29.52004
G1 X99.929 Y189.32 E29.5456
G1 X99.164 Y189.404 E29.5712
G1 X98.395 Y189.408 E29.59678
G1 X97.63 Y189.332 E29.62235
G1 X96.876 Y189.178 E29.64794
G1 X96.143 Y188.946 E29.67351
G1 X95.438 Y188.639 E29.69909
G1 X94.768 Y188.26 E29.72469
G1 X94.141 Y187.814 E29.75028
G1 X93.506 Y187.249 E29.77855
G1 X91.412 Y185.155 E29.87705
G1 X89.645 Y186.922 E29.96016
G1 X89.073 Y187.436 E29.98574
G1 X88.451 Y187.889 E30.01133
G1 X87.786 Y188.275 E30.03691
G1 X87.084 Y188.59 E30.0625
G1 X86.353 Y188.83 E30.08809
G1 X85.602 Y188.993 E30.11365
G1 X84.837 Y189.077 E30.13925
G1 X84.068 Y189.081 E30.16482
G1 X83.303 Y189.005 E30.19039
G1 X82.549 Y188.851 E30.21599
G1 X81.816 Y188.619 E30.24156
G1 X81.111 Y188.312 E30.26714
G1 X80.441 Y187.933 E30.29274
G1 X79.814 Y187.487 E30.31833
G1 X79.179 Y186.922 E30.3466
G1 X76.169 Y183.912 E30.48818
G1 X67.022 Y193.058 E30.9184
G1 X66.45 Y193.572 E30.94398
G1 X65.828 Y194.025 E30.96957
G1 X65.163 Y194.411 E30.99515
G1 X64.461 Y194.726 E31.02074
G1 X63.73 Y194.966 E31.04633
G1 X62.979 Y195.129 E31.07189
G1 X62.214 Y195.213 E31.09749
G1 X61.445 Y195.217 E31.12306
G1 X60.68 Y195.141 E31.14863
G1 X59.926 Y194.987 E31.17423
G1 X59.193 Y194.755 E31.1998
G1 X58.488 Y194.448 E31.22538
G1 X57.818 Y194.069 E31.25098
G1 X57.191 Y193.623 E31.27657
G1 X56.556 Y193.057 E31.30486
G1 X54.472 Y190.973 E31.40289
G1 X51.29 Y194.155 E31.55256
G1 X50.718 Y194.669 E31.57814
G1 X50.096 Y195.122 E31.60373
G1 X49.431 Y195.508 E31.6293
G1 X48.729 Y195.823 E31.6549
G1 X47.998 Y196.063 E31.68049
G1 X47.247 Y196.226 E31.70605
G1 X46.482 Y196.31 E31.73164
G1 X45.713 Y196.314 E31.75722
G1 X44.948 Y196.238 E31.78279
G1 X44.194 Y196.084 E31.80838
G1 X43.461 Y195.852 E31.83396
G1 X42.756 Y195.545 E31.85953
G1 X42.086 Y195.166 E31.88513
G1 X41.459 Y194.72 E31.91073
G1 X40.824 Y194.154 E31.93902
G1 X33.64 Y186.969 E32.27696
G1 X33.125 Y186.398 E32.30253
G1 X32.672 Y185.776 E32.32812
G1 X32.287 Y185.111 E32.35368
G1 X31.972 Y184.409 E32.37927
G1 X31.732 Y183.678 E32.40486
G1 X31.569 Y182.926 E32.43045
G1 X31.485 Y182.162 E32.45602
G1 X31.481 Y181.393 E32.4816
G1 X31.557 Y180.627 E32.5072
G1 X31.711 Y179.874 E32.53276
G1 X31.944 Y179.14 E32.55837
G1 X32.25 Y178.435 E32.58394
G1 X32.629 Y177.766 E32.60951
G1 X33.075 Y177.139 E32.6351
G1 X33.64 Y176.504 E32.66337
G1 X50.507 Y159.637 E33.45674
G1 X40.142 Y149.273 E33.94426
G1 X39.627 Y148.701 E33.96986
G1 X39.174 Y148.08 E33.99542
G1 X38.788 Y147.414 E34.02103
G1 X38.473 Y146.712 E34.04662
G1 X38.233 Y145.982 E34.07218
G1 X38.07 Y145.23 E34.09777
G1 X37.986 Y144.465 E34.12337
G1 X37.982 Y143.696 E34.14894
G1 X38.058 Y142.931 E34.17451
G1 X38.212 Y142.177 E34.20011
G1 X38.444 Y141.444 E34.22568
G1 X38.751 Y140.739 E34.25126
G1 X39.13 Y140.069 E34.27686
G1 X39.575 Y139.442 E34.30243
G1 X40.141 Y138.807 E34.33072
G1 X41.556 Y137.392 E34.39728
G1 X42.128 Y136.878 E34.42286
G1 X42.75 Y136.425 E34.44845
G1 X43.415 Y136.039 E34.47402
G1 X43.635 Y135.94 E34.48205
G1 X43.701 Y135.789 E34.48753
G1 X44.08 Y135.119 E34.51313
G1 X44.526 Y134.492 E34.53872
G1 X45.091 Y133.857 E34.56699
G1 X88.932 Y90.016 E36.62914
G0 F6000 X89.215 Y90.299
G1 F1200 X89.772 Y89.799 E36.65404
G1 X89.98 Y89.649 E36.66256
G1 X90.277 Y89.265 E36.67871
G1 X90.629 Y88.885 E36.69594
G1 X134.47 Y45.045 E38.75806
G1 X135.027 Y44.545 E38.78296
G1 X135.633 Y44.108 E38.80781
G1 X136.283 Y43.737 E38.8327
G1 X136.969 Y43.438 E38.85759
G1 X137.683 Y43.214 E38.88248
G1 X138.416 Y43.067 E38.90734
G1 X139.161 Y43 E38.93222
G1 X139.909 Y43.012 E38.9571
G1 X140.652 Y43.104 E38.982
G1 X141.38 Y43.275 E39.00688
G1 X142.086 Y43.523 E39.03177
G1 X142.761 Y43.844 E39.05663
G1 X143.399 Y44.236 E39.08153
G1 X143.991 Y44.693 E39.1064
G1 X144.37 Y45.045 E39.12361
G1 X146.738 Y47.413 E39.23499
