;FLAVOR:Marlin
;TIME:20751
;Filament used: 14.3387m
;Layer height: 0.2
;MINX:60.565
;MINY:72.7
;MINZ:0.2
;MAXX:174.435
;MAXY:162.3
;MAXZ:15
;Generated with Cura_SteamEngine 5.0.0
M140 S70
M105
M190 S70
M104 S200
M105
M109 S200
M82 ;absolute extrusion mode
; Ender 3 Custom Start G-code
G28 ; Home all axes
M420 S1; Bed Leveling On
G92 E0 ; Reset Extruder
G1 Z2.0 F3000 ; Move Z Axis up little to prevent scratching of Heat Bed
G1 X0.1 Y20 Z0.3 F5000.0 ; Move to start position
G1 X0.1 Y200.0 Z0.3 F1500.0 E15 ; Draw the first line
G1 X0.4 Y200.0 Z0.3 F5000.0 ; Move to side a little
G1 X0.4 Y20 Z0.3 F1500.0 E30 ; Draw the second line
G92 E0 ; Reset Extruder
G1 Z2.0 F3000 ; Move Z Axis up little to prevent scratching of Heat Bed
G1 X5 Y20 Z0.3 F5000.0 ; Move over to prevent blob squish
G92 E0
G92 E0
G1 F2700 E-5
;LAYER_COUNT:75
;LAYER:0
M107
G0 F6000 X77.11 Y107.124 Z0.2
;TYPE:SKIRT
G1 F2700 E0
G1 F1200 X77.111 Y113.268 E0.20435
G1 X77.786 Y112.977 E0.2288
G1 X78.539 Y112.74 E0.25505
G1 X79.313 Y112.581 E0.28134
G1 X80.098 Y112.5 E0.30758
G1 X80.5 Y112.49 E0.32096
G1 X142.1 Y112.489 E2.36978
G1 X142.586 Y112.28 E2.38738
G1 X143.339 Y112.043 E2.41363
G1 X144.113 Y111.884 E2.43991
G1 X144.898 Y111.803 E2.46616
G1 X145.297 Y111.793 E2.47944
G1 X154.497 Y111.79 E2.78543
G1 X155.286 Y111.83 E2.81171
G1 X156.067 Y111.949 E2.83798
G1 X156.831 Y112.147 E2.86423
G1 X157.572 Y112.42 E2.8905
G1 X157.889 Y112.576 E2.90225
G1 X157.889 Y106.432 E3.1066
G1 X157.214 Y106.723 E3.13105
G1 X156.461 Y106.96 E3.1573
G1 X155.687 Y107.119 E3.18358
G1 X154.902 Y107.2 E3.20983
G1 X154.5 Y107.21 E3.22321
G1 X92.9 Y107.211 E5.27203
G1 X92.414 Y107.42 E5.28963
G1 X91.661 Y107.657 E5.31588
G1 X90.887 Y107.816 E5.34216
G1 X90.102 Y107.897 E5.36841
G1 X89.703 Y107.907 E5.38169
G1 X80.503 Y107.91 E5.68768
G1 X79.714 Y107.87 E5.71396
G1 X78.933 Y107.751 E5.74023
G1 X78.169 Y107.553 E5.76648
G1 X77.428 Y107.28 E5.79275
G1 X77.11 Y107.124 E5.80453
G0 F6000 X76.71 Y106.459
G1 F1200 X76.711 Y113.937 E6.05325
G1 X76.753 Y113.909 E6.05493
G1 X77.436 Y113.554 E6.08053
G1 X78.151 Y113.273 E6.10608
G1 X78.893 Y113.067 E6.13169
G1 X79.651 Y112.939 E6.15726
G1 X80.5 Y112.89 E6.18555
G1 X142.174 Y112.889 E8.23683
G1 X142.236 Y112.857 E8.23915
G1 X142.951 Y112.576 E8.2647
G1 X143.693 Y112.37 E8.29032
G1 X144.451 Y112.242 E8.31588
G1 X145.298 Y112.193 E8.3441
G1 X154.498 Y112.19 E8.6501
G1 X155.266 Y112.23 E8.67567
G1 X156.026 Y112.349 E8.70126
G1 X156.769 Y112.546 E8.72683
G1 X157.488 Y112.82 E8.75242
G1 X158.174 Y113.167 E8.77799
G1 X158.289 Y113.241 E8.78254
G1 X158.289 Y105.763 E9.03125
G1 X158.247 Y105.791 E9.03293
G1 X157.564 Y106.146 E9.05854
G1 X156.849 Y106.427 E9.08409
G1 X156.107 Y106.633 E9.1097
G1 X155.349 Y106.761 E9.13527
G1 X154.5 Y106.81 E9.16355
G1 X92.826 Y106.811 E11.21484
G1 X92.764 Y106.843 E11.21716
G1 X92.049 Y107.124 E11.24271
G1 X91.307 Y107.33 E11.26832
G1 X90.549 Y107.458 E11.29389
G1 X89.702 Y107.507 E11.32211
G1 X80.502 Y107.51 E11.6281
G1 X79.734 Y107.47 E11.65368
G1 X78.974 Y107.351 E11.67927
G1 X78.231 Y107.154 E11.70483
G1 X77.512 Y106.88 E11.73042
G1 X76.826 Y106.533 E11.75599
G1 X76.71 Y106.459 E11.76057
G0 F6000 X76.31 Y105.718
G1 F1200 X76.311 Y114.693 E12.05908
G1 X76.498 Y114.547 E12.06697
G1 X77.134 Y114.152 E12.09187
G1 X77.808 Y113.828 E12.11674
G1 X78.513 Y113.578 E12.14162
G1 X79.241 Y113.404 E12.16652
G1 X79.983 Y113.309 E12.1914
G1 X80.5 Y113.29 E12.20861
G1 X142.279 Y113.289 E14.26338
G1 X142.608 Y113.131 E14.27552
G1 X143.313 Y112.881 E14.3004
G1 X144.041 Y112.707 E14.3253
G1 X144.783 Y112.612 E14.35018
G1 X145.298 Y112.593 E14.36732
G1 X154.498 Y112.59 E14.67331
G1 X155.245 Y112.63 E14.69819
G1 X155.983 Y112.749 E14.72306
G1 X156.705 Y112.946 E14.74795
G1 X157.401 Y113.22 E14.77283
G1 X158.064 Y113.565 E14.79768
G1 X158.689 Y113.982 E14.82267
G1 X158.689 Y105.007 E15.12118
G1 X158.502 Y105.153 E15.12908
G1 X157.866 Y105.548 E15.15398
G1 X157.192 Y105.872 E15.17885
G1 X156.487 Y106.122 E15.20373
G1 X155.759 Y106.296 E15.22862
G1 X155.017 Y106.391 E15.2535
G1 X154.5 Y106.41 E15.27071
G1 X92.721 Y106.411 E17.32549
G1 X92.392 Y106.569 E17.33763
G1 X91.687 Y106.819 E17.36251
G1 X90.959 Y106.993 E17.3874
G1 X90.217 Y107.088 E17.41228
G1 X89.702 Y107.107 E17.42942
G1 X80.502 Y107.11 E17.73542
G1 X79.755 Y107.07 E17.7603
G1 X79.017 Y106.951 E17.78516
G1 X78.295 Y106.754 E17.81005
G1 X77.599 Y106.48 E17.83493
G1 X76.936 Y106.135 E17.85979
G1 X76.31 Y105.718 E17.88481
G0 F6000 X75.91 Y104.852
G1 F1200 X75.911 Y115.558 E18.24089
G1 X76.299 Y115.199 E18.25847
G1 X76.884 Y114.769 E18.28262
G1 X77.513 Y114.405 E18.30679
G1 X78.178 Y114.112 E18.33096
G1 X78.871 Y113.894 E18.35512
G1 X79.583 Y113.754 E18.37926
G1 X80.5 Y113.69 E18.40983
G1 X142.356 Y113.689 E20.46717
G1 X142.978 Y113.415 E20.48978
G1 X143.671 Y113.197 E20.51394
G1 X144.383 Y113.057 E20.53807
G1 X145.298 Y112.993 E20.56858
G1 X154.498 Y112.99 E20.87457
G1 X155.223 Y113.03 E20.89872
G1 X155.94 Y113.149 E20.9229
G1 X156.639 Y113.346 E20.94705
G1 X157.312 Y113.619 E20.97121
G1 X157.951 Y113.964 E20.99536
G1 X158.548 Y114.377 E21.01951
G1 X159.089 Y114.847 E21.04334
G1 X159.089 Y104.143 E21.39936
G1 X158.701 Y104.501 E21.41692
G1 X158.116 Y104.931 E21.44107
G1 X157.487 Y105.295 E21.46524
G1 X156.822 Y105.588 E21.48941
G1 X156.129 Y105.806 E21.51357
G1 X155.417 Y105.946 E21.5377
G1 X154.5 Y106.01 E21.56828
G1 X92.644 Y106.011 E23.62562
G1 X92.022 Y106.285 E23.64822
G1 X91.329 Y106.503 E23.67239
G1 X90.617 Y106.643 E23.69652
G1 X89.702 Y106.707 E23.72703
G1 X80.502 Y106.71 E24.03302
G1 X79.777 Y106.67 E24.05717
G1 X79.06 Y106.551 E24.08134
G1 X78.361 Y106.354 E24.1055
G1 X77.688 Y106.081 E24.12965
G1 X77.049 Y105.736 E24.15381
G1 X76.452 Y105.323 E24.17795
G1 X75.91 Y104.852 E24.20184
G0 F6000 X75.51 Y103.777
G1 F1200 X75.511 Y116.626 E24.62919
G1 X75.685 Y116.384 E24.63911
G1 X76.159 Y115.863 E24.66254
G1 X76.689 Y115.399 E24.68596
G1 X77.268 Y114.999 E24.70937
G1 X77.889 Y114.667 E24.73279
G1 X78.543 Y114.407 E24.7562
G1 X79.223 Y114.223 E24.77963
G1 X79.919 Y114.117 E24.80305
G1 X80.5 Y114.09 E24.82239
G1 X142.466 Y114.089 E26.88339
G1 X142.689 Y113.97 E26.89179
G1 X143.343 Y113.71 E26.9152
G1 X144.023 Y113.526 E26.93863
G1 X144.719 Y113.42 E26.96205
G1 X145.298 Y113.393 E26.98133
G1 X154.498 Y113.39 E27.28732
G1 X155.201 Y113.43 E27.31074
G1 X155.895 Y113.549 E27.33416
G1 X156.571 Y113.746 E27.35758
G1 X157.22 Y114.018 E27.38098
G1 X157.834 Y114.363 E27.40441
G1 X158.405 Y114.774 E27.42781
G1 X158.926 Y115.248 E27.45124
G1 X159.389 Y115.778 E27.47464
G1 X159.489 Y115.923 E27.4805
G1 X159.489 Y103.074 E27.90786
G1 X159.315 Y103.316 E27.91777
G1 X158.841 Y103.837 E27.9412
G1 X158.311 Y104.301 E27.96463
G1 X157.732 Y104.701 E27.98804
G1 X157.111 Y105.033 E28.01146
G1 X156.457 Y105.293 E28.03487
G1 X155.777 Y105.477 E28.0583
G1 X155.081 Y105.583 E28.08171
G1 X154.5 Y105.61 E28.10106
G1 X92.534 Y105.611 E30.16205
G1 X92.311 Y105.73 E30.17046
G1 X91.657 Y105.99 E30.19387
G1 X90.977 Y106.174 E30.2173
G1 X90.281 Y106.28 E30.24072
G1 X89.702 Y106.307 E30.25999
G1 X80.502 Y106.31 E30.56599
G1 X79.799 Y106.27 E30.58941
G1 X79.105 Y106.151 E30.61283
G1 X78.429 Y105.954 E30.63625
G1 X77.78 Y105.682 E30.65965
G1 X77.166 Y105.337 E30.68307
G1 X76.595 Y104.926 E30.70647
G1 X76.074 Y104.452 E30.7299
G1 X75.611 Y103.922 E30.75331
G1 X75.51 Y103.777 E30.75919
G0 F6000 X75.11 Y102.237
G1 F1200 X75.111 Y118.163 E31.28889
G1 X75.328 Y117.664 E31.30698
G1 X75.672 Y117.076 E31.32964
G1 X76.082 Y116.532 E31.3523
G1 X76.553 Y116.041 E31.37493
G1 X77.078 Y115.607 E31.39758
G1 X77.65 Y115.238 E31.42022
G1 X78.262 Y114.939 E31.44288
G1 X78.904 Y114.714 E31.46551
G1 X79.569 Y114.565 E31.48817
G1 X80.5 Y114.49 E31.51924
G1 X142.556 Y114.489 E33.58323
G1 X143.062 Y114.242 E33.60196
G1 X143.704 Y114.017 E33.62458
G1 X144.369 Y113.868 E33.64725
G1 X145.298 Y113.793 E33.67825
G1 X154.498 Y113.79 E33.98424
G1 X155.178 Y113.83 E34.0069
G1 X155.848 Y113.949 E34.02953
G1 X156.5 Y114.146 E34.05218
G1 X157.124 Y114.418 E34.07482
G1 X157.712 Y114.761 E34.09747
G1 X158.256 Y115.171 E34.12012
G1 X158.748 Y115.641 E34.14275
G1 X159.182 Y116.166 E34.16541
G1 X159.551 Y116.738 E34.18805
G1 X159.85 Y117.35 E34.2107
G1 X159.889 Y117.462 E34.21465
G1 X159.889 Y101.538 E34.74428
G1 X159.672 Y102.036 E34.76235
G1 X159.328 Y102.624 E34.78501
G1 X158.918 Y103.168 E34.80767
G1 X158.447 Y103.659 E34.83029
G1 X157.922 Y104.093 E34.85295
G1 X157.35 Y104.462 E34.87559
G1 X156.738 Y104.761 E34.89824
G1 X156.096 Y104.986 E34.92087
G1 X155.431 Y105.135 E34.94354
G1 X154.5 Y105.21 E34.9746
G1 X92.444 Y105.211 E37.03859
G1 X91.938 Y105.458 E37.05732
G1 X91.296 Y105.683 E37.07995
G1 X90.631 Y105.832 E37.10261
G1 X89.702 Y105.907 E37.13361
G1 X80.502 Y105.91 E37.43961
G1 X79.822 Y105.87 E37.46226
G1 X79.152 Y105.751 E37.4849
G1 X78.5 Y105.554 E37.50755
G1 X77.876 Y105.282 E37.53019
G1 X77.288 Y104.939 E37.55283
G1 X76.744 Y104.529 E37.57549
G1 X76.252 Y104.059 E37.59812
G1 X75.818 Y103.534 E37.62077
G1 X75.449 Y102.962 E37.64341
G1 X75.15 Y102.35 E37.66607
G1 X75.11 Y102.237 E37.67006
G1 F2700 E32.67006
G0 F6000 X75.1 Y99.064
G1 F2700 E37.67006
G1 F1200 X75.14 Y98.408 E37.69192
G1 X75.259 Y97.762 E37.71376
G1 X75.456 Y97.135 E37.73562
G1 X75.728 Y96.537 E37.75747
G1 X76.07 Y95.976 E37.77933
G1 X76.478 Y95.461 E37.80118
G1 X76.945 Y94.999 E37.82303
G1 X77.465 Y94.598 E37.84487
G1 X78.029 Y94.262 E37.8667
G1 X78.631 Y93.998 E37.88857
G1 X79.26 Y93.808 E37.91042
G1 X79.907 Y93.697 E37.93225
G1 X80.501 Y93.664 E37.95204
G1 X88.029 Y93.664 E38.20242
G1 X88.631 Y93.4 E38.22429
G1 X89.26 Y93.21 E38.24614
G1 X89.907 Y93.099 E38.26797
G1 X90.5 Y93.066 E38.28773
G1 X154.5 Y93.065 E40.41638
G1 X155.156 Y93.105 E40.43824
G1 X155.802 Y93.224 E40.46008
G1 X156.428 Y93.421 E40.48191
G1 X157.027 Y93.693 E40.50379
G1 X157.588 Y94.035 E40.52564
G1 X158.103 Y94.442 E40.54748
G1 X158.564 Y94.91 E40.56933
G1 X158.966 Y95.43 E40.59119
G1 X159.302 Y95.994 E40.61302
G1 X159.566 Y96.596 E40.63489
G1 X159.756 Y97.225 E40.65674
G1 X159.867 Y97.872 E40.67857
G1 X159.9 Y98.465 E40.69833
G1 X159.9 Y99.41 E40.72976
G1 X159.86 Y100.066 E40.75162
G1 X159.741 Y100.712 E40.77347
G1 X159.544 Y101.339 E40.79532
G1 X159.272 Y101.937 E40.81717
G1 X158.93 Y102.498 E40.83903
G1 X158.522 Y103.013 E40.86088
G1 X158.055 Y103.475 E40.88273
G1 X157.535 Y103.876 E40.90457
G1 X156.971 Y104.212 E40.92641
G1 X156.369 Y104.476 E40.94827
G1 X155.74 Y104.666 E40.97012
G1 X155.093 Y104.777 E40.99196
G1 X154.5 Y104.81 E41.01171
G1 X92.336 Y104.811 E43.07929
G1 X92.171 Y104.909 E43.08568
G1 X91.569 Y105.173 E43.10754
G1 X90.94 Y105.363 E43.12939
G1 X90.293 Y105.474 E43.15123
G1 X89.702 Y105.507 E43.17092
G1 X80.502 Y105.51 E43.47691
G1 X79.846 Y105.47 E43.49877
G1 X79.2 Y105.351 E43.52062
G1 X78.573 Y105.155 E43.54246
G1 X77.975 Y104.883 E43.56431
G1 X77.414 Y104.541 E43.58617
G1 X76.899 Y104.134 E43.608
G1 X76.437 Y103.667 E43.62985
G1 X76.035 Y103.147 E43.65171
G1 X75.699 Y102.582 E43.67357
G1 X75.434 Y101.981 E43.69542
G1 X75.245 Y101.352 E43.71726
G1 X75.133 Y100.704 E43.73914
G1 X75.1 Y100.11 E43.75892
G1 X75.1 Y99.064 E43.79371
G0 F6000 X75.5 Y99.064
G1 F1200 X75.54 Y98.433 E43.81474
G1 X75.659 Y97.812 E43.83577
G1 X75.856 Y97.212 E43.85678
G1 X76.127 Y96.64 E43.87783
G1 X76.467 Y96.108 E43.89883
G1 X76.873 Y95.623 E43.91987
G1 X77.336 Y95.193 E43.94088
G1 X77.85 Y94.824 E43.96193
G1 X78.406 Y94.524 E43.98294
G1 X78.995 Y94.296 E44.00395
G1 X79.609 Y94.144 E44.02498
G1 X80.501 Y94.064 E44.05477
G1 X88.149 Y94.065 E44.30915
G1 X88.406 Y93.926 E44.31886
G1 X88.995 Y93.698 E44.33987
G1 X89.609 Y93.546 E44.36091
G1 X90.5 Y93.466 E44.39066
G1 X154.5 Y93.465 E46.51931
G1 X155.131 Y93.505 E46.54034
G1 X155.752 Y93.624 E46.56137
G1 X156.352 Y93.821 E46.58237
G1 X156.924 Y94.092 E46.60343
G1 X157.456 Y94.432 E46.62443
G1 X157.941 Y94.838 E46.64546
G1 X158.371 Y95.301 E46.66648
G1 X158.74 Y95.815 E46.68752
G1 X159.04 Y96.371 E46.70854
G1 X159.268 Y96.96 E46.72954
G1 X159.42 Y97.574 E46.75058
G1 X159.5 Y98.465 E46.78034
G1 X159.5 Y99.41 E46.81177
G1 X159.46 Y100.041 E46.8328
G1 X159.341 Y100.662 E46.85383
G1 X159.144 Y101.262 E46.87483
G1 X158.873 Y101.834 E46.89588
G1 X158.533 Y102.366 E46.91688
G1 X158.127 Y102.851 E46.93792
G1 X157.664 Y103.281 E46.95894
G1 X157.15 Y103.65 E46.97998
G1 X156.594 Y103.95 E47.00099
G1 X156.005 Y104.178 E47.022
G1 X155.391 Y104.33 E47.04304
G1 X154.5 Y104.41 E47.07279
G1 X92.231 Y104.411 E49.14387
G1 X91.794 Y104.647 E49.16039
G1 X91.205 Y104.875 E49.18139
G1 X90.591 Y105.027 E49.20243
G1 X89.702 Y105.107 E49.23212
G1 X80.502 Y105.11 E49.53811
G1 X79.871 Y105.07 E49.55914
G1 X79.25 Y104.951 E49.58017
G1 X78.649 Y104.755 E49.6012
G1 X78.078 Y104.484 E49.62222
G1 X77.545 Y104.144 E49.64325
G1 X77.06 Y103.738 E49.66428
G1 X76.63 Y103.275 E49.6853
G1 X76.261 Y102.762 E49.70632
G1 X75.96 Y102.206 E49.72735
G1 X75.732 Y101.616 E49.74838
G1 X75.58 Y101.003 E49.76939
G1 X75.5 Y100.11 E49.79921
G1 X75.5 Y99.064 E49.834
G0 F6000 X75.9 Y99.064
G1 F1200 X75.94 Y98.459 E49.85417
G1 X76.059 Y97.865 E49.87432
G1 X76.255 Y97.291 E49.89449
G1 X76.526 Y96.748 E49.91467
G1 X76.865 Y96.245 E49.93485
G1 X77.267 Y95.792 E49.95499
G1 X77.725 Y95.395 E49.97515
G1 X78.232 Y95.062 E49.99533
G1 X78.778 Y94.798 E50.0155
G1 X79.354 Y94.609 E50.03566
G1 X79.95 Y94.497 E50.05583
G1 X80.5 Y94.464 E50.07416
G1 X88.232 Y94.464 E50.33133
G1 X88.778 Y94.2 E50.3515
G1 X89.354 Y94.011 E50.37166
G1 X89.95 Y93.899 E50.39183
G1 X90.5 Y93.866 E50.41016
G1 X154.5 Y93.865 E52.5388
G1 X155.105 Y93.905 E52.55897
G1 X155.699 Y94.024 E52.57912
G1 X156.273 Y94.22 E52.59929
G1 X156.816 Y94.49 E52.61946
G1 X157.318 Y94.83 E52.63963
G1 X157.772 Y95.232 E52.6598
G1 X158.169 Y95.69 E52.67996
G1 X158.502 Y96.197 E52.70013
G1 X158.765 Y96.743 E52.72029
G1 X158.955 Y97.319 E52.74046
G1 X159.067 Y97.915 E52.76063
G1 X159.1 Y98.465 E52.77896
G1 X159.1 Y99.41 E52.81039
G1 X159.06 Y100.015 E52.83056
G1 X158.941 Y100.609 E52.8507
G1 X158.745 Y101.183 E52.87088
G1 X158.474 Y101.726 E52.89106
G1 X158.135 Y102.229 E52.91124
G1 X157.733 Y102.682 E52.93138
G1 X157.275 Y103.079 E52.95154
G1 X156.768 Y103.412 E52.97172
G1 X156.222 Y103.676 E52.99189
G1 X155.646 Y103.865 E53.01205
G1 X155.05 Y103.977 E53.03222
G1 X154.5 Y104.01 E53.05055
G1 X92.117 Y104.011 E55.12541
G1 X91.968 Y104.109 E55.13134
G1 X91.422 Y104.373 E55.15152
G1 X90.846 Y104.562 E55.17168
G1 X90.25 Y104.674 E55.19185
G1 X89.701 Y104.707 E55.21014
G1 X80.501 Y104.71 E55.51613
G1 X79.897 Y104.67 E55.53627
G1 X79.302 Y104.551 E55.55645
G1 X78.728 Y104.355 E55.57662
G1 X78.185 Y104.085 E55.59679
G1 X77.683 Y103.746 E55.61694
G1 X77.229 Y103.344 E55.63711
G1 X76.832 Y102.886 E55.65727
G1 X76.499 Y102.379 E55.67744
G1 X76.235 Y101.833 E55.69761
G1 X76.045 Y101.258 E55.71776
G1 X75.933 Y100.662 E55.73793
G1 X75.9 Y100.11 E55.75632
G1 X75.9 Y99.064 E55.79111
G0 F6000 X76.3 Y99.064
G1 F1200 X76.34 Y98.486 E55.81038
G1 X76.459 Y97.919 E55.82965
G1 X76.655 Y97.374 E55.84891
G1 X76.924 Y96.861 E55.86818
G1 X77.261 Y96.39 E55.88744
G1 X77.66 Y95.97 E55.90671
G1 X78.113 Y95.608 E55.92599
G1 X78.611 Y95.313 E55.94525
G1 X79.145 Y95.088 E55.96452
G1 X79.705 Y94.94 E55.98378
G1 X80.5 Y94.864 E56.01035
G1 X88.358 Y94.865 E56.27171
G1 X88.611 Y94.715 E56.28149
G1 X89.145 Y94.49 E56.30076
G1 X89.705 Y94.342 E56.32003
G1 X90.5 Y94.266 E56.34659
G1 X154.5 Y94.265 E58.47524
G1 X155.078 Y94.305 E58.49451
G1 X155.645 Y94.424 E58.51378
G1 X156.19 Y94.62 E58.53304
G1 X156.703 Y94.889 E58.55231
G1 X157.174 Y95.226 E58.57157
G1 X157.594 Y95.625 E58.59084
G1 X157.956 Y96.078 E58.61012
G1 X158.251 Y96.576 E58.62937
G1 X158.475 Y97.11 E58.64863
G1 X158.624 Y97.67 E58.66791
G1 X158.7 Y98.465 E58.69447
G1 X158.7 Y99.41 E58.7259
G1 X158.66 Y99.988 E58.74517
G1 X158.541 Y100.555 E58.76444
G1 X158.345 Y101.1 E58.7837
G1 X158.076 Y101.613 E58.80297
G1 X157.739 Y102.084 E58.82223
G1 X157.34 Y102.504 E58.8415
G1 X156.887 Y102.866 E58.86079
G1 X156.389 Y103.161 E58.88004
G1 X155.855 Y103.386 E58.89931
G1 X155.295 Y103.534 E58.91858
G1 X154.5 Y103.61 E58.94514
