;FLAVOR:Marlin
;TIME:2895
;Filament used: 2.01633m
;Layer height: 0.2
;MINX:48.04
;MINY:53.22
;MINZ:0.2
;MAXX:186.973
;MAXY:186.96
;MAXZ:2
;Generated with Cura_SteamEngine 5.0.0
M140 S70
M105
M190 S70
M104 S200
M105
M109 S200
M82 ;absolute extrusion mode
; Ender 3 Custom Start G-code
G28 ; Home all axes
M420 S1; Bed Leveling On
G92 E0 ; Reset Extruder
G1 Z2.0 F3000 ; Move Z Axis up little to prevent scratching of Heat Bed
G1 X0.1 Y20 Z0.3 F5000.0 ; Move to start position
G1 X0.1 Y200.0 Z0.3 F1500.0 E15 ; Draw the first line
G1 X0.4 Y200.0 Z0.3 F5000.0 ; Move to side a little
G1 X0.4 Y20 Z0.3 F1500.0 E30 ; Draw the second line
G92 E0 ; Reset Extruder
G1 Z2.0 F3000 ; Move Z Axis up little to prevent scratching of Heat Bed
G1 X5 Y20 Z0.3 F5000.0 ; Move over to prevent blob squish
G92 E0
G92 E0
G1 F2700 E-5
;LAYER_COUNT:10
;LAYER:0
M107
G0 F6000 X60.179 Y56.806 Z0.2
;TYPE:SKIRT
G1 F2700 E0
G1 F900 X60.662 Y56.336 E0.02242
G1 X61.361 Y55.712 E0.05358
G1 X62.111 Y55.149 E0.08477
G1 X62.907 Y54.652 E0.11598
G1 X63.741 Y54.224 E0.14716
G1 X64.609 Y53.869 E0.17835
G1 X65.505 Y53.59 E0.20957
G1 X66.421 Y53.388 E0.24076
G1 X67.35 Y53.264 E0.27194
G1 X68.287 Y53.22 E0.30314
G1 X69.224 Y53.256 E0.33432
G1 X70.155 Y53.372 E0.36553
G1 X71.463 Y53.675 E0.41018
G1 X73.902 Y54.399 E0.4948
G1 X76.376 Y55.059 E0.57997
G1 X78.828 Y55.639 E0.66377
G1 X81.263 Y56.144 E0.74648
G1 X83.865 Y56.607 E0.83439
G1 X84.78 Y56.811 E0.86557
G1 X85.675 Y57.092 E0.89677
G1 X86.543 Y57.448 E0.92797
G1 X87.377 Y57.877 E0.95916
G1 X88.171 Y58.375 E0.99034
G1 X88.921 Y58.939 E1.02155
G1 X89.485 Y59.436 E1.04655
G1 X89.962 Y59.893 E1.06852
G1 X133.195 Y103.126 E3.10207
G1 X134.54 Y104.48 E3.16555
G1 X135.242 Y105.172 E3.19833
G1 X178.451 Y148.383 E5.2308
G1 X179.695 Y149.662 E5.29014
G1 X182.507 Y152.436 E5.42152
G1 X183.399 Y153.329 E5.4635
G1 X183.872 Y153.817 E5.4861
G1 X184.495 Y154.518 E5.5173
G1 X185.057 Y155.269 E5.54849
G1 X185.552 Y156.065 E5.57967
G1 X185.978 Y156.901 E5.61088
G1 X186.331 Y157.77 E5.64207
G1 X186.609 Y158.666 E5.67328
G1 X186.809 Y159.582 E5.70446
G1 X186.931 Y160.512 E5.73566
G1 X186.973 Y161.449 E5.76685
G1 X186.935 Y162.386 E5.79804
G1 X186.817 Y163.316 E5.82922
G1 X186.621 Y164.233 E5.86041
G1 X186.347 Y165.13 E5.89161
G1 X185.998 Y166.001 E5.92282
G1 X185.576 Y166.838 E5.95399
G1 X185.084 Y167.637 E5.9852
G1 X184.526 Y168.39 E6.01637
G1 X183.975 Y169.021 E6.04424
G1 X183.518 Y169.498 E6.06621
G1 X169.614 Y183.4 E6.72016
G1 X169.123 Y183.874 E6.74286
G1 X168.421 Y184.496 E6.77406
G1 X167.669 Y185.056 E6.80524
G1 X166.871 Y185.55 E6.83646
G1 X166.035 Y185.974 E6.86763
G1 X165.165 Y186.325 E6.89884
G1 X164.269 Y186.601 E6.93002
G1 X163.352 Y186.8 E6.96123
G1 X162.422 Y186.92 E6.99242
G1 X161.485 Y186.96 E7.02361
G1 X160.548 Y186.92 E7.0548
G1 X159.618 Y186.801 E7.08599
G1 X158.701 Y186.602 E7.1172
G1 X157.805 Y186.327 E7.14837
G1 X156.935 Y185.976 E7.17957
G1 X156.098 Y185.552 E7.21078
G1 X155.301 Y185.058 E7.24197
G1 X154.548 Y184.499 E7.27316
G1 X153.912 Y183.94 E7.30132
G1 X153.471 Y183.516 E7.32167
G1 X51.598 Y81.641 E12.11351
G1 X51.132 Y81.159 E12.13581
G1 X50.509 Y80.457 E12.16703
G1 X49.949 Y79.705 E12.19821
G1 X49.454 Y78.908 E12.22942
G1 X49.029 Y78.072 E12.26061
G1 X48.677 Y77.203 E12.29179
G1 X48.401 Y76.307 E12.32297
G1 X48.201 Y75.39 E12.35419
G1 X48.081 Y74.46 E12.38538
G1 X48.04 Y73.523 E12.41657
G1 X48.079 Y72.586 E12.44777
G1 X48.198 Y71.656 E12.47895
G1 X48.395 Y70.739 E12.51015
G1 X48.67 Y69.843 E12.54132
G1 X49.021 Y68.973 E12.57252
G1 X49.444 Y68.136 E12.60371
G1 X49.937 Y67.338 E12.63491
G1 X50.496 Y66.585 E12.6661
G1 X51.03 Y65.974 E12.69309
G1 X51.47 Y65.514 E12.71426
G1 X60.179 Y56.806 E13.12389
G0 F6000 X60.458 Y57.093
G1 F900 X60.941 Y56.623 E13.1463
G1 X61.628 Y56.01 E13.17692
G1 X62.365 Y55.459 E13.20753
G1 X63.148 Y54.975 E13.23815
G1 X63.97 Y54.56 E13.26877
G1 X64.825 Y54.217 E13.29941
G1 X65.706 Y53.951 E13.33002
G1 X66.607 Y53.762 E13.36064
G1 X67.521 Y53.651 E13.39126
G1 X68.441 Y53.621 E13.42188
G1 X69.36 Y53.67 E13.45249
G1 X70.272 Y53.799 E13.48312
G1 X71.349 Y54.058 E13.51997
G1 X73.833 Y54.795 E13.60615
G1 X76.244 Y55.439 E13.68915
G1 X78.768 Y56.035 E13.7754
G1 X81.176 Y56.535 E13.8572
G1 X83.795 Y57.001 E13.94568
G1 X84.693 Y57.202 E13.97629
G1 X85.571 Y57.48 E14.00692
G1 X86.421 Y57.833 E14.03753
G1 X87.238 Y58.258 E14.06816
G1 X88.014 Y58.753 E14.09877
G1 X88.745 Y59.313 E14.1294
G1 X89.211 Y59.727 E14.15013
G1 X89.679 Y60.176 E14.1717
G1 X132.911 Y103.408 E16.20521
G1 X134.235 Y104.74 E16.26767
G1 X134.959 Y105.455 E16.30151
G1 X178.164 Y148.662 E18.33379
G1 X179.41 Y149.943 E18.39323
G1 X182.226 Y152.721 E18.52479
G1 X183.111 Y153.608 E18.56647
G1 X183.584 Y154.096 E18.58907
G1 X184.196 Y154.784 E18.6197
G1 X184.745 Y155.523 E18.65032
G1 X185.229 Y156.306 E18.68094
G1 X185.642 Y157.129 E18.71156
G1 X185.982 Y157.984 E18.74216
G1 X186.247 Y158.866 E18.7728
G1 X186.435 Y159.767 E18.80341
G1 X186.543 Y160.681 E18.83402
G1 X186.572 Y161.602 E18.86467
G1 X186.521 Y162.521 E18.89528
G1 X186.39 Y163.432 E18.92589
G1 X186.181 Y164.329 E18.95653
G1 X185.895 Y165.204 E18.98714
G1 X185.534 Y166.051 E19.01777
G1 X185.1 Y166.863 E19.04839
G1 X184.598 Y167.635 E19.07902
G1 X184.031 Y168.36 E19.10963
G1 X183.684 Y168.747 E19.12692
G1 X183.235 Y169.215 E19.14849
G1 X169.336 Y183.112 E19.80221
G1 X168.845 Y183.586 E19.82491
G1 X168.156 Y184.196 E19.85551
G1 X167.416 Y184.744 E19.88614
G1 X166.631 Y185.226 E19.91678
G1 X165.808 Y185.638 E19.94739
G1 X164.952 Y185.976 E19.978
G1 X164.069 Y186.24 E20.00865
G1 X163.168 Y186.425 E20.03925
G1 X162.253 Y186.532 E20.06989
G1 X161.333 Y186.559 E20.1005
G1 X160.414 Y186.506 E20.13112
G1 X159.503 Y186.373 E20.16174
G1 X158.607 Y186.162 E20.19235
G1 X157.732 Y185.874 E20.22299
G1 X156.886 Y185.511 E20.25361
G1 X156.075 Y185.076 E20.28422
G1 X155.304 Y184.573 E20.31484
G1 X154.58 Y184.004 E20.34547
G1 X154.187 Y183.65 E20.36306
G1 X153.754 Y183.233 E20.38305
G1 X51.885 Y81.363 E25.17468
G1 X51.419 Y80.881 E25.19698
G1 X50.809 Y80.192 E25.22759
G1 X50.26 Y79.452 E25.25823
G1 X49.778 Y78.668 E25.28884
G1 X49.366 Y77.845 E25.31945
G1 X49.026 Y76.989 E25.35009
G1 X48.762 Y76.107 E25.38071
G1 X48.576 Y75.205 E25.41134
G1 X48.469 Y74.291 E25.44195
G1 X48.441 Y73.371 E25.47256
G1 X48.493 Y72.452 E25.50318
G1 X48.625 Y71.541 E25.53379
G1 X48.836 Y70.644 E25.56444
G1 X49.123 Y69.77 E25.59504
G1 X49.485 Y68.923 E25.62568
G1 X49.92 Y68.111 E25.65631
G1 X50.423 Y67.34 E25.68693
G1 X50.991 Y66.616 E25.71754
G1 X51.529 Y66.027 E25.74407
G1 X60.458 Y57.093 E26.16418
G0 F6000 X60.737 Y57.38
G1 F900 X61.22 Y56.91 E26.1866
G1 X61.894 Y56.309 E26.21663
G1 X62.619 Y55.771 E26.24666
G1 X63.389 Y55.298 E26.27672
G1 X64.197 Y54.896 E26.30673
G1 X65.038 Y54.567 E26.33677
G1 X65.905 Y54.313 E26.36682
G1 X66.791 Y54.137 E26.39686
G1 X67.689 Y54.04 E26.4269
G1 X68.592 Y54.023 E26.45694
G1 X69.493 Y54.086 E26.48698
G1 X70.384 Y54.228 E26.51699
G1 X71.235 Y54.442 E26.54618
G1 X73.687 Y55.17 E26.63125
G1 X76.154 Y55.829 E26.71618
G1 X78.666 Y56.422 E26.80202
G1 X81.137 Y56.934 E26.88596
G1 X83.724 Y57.395 E26.97336
G1 X84.606 Y57.593 E27.00342
G1 X85.466 Y57.867 E27.03344
G1 X86.299 Y58.217 E27.06349
G1 X87.097 Y58.639 E27.09352
G1 X87.855 Y59.13 E27.12356
G1 X88.567 Y59.686 E27.1536
G1 X89.184 Y60.252 E27.18145
G1 X132.627 Y103.69 E29.22476
G1 X133.954 Y105.025 E29.28737
G1 X134.677 Y105.738 E29.32114
G1 X177.877 Y148.941 E31.3532
G1 X179.125 Y150.224 E31.41274
G1 X181.945 Y153.006 E31.54449
G1 X182.824 Y153.886 E31.58586
G1 X183.297 Y154.374 E31.60846
G1 X183.896 Y155.05 E31.6385
G1 X184.434 Y155.776 E31.66856
G1 X184.904 Y156.546 E31.69856
G1 X185.305 Y157.356 E31.72862
G1 X185.633 Y158.197 E31.75865
G1 X185.885 Y159.065 E31.78871
G1 X186.059 Y159.951 E31.81874
G1 X186.154 Y160.849 E31.84877
G1 X186.169 Y161.752 E31.87881
G1 X186.105 Y162.653 E31.90885
G1 X185.961 Y163.544 E31.93887
G1 X185.738 Y164.419 E31.96891
G1 X185.439 Y165.272 E31.99897
G1 X185.066 Y166.094 E32.02899
G1 X184.622 Y166.88 E32.05902
G1 X184.11 Y167.624 E32.08906
G1 X183.393 Y168.472 E32.12599
G1 X182.952 Y168.932 E32.14719
G1 X169.058 Y182.824 E32.80067
G1 X168.567 Y183.298 E32.82337
G1 X167.89 Y183.896 E32.85341
G1 X167.163 Y184.432 E32.88346
G1 X166.392 Y184.901 E32.91347
G1 X165.582 Y185.3 E32.9435
G1 X164.739 Y185.626 E32.97356
G1 X163.872 Y185.876 E33.00358
G1 X162.985 Y186.049 E33.03363
G1 X162.087 Y186.142 E33.06366
G1 X161.184 Y186.156 E33.0937
G1 X160.283 Y186.089 E33.12375
G1 X159.392 Y185.943 E33.15378
G1 X158.517 Y185.719 E33.18382
G1 X157.665 Y185.419 E33.21386
G1 X156.844 Y185.044 E33.24388
G1 X156.058 Y184.598 E33.27394
G1 X155.316 Y184.084 E33.30396
G1 X154.463 Y183.36 E33.34118
G1 X154.037 Y182.95 E33.36084
G1 X52.173 Y81.085 E38.15223
G1 X51.707 Y80.603 E38.17453
G1 X51.108 Y79.926 E38.2046
G1 X50.572 Y79.2 E38.23461
G1 X50.102 Y78.428 E38.26467
G1 X49.703 Y77.619 E38.29468
G1 X49.376 Y76.777 E38.32472
G1 X49.125 Y75.909 E38.35477
G1 X48.952 Y75.023 E38.3848
G1 X48.858 Y74.124 E38.41486
G1 X48.844 Y73.221 E38.4449
G1 X48.91 Y72.321 E38.47491
G1 X49.055 Y71.429 E38.50497
G1 X49.279 Y70.554 E38.53501
G1 X49.579 Y69.702 E38.56505
G1 X49.953 Y68.88 E38.59509
G1 X50.398 Y68.095 E38.6251
G1 X50.911 Y67.352 E38.65513
G1 X51.612 Y66.522 E38.69127
G1 X52.036 Y66.08 E38.71164
G1 X60.737 Y57.38 E39.12088
G1 F2700 E34.12088
;MESH:Front_Spar_Inner.stl
G0 F6000 X81.329 Y67.101
G0 X81.941 Y67.712
;TYPE:WALL-OUTER
G1 F2700 E39.12088
G1 F900 X74.754 Y74.898 E39.45892
G1 X74.613 Y74.945 E39.46386
G1 X74.482 Y74.887 E39.46862
G1 X73.068 Y73.473 E39.53513
G1 X73.01 Y73.312 E39.54083
G1 X73.068 Y73.189 E39.54535
G1 X75.047 Y71.21 E39.63843
G1 X68.331 Y64.493 E39.95436
G1 X59.309 Y73.515 E40.37873
G1 X161.485 Y175.691 E45.18477
G1 X175.703 Y161.473 E45.85354
G1 X175.138 Y160.908 E45.88012
G1 X174.573 Y160.343 E45.90669
G1 X167.468 Y167.448 E46.24089
G1 X167.355 Y167.505 E46.2451
G1 X167.184 Y167.448 E46.2511
G1 X163.648 Y163.912 E46.41742
G1 X163.59 Y163.754 E46.42302
G1 X163.648 Y163.628 E46.42763
G1 X170.753 Y156.523 E46.76183
G1 X127.196 Y112.966 E48.81062
G1 X120.08 Y120.082 E49.14533
G1 X119.939 Y120.129 E49.15027
G1 X119.808 Y120.071 E49.15504
G1 X118.393 Y118.657 E49.22157
G1 X118.335 Y118.499 E49.22717
G1 X118.393 Y118.373 E49.23178
G1 X125.498 Y111.269 E49.56596
G1 X81.941 Y67.712 E51.61475
G1 F2700 E46.61475
G0 F6000 X81.329 Y67.101
G0 X74.134 Y73.331
G0 X72.785 Y72.906
;TYPE:WALL-INNER
G1 F2700 E51.61475
G1 F900 X74.481 Y71.21 E51.69452
G1 X68.331 Y65.059 E51.98382
G1 X59.875 Y73.515 E52.38157
G1 X110.591 Y124.231 E54.76709
G1 X161.485 Y175.125 E57.16099
G1 X167.372 Y169.238 E57.43789
G1 X167.844 Y168.768 E57.46005
G1 X168.314 Y168.295 E57.48223
G1 X175.137 Y161.473 E57.80314
G1 X174.855 Y161.191 E57.8164
G1 X174.573 Y160.909 E57.82967
G1 X167.751 Y167.731 E58.15055
G1 X167.412 Y167.901 E58.16316
G1 X167.097 Y167.862 E58.17372
G1 X166.901 Y167.731 E58.18156
G1 X163.365 Y164.195 E58.34789
G1 X163.222 Y163.966 E58.35686
G1 X163.191 Y163.722 E58.36505
G1 X163.27 Y163.469 E58.37386
G1 X163.365 Y163.345 E58.37906
G1 X170.187 Y156.523 E58.69994
G1 X127.196 Y113.532 E60.72211
G1 X120.375 Y120.354 E61.04297
G1 X120.138 Y120.5 E61.05223
G1 X119.837 Y120.519 E61.06226
G1 X119.605 Y120.421 E61.07064
G1 X119.525 Y120.354 E61.07411
G1 X118.11 Y118.94 E61.14064
G1 X117.967 Y118.711 E61.14962
G1 X117.936 Y118.467 E61.1578
G1 X118.015 Y118.214 E61.16662
G1 X118.11 Y118.09 E61.17181
G1 X124.932 Y111.269 E61.49267
G1 X81.941 Y68.278 E63.51484
G1 X75.049 Y75.17 E63.83902
G1 X74.812 Y75.316 E63.84828
G1 X74.511 Y75.335 E63.85831
G1 X74.279 Y75.237 E63.86668
G1 X74.199 Y75.17 E63.87015
G1 X72.785 Y73.756 E63.93666
G1 X72.64 Y73.52 E63.94588
G1 X72.612 Y73.276 E63.95405
G1 X72.694 Y73.023 E63.96289
G1 X72.785 Y72.906 E63.96782
G0 F6000 X72.539 Y72.643
;TYPE:SKIN
G1 F900 X73.971 Y71.211 E64.03518
G1 X68.331 Y65.569 E64.30051
G1 X60.385 Y73.515 E64.67427
G1 X161.485 Y174.614 E69.42968
G1 X167.664 Y168.434 E69.72034
G1 F839.2 X167.99 Y168.068 E69.73783
G1 F772.5 X168.039 Y168.007 E69.74086
G1 F791.2 X167.781 Y168.122 E69.75155
G1 F861.2 X167.523 Y168.237 E69.76136
G1 F900 X167.408 Y168.256 E69.76524
G1 X167.008 Y168.207 E69.77864
G1 X166.674 Y168.007 E69.79159
G1 X166.645 Y167.983 E69.79285
G1 X163.11 Y164.448 E69.95912
G1 X162.955 Y164.243 E69.96767
G1 X162.837 Y163.862 E69.98093
G1 X162.869 Y163.503 E69.99292
G1 X163.035 Y163.18 E70.005
G1 X163.111 Y163.094 E70.00882
G1 X169.677 Y156.524 E70.31776
G1 X127.196 Y114.041 E72.31598
G1 X120.611 Y120.626 E72.62572
G1 X120.381 Y120.786 E72.63504
G1 X120.057 Y120.881 E72.64627
G1 X119.676 Y120.846 E72.65899
G1 X119.304 Y120.635 E72.67322
G1 X119.268 Y120.607 E72.67473
G1 X117.855 Y119.193 E72.74122
G1 X117.7 Y118.988 E72.74977
G1 X117.582 Y118.607 E72.76303
G1 X117.614 Y118.248 E72.77502
G1 X117.78 Y117.925 E72.7871
G1 X117.855 Y117.84 E72.79087
G1 X124.422 Y111.27 E73.09983
G1 X81.941 Y68.788 E75.09803
G1 X75.292 Y75.436 E75.41076
G1 X75.052 Y75.602 E75.42046
G1 X74.731 Y75.697 E75.4316
G1 X74.35 Y75.662 E75.44432
G1 X73.978 Y75.451 E75.45855
G1 X73.942 Y75.423 E75.46006
G1 X72.53 Y74.009 E75.52653
G1 X72.37 Y73.795 E75.53541
G1 X72.256 Y73.41 E75.54877
G1 X72.296 Y73.044 E75.56102
G1 X72.512 Y72.676 E75.57521
G1 X72.539 Y72.643 E75.57663
G1 F2700 E70.57663
G0 F6000 X74.134 Y73.331
G0 X81.942 Y66.504
G0 X171.961 Y156.523
G0 X167.326 Y166.382
G0 X168.039 Y168.007
G1 F2700 E75.57663
G1 F759.5 X170.217 Y165.829 E75.69802
G1 F757.9 X172.395 Y163.651 E75.81968
G1 X174.573 Y161.473 E75.94134
G1 F2700 E70.94134
G0 F6000 X173.395 Y160.296
G0 X171.961 Y156.523
G0 X127.197 Y111.758
G0 X125.692 Y113.247
G0 X126.982 Y114.537
G1 F2700 E75.94134
G1 F900 X169.181 Y156.736 E77.92625
G0 F6000 X168.898 Y157.019
G1 F900 X126.699 Y114.819 E79.91118
G0 F6000 X126.416 Y115.102
G1 F900 X168.615 Y157.302 E81.89612
G0 F6000 X168.333 Y157.585
G1 F900 X126.133 Y115.385 E83.88108
G0 F6000 X125.85 Y115.668
G1 F900 X168.05 Y157.868 E85.86603
G0 F6000 X167.768 Y158.151
G1 F900 X125.568 Y115.951 E87.85099
G0 F6000 X125.285 Y116.234
G1 F900 X167.485 Y158.434 E89.83595
G0 F6000 X167.202 Y158.717
G1 F900 X125.002 Y116.517 E91.82091
G0 F6000 X124.719 Y116.799
G1 F900 X166.919 Y159 E93.80589
G0 F6000 X166.637 Y159.283
G1 F900 X124.436 Y117.082 E95.7909
G0 F6000 X124.153 Y117.365
G1 F900 X166.354 Y159.566 E97.7759
G0 F6000 X166.071 Y159.849
G1 F900 X123.87 Y117.648 E99.76091
G0 F6000 X123.588 Y117.931
G1 F900 X165.788 Y160.132 E101.74589
G0 F6000 X165.506 Y160.414
G1 F900 X123.305 Y118.214 E103.73087
G0 F6000 X123.022 Y118.496
G1 F900 X165.223 Y160.698 E105.7159
G0 F6000 X164.941 Y160.981
G1 F900 X122.739 Y118.779 E107.70096
G0 F6000 X122.456 Y119.062
G1 F900 X164.658 Y161.264 E109.68601
G0 F6000 X164.375 Y161.547
G1 F900 X122.173 Y119.345 E111.67106
G0 F6000 X121.891 Y119.628
G1 F900 X164.093 Y161.83 E113.65611
G0 F6000 X163.81 Y162.113
G1 F900 X121.608 Y119.911 E115.64117
G0 F6000 X121.325 Y120.194
G1 F900 X163.527 Y162.396 E117.62622
G0 F6000 X163.244 Y162.679
G1 F900 X121.042 Y120.476 E119.61129
G0 F6000 X120.759 Y120.759
G1 F900 X162.961 Y162.961 E121.59635
G0 F6000 X162.737 Y163.303
G1 F900 X120.413 Y120.979 E123.58714
G0 F6000 X119.947 Y121.079
G1 F900 X162.636 Y163.768 E125.5951
G1 F2700 E120.5951
G0 F6000 X164.714 Y163.77
G0 X174.573 Y159.134
G0 X176.911 Y161.473
G0 X168.352 Y170.048
G0 X167.058 Y168.755
G1 F2700 E125.5951
G1 F900 X73.991 Y75.688 E129.97268
G0 F6000 X74.755 Y75.886
G1 F900 X117.381 Y118.513 E131.9777
G0 F6000 X117.482 Y118.048
G1 F900 X75.176 Y75.741 E133.96767
G0 F6000 X75.504 Y75.504
G1 F900 X117.706 Y117.706 E135.95273
G0 F6000 X117.989 Y117.423
G1 F900 X75.788 Y75.222 E137.93773
G0 F6000 X76.071 Y74.939
G1 F900 X118.272 Y117.14 E139.92274
G0 F6000 X118.554 Y116.857
G1 F900 X76.354 Y74.657 E141.9077
G0 F6000 X76.636 Y74.374
G1 F900 X118.837 Y116.575 E143.8927
G0 F6000 X119.12 Y116.292
G1 F900 X76.919 Y74.091 E145.87771
G0 F6000 X77.202 Y73.808
G1 F900 X119.403 Y116.009 E147.86271
G0 F6000 X119.686 Y115.726
G1 F900 X77.485 Y73.525 E149.84772
G0 F6000 X77.768 Y73.242
