;FLAVOR:Marlin
;TIME:2525
;Filament used: 1.65256m
;Layer height: 0.2
;MINX:55.669
;MINY:55.693
;MINZ:0.2
;MAXX:179.286
;MAXY:179.313
;MAXZ:5.4
;Generated with Cura_SteamEngine 5.0.0
M140 S70
M105
M190 S70
M104 S200
M105
M109 S200
M82 ;absolute extrusion mode
; Ender 3 Custom Start G-code
G28 ; Home all axes
M420 S1; Bed Leveling On
G92 E0 ; Reset Extruder
G1 Z2.0 F3000 ; Move Z Axis up little to prevent scratching of Heat Bed
G1 X0.1 Y20 Z0.3 F5000.0 ; Move to start position
G1 X0.1 Y200.0 Z0.3 F1500.0 E15 ; Draw the first line
G1 X0.4 Y200.0 Z0.3 F5000.0 ; Move to side a little
G1 X0.4 Y20 Z0.3 F1500.0 E30 ; Draw the second line
G92 E0 ; Reset Extruder
G1 Z2.0 F3000 ; Move Z Axis up little to prevent scratching of Heat Bed
G1 X5 Y20 Z0.3 F5000.0 ; Move over to prevent blob squish
G92 E0
G92 E0
G1 F2700 E-5
;LAYER_COUNT:27
;LAYER:0
M107
G0 F6000 X60.779 Y60.95 Z0.2
G0 X55.669 Y73.334
;TYPE:SKIRT
G1 F2700 E0
G1 F900 X55.688 Y72.642 E0.02302
G1 X55.725 Y72.014 E0.04395
G1 X55.792 Y71.289 E0.06816
G1 X55.834 Y70.955 E0.07936
G1 X55.938 Y70.29 E0.10175
G1 X56.026 Y69.823 E0.11755
G1 X56.239 Y68.909 E0.14877
G1 X56.349 Y68.514 E0.16241
G1 X56.538 Y67.905 E0.18361
G1 X56.735 Y67.329 E0.20386
G1 X57.087 Y66.43 E0.23597
G1 X57.24 Y66.085 E0.24853
G1 X57.569 Y65.407 E0.27359
G1 X57.813 Y64.945 E0.29097
G1 X58.225 Y64.231 E0.31839
G1 X58.519 Y63.763 E0.33677
G1 X59.118 Y62.904 E0.3716
G1 X59.583 Y62.3 E0.39695
G1 X60.146 Y61.626 E0.42616
G1 X60.367 Y61.382 E0.43711
G1 X60.779 Y60.95 E0.45697
G1 X60.987 Y60.744 E0.4667
G1 X61.638 Y60.15 E0.49601
G1 X62.294 Y59.597 E0.52455
G1 X63.323 Y58.828 E0.56728
G1 X63.95 Y58.414 E0.59227
G1 X64.703 Y57.958 E0.62155
G1 X65.425 Y57.575 E0.64873
G1 X66.167 Y57.222 E0.67606
G1 X66.896 Y56.915 E0.70237
G1 X67.693 Y56.623 E0.7306
G1 X68.038 Y56.51 E0.74267
G1 X68.862 Y56.271 E0.77121
G1 X69.63 Y56.086 E0.79748
G1 X70.227 Y55.968 E0.81772
G1 X70.617 Y55.902 E0.83088
G1 X71.37 Y55.801 E0.85615
G1 X71.805 Y55.758 E0.87069
G1 X72.49 Y55.712 E0.89352
G1 X72.961 Y55.695 E0.9092
G1 X73.693 Y55.693 E0.93354
G1 X74.218 Y55.709 E0.95101
G1 X75.124 Y55.774 E0.98123
G1 X75.582 Y55.826 E0.99656
G1 X76.693 Y56.01 E1.03401
G1 X77.424 Y56.17 E1.0589
G1 X78.198 Y56.369 E1.08548
G1 X78.613 Y56.492 E1.09988
G1 X79.357 Y56.742 E1.12598
G1 X79.671 Y56.86 E1.13714
G1 X80.252 Y57.098 E1.15802
G1 X80.983 Y57.434 E1.18478
G1 X81.248 Y57.566 E1.19463
G1 X81.791 Y57.855 E1.21509
G1 X82.543 Y58.298 E1.24412
G1 X82.798 Y58.46 E1.25416
G1 X83.361 Y58.843 E1.27681
G1 X83.693 Y59.084 E1.29046
G1 X84.407 Y59.647 E1.3207
G1 X84.744 Y59.94 E1.33555
G1 X85.584 Y60.711 E1.37347
G1 X86.077 Y61.191 E1.39636
G1 X168.554 Y143.668 E5.27582
G1 X169.724 Y144.87 E5.33162
G1 X170.131 Y145.271 E5.35062
G1 X171.218 Y146.404 E5.40284
G1 X175.655 Y150.844 E5.61161
G1 X176.168 Y151.371 E5.63608
G1 X176.793 Y152.071 E5.66729
G1 X177.356 Y152.821 E5.69848
G1 X177.853 Y153.616 E5.72966
G1 X178.281 Y154.451 E5.76087
G1 X178.636 Y155.319 E5.79206
G1 X178.916 Y156.214 E5.82325
G1 X179.118 Y157.13 E5.85445
G1 X179.242 Y158.059 E5.88562
G1 X179.286 Y158.996 E5.91682
G1 X179.25 Y159.933 E5.94801
G1 X179.134 Y160.864 E5.97922
G1 X178.94 Y161.781 E6.01039
G1 X178.668 Y162.679 E6.0416
G1 X178.321 Y163.55 E6.07278
G1 X177.9 Y164.389 E6.104
G1 X177.41 Y165.188 E6.13518
G1 X176.854 Y165.943 E6.16636
G1 X176.267 Y166.614 E6.19601
G1 X175.806 Y167.094 E6.21815
G1 X167.142 Y175.757 E6.62565
G1 X166.676 Y176.209 E6.64725
G1 X165.975 Y176.833 E6.67846
G1 X165.224 Y177.394 E6.70964
G1 X164.428 Y177.89 E6.74083
G1 X163.593 Y178.316 E6.77201
G1 X162.724 Y178.67 E6.80322
G1 X161.828 Y178.948 E6.83442
G1 X160.912 Y179.149 E6.86561
G1 X159.982 Y179.271 E6.89681
G1 X159.045 Y179.313 E6.92801
G1 X158.108 Y179.275 E6.9592
G1 X157.178 Y179.158 E6.99037
G1 X156.26 Y178.962 E7.02159
G1 X155.363 Y178.689 E7.05278
G1 X154.493 Y178.34 E7.08396
G1 X153.655 Y177.918 E7.11516
G1 X152.857 Y177.426 E7.14635
G1 X152.103 Y176.868 E7.17754
G1 X151.475 Y176.32 E7.20527
G1 X150.998 Y175.864 E7.22721
G1 X107.91 Y132.777 E9.25392
G1 X106.363 Y131.22 E9.32692
G1 X105.718 Y130.585 E9.35702
G1 X62.522 Y87.386 E11.3889
G1 X60.546 Y85.392 E11.48227
G1 X59.984 Y84.781 E11.50988
G1 X59.611 Y84.343 E11.52902
G1 X59.102 Y83.697 E11.55637
G1 X58.864 Y83.371 E11.5698
G1 X58.474 Y82.8 E11.59279
G1 X58.033 Y82.085 E11.62074
G1 X57.864 Y81.789 E11.63207
G1 X57.56 Y81.217 E11.65362
G1 X57.401 Y80.896 E11.66553
G1 X57.074 Y80.172 E11.69195
G1 X56.858 Y79.643 E11.71096
G1 X56.584 Y78.904 E11.73717
G1 X56.365 Y78.21 E11.76138
G1 X56.255 Y77.816 E11.77498
G1 X56.109 Y77.232 E11.79501
G1 X55.951 Y76.464 E11.82108
G1 X55.832 Y75.724 E11.84601
G1 X55.792 Y75.418 E11.85628
G1 X55.721 Y74.683 E11.88084
G1 X55.692 Y74.222 E11.8962
G1 X55.67 Y73.576 E11.9177
G1 X55.669 Y73.334 E11.92575
G0 F6000 X56.069 Y73.333
G1 F900 X56.087 Y72.666 E11.94794
G1 X56.124 Y72.038 E11.96886
G1 X56.189 Y71.338 E11.99225
G1 X56.231 Y71.004 E12.00344
G1 X56.331 Y70.364 E12.02499
G1 X56.419 Y69.897 E12.04079
G1 X56.625 Y69.016 E12.07089
G1 X56.735 Y68.621 E12.08452
G1 X56.916 Y68.035 E12.10492
G1 X57.113 Y67.459 E12.12517
G1 X57.453 Y66.592 E12.15614
G1 X57.606 Y66.247 E12.1687
G1 X57.923 Y65.594 E12.19284
G1 X58.167 Y65.132 E12.21022
G1 X58.564 Y64.443 E12.23667
G1 X58.858 Y63.975 E12.25505
G1 X59.435 Y63.148 E12.28859
G1 X59.9 Y62.544 E12.31394
G1 X60.443 Y61.894 E12.34211
G1 X60.664 Y61.65 E12.35306
G1 X61.061 Y61.235 E12.37216
G1 X61.269 Y61.029 E12.3819
G1 X61.896 Y60.455 E12.41017
G1 X62.552 Y59.902 E12.43871
G1 X63.543 Y59.161 E12.47986
G1 X64.17 Y58.747 E12.50485
G1 X64.896 Y58.309 E12.53305
G1 X65.601 Y57.934 E12.55961
G1 X66.327 Y57.589 E12.58635
G1 X67.04 Y57.288 E12.61209
G1 X67.299 Y57.188 E12.62132
G1 X67.818 Y57.004 E12.63964
G1 X68.667 Y56.739 E12.66922
G1 X69.419 Y56.544 E12.69506
G1 X69.719 Y56.476 E12.70529
G1 X70.293 Y56.363 E12.72475
G1 X70.683 Y56.297 E12.7379
G1 X71.409 Y56.199 E12.76227
G1 X71.844 Y56.156 E12.77681
G1 X72.505 Y56.112 E12.79884
G1 X72.976 Y56.095 E12.81452
G1 X73.681 Y56.093 E12.83797
G1 X74.206 Y56.109 E12.85544
G1 X75.079 Y56.172 E12.88455
G1 X75.537 Y56.224 E12.89988
G1 X76.607 Y56.401 E12.93595
G1 X77.338 Y56.561 E12.96084
G1 X78.084 Y56.753 E12.98646
G1 X78.499 Y56.876 E13.00086
G1 X79.216 Y57.117 E13.02601
G1 X79.53 Y57.235 E13.03717
G1 X80.09 Y57.463 E13.05728
G1 X80.805 Y57.792 E13.08346
G1 X81.07 Y57.924 E13.09331
G1 X81.593 Y58.203 E13.11302
G1 X82.328 Y58.636 E13.14139
G1 X82.583 Y58.798 E13.15144
G1 X83.126 Y59.167 E13.17328
G1 X83.458 Y59.408 E13.18692
G1 X84.15 Y59.954 E13.21624
G1 X84.475 Y60.237 E13.23057
G1 X85.306 Y60.998 E13.26805
G1 X85.794 Y61.474 E13.29073
G1 X168.267 Y143.947 E17.17
G1 X169.661 Y145.379 E17.23647
G1 X169.842 Y145.548 E17.24471
G1 X170.905 Y146.656 E17.29578
G1 X175.369 Y151.123 E17.50582
G1 X175.882 Y151.65 E17.53028
G1 X176.494 Y152.337 E17.56088
G1 X177.045 Y153.075 E17.59152
G1 X177.53 Y153.857 E17.62212
G1 X177.946 Y154.679 E17.65276
G1 X178.288 Y155.534 E17.68339
G1 X178.555 Y156.415 E17.71401
G1 X178.744 Y157.316 E17.74463
G1 X178.855 Y158.23 E17.77525
G1 X178.885 Y159.15 E17.80587
G1 X178.836 Y160.069 E17.83648
G1 X178.708 Y160.981 E17.86711
G1 X178.5 Y161.878 E17.89773
G1 X178.216 Y162.753 E17.92833
G1 X177.856 Y163.601 E17.95897
G1 X177.425 Y164.414 E17.98958
G1 X176.924 Y165.187 E18.02022
G1 X176.359 Y165.914 E18.05084
G1 X175.977 Y166.339 E18.06985
G1 X175.523 Y166.811 E18.09163
G1 X166.863 Y175.47 E18.49894
G1 X166.397 Y175.922 E18.52054
G1 X165.709 Y176.533 E18.55114
G1 X164.971 Y177.083 E18.58175
G1 X164.187 Y177.567 E18.6124
G1 X163.365 Y177.98 E18.643
G1 X162.509 Y178.321 E18.67364
G1 X161.628 Y178.586 E18.70424
G1 X160.726 Y178.774 E18.73489
G1 X159.812 Y178.883 E18.7655
G1 X158.892 Y178.912 E18.79612
G1 X157.973 Y178.861 E18.82673
G1 X157.061 Y178.731 E18.85737
G1 X156.165 Y178.522 E18.88797
G1 X155.29 Y178.236 E18.91859
G1 X154.443 Y177.875 E18.94921
G1 X153.63 Y177.442 E18.97985
G1 X152.858 Y176.94 E19.01048
G1 X152.133 Y176.373 E19.04109
G1 X151.508 Y175.802 E19.06924
G1 X108.194 Y132.495 E21.10644
G1 X106.703 Y130.994 E21.17681
G1 X106 Y130.302 E21.20961
G1 X62.806 Y87.104 E23.24142
G1 X60.83 Y85.11 E23.33479
G1 X60.289 Y84.522 E23.36137
G1 X59.916 Y84.084 E23.3805
G1 X59.425 Y83.461 E23.40688
G1 X59.187 Y83.135 E23.42031
G1 X58.811 Y82.585 E23.44247
G1 X58.381 Y81.887 E23.46974
G1 X58.212 Y81.591 E23.48107
G1 X57.918 Y81.04 E23.50184
G1 X57.759 Y80.719 E23.51376
G1 X57.445 Y80.021 E23.53922
G1 X57.229 Y79.492 E23.55822
G1 X56.961 Y78.771 E23.5838
G1 X56.75 Y78.102 E23.60713
G1 X56.64 Y77.708 E23.62074
G1 X56.5 Y77.146 E23.64
G1 X56.345 Y76.396 E23.66548
G1 X56.228 Y75.672 E23.68987
G1 X56.188 Y75.366 E23.70013
G1 X56.12 Y74.657 E23.72382
G1 X56.091 Y74.196 E23.73919
G1 X56.07 Y73.575 E23.75985
G1 X56.069 Y73.333 E23.7679
G0 F6000 X56.469 Y73.331
G1 F900 X56.487 Y72.689 E23.78926
G1 X56.524 Y72.061 E23.81019
G1 X56.586 Y71.388 E23.83267
G1 X56.628 Y71.054 E23.84386
G1 X56.724 Y70.438 E23.8646
G1 X56.812 Y69.971 E23.8804
G1 X57.01 Y69.124 E23.90933
G1 X57.12 Y68.729 E23.92297
G1 X57.295 Y68.164 E23.94264
G1 X57.492 Y67.588 E23.96289
G1 X57.819 Y66.754 E23.99269
G1 X57.972 Y66.409 E24.00524
G1 X58.277 Y65.781 E24.02846
G1 X58.521 Y65.319 E24.04584
G1 X58.903 Y64.656 E24.07129
G1 X59.197 Y64.188 E24.08967
G1 X59.752 Y63.392 E24.12194
G1 X60.217 Y62.788 E24.1473
G1 X60.739 Y62.163 E24.17438
G1 X60.96 Y61.919 E24.18533
G1 X61.342 Y61.519 E24.20373
G1 X61.55 Y61.313 E24.21346
G1 X62.154 Y60.761 E24.24068
G1 X62.81 Y60.208 E24.26922
G1 X63.764 Y59.495 E24.30883
G1 X64.391 Y59.081 E24.33382
G1 X65.089 Y58.659 E24.36095
G1 X65.777 Y58.293 E24.38687
G1 X66.487 Y57.956 E24.41301
G1 X67.184 Y57.662 E24.43817
G1 X67.942 Y57.384 E24.46502
G1 X68.287 Y57.271 E24.47709
G1 X69.073 Y57.043 E24.50431
G1 X69.807 Y56.866 E24.52943
G1 X70.36 Y56.757 E24.54817
G1 X70.75 Y56.691 E24.56133
G1 X71.449 Y56.597 E24.58479
G1 X71.884 Y56.554 E24.59933
G1 X72.519 Y56.512 E24.62049
G1 X72.99 Y56.495 E24.63617
G1 X73.669 Y56.493 E24.65875
G1 X74.194 Y56.509 E24.67622
G1 X75.034 Y56.569 E24.70423
G1 X75.492 Y56.621 E24.71956
G1 X76.522 Y56.792 E24.75429
G1 X77.253 Y56.952 E24.77918
G1 X77.971 Y57.136 E24.80383
G1 X78.386 Y57.259 E24.81823
G1 X79.075 Y57.491 E24.84241
G1 X79.389 Y57.609 E24.85356
G1 X79.928 Y57.829 E24.87293
G1 X80.627 Y58.15 E24.89851
G1 X80.892 Y58.282 E24.90836
G1 X81.395 Y58.55 E24.92731
G1 X82.114 Y58.973 E24.95506
G1 X82.369 Y59.135 E24.96511
G1 X82.891 Y59.491 E24.98612
G1 X83.223 Y59.732 E24.99977
G1 X83.894 Y60.261 E25.02819
G1 X84.207 Y60.533 E25.04198
G1 X85.027 Y61.285 E25.07898
G1 X85.511 Y61.756 E25.10145
G1 X167.98 Y144.226 E28.98056
G1 X169.297 Y145.579 E29.04336
G1 X169.553 Y145.825 E29.05517
G1 X170.616 Y146.933 E29.10624
G1 X175.082 Y151.402 E29.31637
G1 X175.595 Y151.929 E29.34084
G1 X176.196 Y152.604 E29.3709
G1 X176.734 Y153.329 E29.40092
G1 X177.207 Y154.098 E29.43095
G1 X177.609 Y154.907 E29.461
G1 X177.939 Y155.748 E29.49105
G1 X178.192 Y156.614 E29.52105
G1 X178.368 Y157.5 E29.5511
G1 X178.466 Y158.398 E29.58114
G1 X178.483 Y159.301 E29.61118
G1 X178.42 Y160.202 E29.64122
G1 X178.278 Y161.094 E29.67126
G1 X178.057 Y161.969 E29.70128
G1 X177.76 Y162.822 E29.73132
G1 X177.389 Y163.645 E29.76135
G1 X176.946 Y164.433 E29.79141
G1 X176.436 Y165.178 E29.82144
G1 X175.686 Y166.064 E29.86005
G1 X175.24 Y166.528 E29.88146
G1 X166.585 Y175.183 E30.28856
G1 X166.119 Y175.635 E30.31016
G1 X165.443 Y176.234 E30.3402
G1 X164.717 Y176.771 E30.37023
G1 X163.947 Y177.243 E30.40027
G1 X163.138 Y177.644 E30.4303
G1 X162.296 Y177.972 E30.46036
G1 X161.429 Y178.224 E30.49039
G1 X160.543 Y178.398 E30.52042
G1 X159.645 Y178.494 E30.55046
G1 X158.742 Y178.509 E30.58049
G1 X157.841 Y178.445 E30.61054
G1 X156.95 Y178.301 E30.64056
G1 X156.074 Y178.079 E30.67061
G1 X155.222 Y177.781 E30.70063
G1 X154.399 Y177.408 E30.73069
G1 X153.613 Y176.964 E30.76071
G1 X152.869 Y176.452 E30.79075
G1 X152.023 Y175.738 E30.82757
G1 X151.564 Y175.299 E30.8487
G1 X108.477 Y132.213 E32.87535
G1 X106.984 Y130.711 E32.94579
G1 X106.283 Y130.019 E32.97855
G1 X63.09 Y86.823 E35.01029
G1 X61.114 Y84.829 E35.10366
G1 X60.593 Y84.262 E35.12927
G1 X60.22 Y83.824 E35.1484
G1 X59.748 Y83.225 E35.17377
G1 X59.51 Y82.899 E35.18719
G1 X59.148 Y82.37 E35.20851
G1 X58.728 Y81.688 E35.23515
G1 X58.559 Y81.392 E35.24649
G1 X58.277 Y80.862 E35.26646
G1 X58.118 Y80.541 E35.27837
G1 X57.815 Y79.87 E35.30286
G1 X57.599 Y79.341 E35.32186
G1 X57.338 Y78.638 E35.34681
G1 X57.136 Y77.995 E35.36922
G1 X57.026 Y77.601 E35.38283
G1 X56.89 Y77.06 E35.40138
G1 X56.739 Y76.327 E35.42627
G1 X56.625 Y75.62 E35.45009
G1 X56.585 Y75.314 E35.46036
G1 X56.519 Y74.632 E35.48315
G1 X56.49 Y74.171 E35.49851
G1 X56.469 Y73.331 E35.52646
G1 F2700 E30.52646
G0 F6000 X159.017 Y169.251
G0 X162.643 Y165.626
G0 X159.016 Y157.697
G0 X161.03 Y158.16
G0 X161.219 Y158.348
G0 X161.125 Y158.526
G1 F2700 E35.52646
G1 F900 X161.219 Y158.348 E35.53315
G1 X161.725 Y157.842 E35.55695
G1 X162.927 Y159.044 E35.61349
G1 X162.285 Y159.686 E35.64369
G1 X161.125 Y158.526 E35.69825
G0 F6000 X160.616 Y158.583
G1 F900 X160.847 Y158.21 E35.71284
G1 X160.889 Y158.112 E35.71639
G1 X161.724 Y157.276 E35.75569
G1 X163.492 Y159.044 E35.83885
G1 X162.284 Y160.252 E35.89567
G1 X160.616 Y158.583 E35.97415
G0 F6000 X160.08 Y158.613
G1 F900 X160.267 Y158.392 E35.98378
G1 X160.519 Y157.973 E36.00004
G1 X160.556 Y157.88 E36.00337
G1 X161.725 Y156.711 E36.05836
G1 X164.058 Y159.044 E36.1681
G1 X162.284 Y160.818 E36.25154
G1 X160.08 Y158.613 E36.35523
G0 F6000 X159.526 Y158.625
G1 F900 X159.961 Y158.134 E36.37705
G1 X160.188 Y157.739 E36.3922
G1 X160.22 Y157.65 E36.39535
G1 X161.725 Y156.145 E36.46614
G1 X164.624 Y159.044 E36.6025
G1 X162.285 Y161.384 E36.71254
G1 X159.526 Y158.625 E36.84232
G0 F6000 X158.961 Y158.624
G1 F900 X159.385 Y158.2 E36.86226
G1 X159.652 Y157.877 E36.8762
G1 X159.852 Y157.509 E36.89013
G1 X159.879 Y157.425 E36.89306
G1 X161.725 Y155.578 E36.97992
G1 X165.189 Y159.044 E37.1429
G1 X162.285 Y161.949 E37.27952
G1 X158.961 Y158.624 E37.43589
G0 F6000 X158.395 Y158.624
G1 F900 X159.102 Y157.917 E37.46915
G1 X159.34 Y157.623 E37.48173
G1 X159.512 Y157.285 E37.49434
G1 X159.533 Y157.206 E37.49706
G1 X161.725 Y155.013 E37.60019
G1 X165.754 Y159.044 E37.78975
G1 X162.285 Y162.515 E37.95297
G1 X158.395 Y158.624 E38.13596
G0 F6000 X157.83 Y158.625
G1 F900 X158.819 Y157.635 E38.18251
G1 X159.025 Y157.372 E38.19362
G1 X159.164 Y157.068 E38.20474
G1 X159.178 Y156.995 E38.20721
G1 X161.725 Y154.447 E38.32704
G1 X166.32 Y159.044 E38.54322
G1 X162.285 Y163.081 E38.73306
G1 X157.83 Y158.625 E38.94263
G0 F6000 X157.264 Y158.625
G1 F900 X158.536 Y157.352 E39.00249
G1 X158.706 Y157.126 E39.01189
G1 X158.805 Y156.862 E39.02127
G1 X158.81 Y156.797 E39.02344
G1 X161.725 Y153.881 E39.16057
G1 X166.886 Y159.044 E39.40338
G1 X162.285 Y163.647 E39.61984
G1 X157.264 Y158.625 E39.85604
G0 F6000 X156.698 Y158.625
G1 F900 X158.253 Y157.069 E39.92921
G1 X158.377 Y156.889 E39.93647
G1 X158.421 Y156.62 E39.94554
G1 X161.725 Y153.315 E40.10097
G1 X167.452 Y159.044 E40.3704
G1 X162.285 Y164.213 E40.61349
G1 X156.698 Y158.625 E40.87631
G0 F6000 X156.132 Y158.625
G1 F900 X157.97 Y156.786 E40.96279
G1 X158.027 Y156.675 E40.96694
G1 X157.971 Y156.504 E40.97292
G1 X161.725 Y152.749 E41.14952
G1 X168.018 Y159.044 E41.44557
G1 X162.285 Y164.779 E41.71528
G1 X156.132 Y158.625 E42.00472
G1 F2700 E37.00472
G0 F6000 X161.083 Y158.107
G0 X161.601 Y158.624
;TYPE:SUPPORT
G1 F2700 E42.00472
G1 F965.1 X162.285 Y159.308 E42.03472
G1 X162.417 Y159.176 E42.04051
G1 X162.549 Y159.044 E42.0463
G1 X161.865 Y158.36 E42.0763
G1 X161.601 Y158.624 E42.08788
G1 F2700 E37.08788
;MESH:Rear_Spar_Outer.stl
G0 F6000 X161.083 Y158.107
G0 X162.12 Y151.865
G0 X77.768 Y67.551
G0 X76.593 Y66.783
G0 X75.274 Y66.267
G0 X73.885 Y66.029
G0 X72.525 Y66.059
G0 X71.166 Y66.35
G0 X69.886 Y66.892
G0 X68.865 Y67.558
G0 X67.97 Y68.367
G0 X67.056 Y69.569
G0 X66.478 Y70.738
G0 X66.096 Y72.122
G0 X65.995 Y73.503
G0 X66.156 Y74.854
G0 X66.563 Y76.111
G0 X67.248 Y77.343
G0 X67.742 Y77.973
