;FLAVOR:Marlin
;TIME:6422
;Filament used: 4.29144m
;Layer height: 0.2
;MINX:37.343
;MINY:37.303
;MINZ:0.2
;MAXX:197.644
;MAXY:197.646
;MAXZ:13.4
;Generated with Cura_SteamEngine 5.0.0
M140 S70
M105
M190 S70
M104 S200
M105
M109 S200
M82 ;absolute extrusion mode
; Ender 3 Custom Start G-code
G28 ; Home all axes
M420 S1; Bed Leveling On
G92 E0 ; Reset Extruder
G1 Z2.0 F3000 ; Move Z Axis up little to prevent scratching of Heat Bed
G1 X0.1 Y20 Z0.3 F5000.0 ; Move to start position
G1 X0.1 Y200.0 Z0.3 F1500.0 E15 ; Draw the first line
G1 X0.4 Y200.0 Z0.3 F5000.0 ; Move to side a little
G1 X0.4 Y20 Z0.3 F1500.0 E30 ; Draw the second line
G92 E0 ; Reset Extruder
G1 Z2.0 F3000 ; Move Z Axis up little to prevent scratching of Heat Bed
G1 X5 Y20 Z0.3 F5000.0 ; Move over to prevent blob squish
G92 E0
G92 E0
G1 F2700 E-3
;LAYER_COUNT:67
;LAYER:0
M107
G0 F6000 X40.88 Y40.893 Z0.2
G0 X37.343 Y48.73
;TYPE:SKIRT
G1 F2700 E0
G1 F1200 X37.407 Y47.794 E0.0312
G1 X37.549 Y46.867 E0.0624
G1 X37.77 Y45.956 E0.09357
G1 X38.068 Y45.067 E0.12476
G1 X38.441 Y44.206 E0.15597
G1 X38.885 Y43.38 E0.18716
G1 X39.398 Y42.595 E0.21835
G1 X39.977 Y41.857 E0.24955
G1 X40.529 Y41.25 E0.27684
G1 X40.88 Y40.893 E0.29349
G1 X41.366 Y40.42 E0.31604
G1 X42.065 Y39.795 E0.34723
G1 X42.815 Y39.232 E0.37842
G1 X43.611 Y38.735 E0.40963
G1 X44.445 Y38.308 E0.4408
G1 X45.314 Y37.953 E0.47202
G1 X46.209 Y37.673 E0.50321
G1 X47.125 Y37.471 E0.53441
G1 X48.054 Y37.347 E0.56558
G1 X48.991 Y37.303 E0.59678
G1 X49.928 Y37.339 E0.62797
G1 X50.859 Y37.455 E0.65917
G1 X51.776 Y37.649 E0.69035
G1 X52.674 Y37.921 E0.72155
G1 X53.545 Y38.269 E0.75275
G1 X54.384 Y38.689 E0.78396
G1 X55.151 Y39.158 E0.81386
G1 X56.07 Y39.774 E0.85066
G1 X61.376 Y43.459 E1.06552
G1 X68.032 Y48.002 E1.33355
G1 X84.628 Y59.164 E1.99877
G1 X87.822 Y61.328 E2.12709
G1 X91.288 Y63.703 E2.26683
G1 X95.27 Y66.469 E2.42809
G1 X99.074 Y69.149 E2.58286
G1 X103.001 Y71.958 E2.74345
G1 X106.729 Y74.668 E2.89674
G1 X111.165 Y77.951 E3.0803
G1 X115.015 Y80.851 E3.24061
G1 X119.091 Y83.981 E3.41154
G1 X123.357 Y87.329 E3.5919
G1 X127.281 Y90.474 E3.75916
G1 X131.312 Y93.779 E3.93254
G1 X135.418 Y97.232 E4.11098
G1 X139.323 Y100.596 E4.2824
G1 X141.229 Y102.272 E4.36682
G1 X143.203 Y104.032 E4.45478
G1 X145.075 Y105.723 E4.53869
G1 X146.977 Y107.465 E4.62447
G1 X148.951 Y109.299 E4.71409
G1 X150.796 Y111.041 E4.79848
G1 X152.605 Y112.774 E4.88181
G1 X154.398 Y114.517 E4.96498
G1 X156.147 Y116.243 E5.0467
G1 X158.053 Y118.156 E5.13652
G1 X159.75 Y119.888 E5.21717
G1 X161.392 Y121.593 E5.2959
G1 X163.206 Y123.51 E5.38368
G1 X164.82 Y125.247 E5.46255
G1 X166.296 Y126.862 E5.53531
G1 X167.91 Y128.662 E5.61573
G1 X169.483 Y130.452 E5.69498
G1 X171.067 Y132.291 E5.77571
G1 X172.584 Y134.091 E5.854
G1 X173.981 Y135.783 E5.92698
G1 X175.431 Y137.578 E6.00373
G1 X176.873 Y139.408 E6.08122
G1 X178.298 Y141.263 E6.15902
G1 X179.632 Y143.043 E6.23301
G1 X180.975 Y144.883 E6.30877
G1 X182.144 Y146.529 E6.37592
G1 X183.399 Y148.346 E6.44937
G1 X184.591 Y150.125 E6.52059
G1 X185.817 Y152.019 E6.59563
G1 X186.897 Y153.745 E6.66335
G1 X187.983 Y155.544 E6.73324
G1 X189.05 Y157.387 E6.80407
G1 X190.046 Y159.185 E6.87244
G1 X190.984 Y160.958 E6.93915
G1 X191.89 Y162.759 E7.00621
G1 X192.919 Y164.942 E7.08648
G1 X193.245 Y165.662 E7.11276
G1 X193.825 Y167.009 E7.16154
G1 X194.305 Y168.182 E7.2037
G1 X194.718 Y169.244 E7.2416
G1 X195.292 Y170.817 E7.29729
G1 X195.651 Y171.881 E7.33464
G1 X195.891 Y172.644 E7.36124
G1 X196.387 Y174.37 E7.42097
G1 X196.76 Y175.865 E7.47222
G1 X196.988 Y176.905 E7.50763
G1 X197.226 Y178.172 E7.55051
G1 X197.301 Y178.636 E7.56614
G1 X197.408 Y179.407 E7.59203
G1 X197.47 Y179.963 E7.61064
G1 X197.594 Y181.384 E7.65808
G1 X197.633 Y182.07 E7.68093
G1 X197.644 Y182.686 E7.70142
G1 X197.643 Y183.233 E7.71962
G1 X197.617 Y183.964 E7.74395
G1 X197.566 Y184.709 E7.76878
G1 X197.496 Y185.433 E7.79298
G1 X197.404 Y186.086 E7.81491
G1 X197.32 Y186.577 E7.83148
G1 X197.219 Y187.097 E7.8491
G1 X197.11 Y187.59 E7.86589
G1 X196.935 Y188.275 E7.8894
G1 X196.871 Y188.496 E7.89706
G1 X196.583 Y189.355 E7.92719
G1 X196.485 Y189.612 E7.93634
G1 X196.108 Y190.486 E7.968
G1 X195.956 Y190.8 E7.9796
G1 X195.512 Y191.626 E8.01079
G1 X195.109 Y192.258 E8.03572
G1 X194.561 Y193.019 E8.06691
G1 X194.146 Y193.514 E8.0884
G1 X193.971 Y193.711 E8.09716
G1 X193.319 Y194.385 E8.12835
G1 X192.611 Y195.001 E8.15956
G1 X191.481 Y195.793 E8.20546
G1 X191.242 Y195.939 E8.21477
G1 X190.422 Y196.393 E8.24595
G1 X189.566 Y196.776 E8.27714
G1 X188.68 Y197.085 E8.30835
G1 X188.065 Y197.251 E8.32954
G1 X187.793 Y197.316 E8.33884
G1 X186.872 Y197.495 E8.37004
G1 X186.107 Y197.582 E8.39565
G1 X185.742 Y197.611 E8.40783
G1 X184.81 Y197.646 E8.43885
G1 X183.598 Y197.579 E8.47922
G1 X183.129 Y197.527 E8.49492
G1 X181.781 Y197.292 E8.54043
G1 X181.313 Y197.18 E8.55643
G1 X180.478 Y196.945 E8.58528
G1 X179.954 Y196.775 E8.60361
G1 X179.337 Y196.554 E8.6254
G1 X178.903 Y196.384 E8.64091
G1 X178.199 Y196.08 E8.66641
G1 X177.55 Y195.772 E8.69031
G1 X177.004 Y195.494 E8.71068
G1 X176.479 Y195.208 E8.73057
G1 X175.786 Y194.802 E8.75728
G1 X174.776 Y194.157 E8.79714
G1 X174.023 Y193.646 E8.82741
G1 X173.036 Y192.934 E8.86789
G1 X171.692 Y191.901 E8.92427
G1 X170.168 Y190.672 E8.98938
G1 X169.191 Y189.85 E9.03185
G1 X167.782 Y188.626 E9.09393
G1 X166.203 Y187.223 E9.16418
G1 X163.962 Y185.185 E9.26493
G1 X162.201 Y183.539 E9.3451
G1 X160.585 Y182.005 E9.41921
G1 X157.83 Y179.357 E9.54631
G1 X156.337 Y177.9 E9.61569
G1 X153.234 Y174.839 E9.76066
G1 X150.345 Y171.956 E9.89641
G1 X147.406 Y168.994 E10.03519
G1 X142.955 Y164.455 E10.24663
G1 X142.575 Y164.054 E10.26501
G1 X140.503 Y161.929 E10.36372
G1 X137.434 Y158.748 E10.51074
G1 X132.209 Y153.286 E10.76214
G1 X117.873 Y138.22 E11.45384
G1 X80.316 Y98.67 E13.26789
G1 X63.451 Y80.923 E14.08217
G1 X63.32 Y80.773 E14.0888
G1 X42.822 Y59.191 E15.07878
G1 X40.699 Y56.944 E15.1816
G1 X40.238 Y56.442 E15.20427
G1 X39.634 Y55.725 E15.23545
G1 X39.093 Y54.959 E15.26664
G1 X38.619 Y54.15 E15.29783
G1 X38.216 Y53.303 E15.32902
G1 X37.886 Y52.425 E15.36022
G1 X37.633 Y51.522 E15.39141
G1 X37.457 Y50.601 E15.4226
G1 X37.36 Y49.668 E15.4538
G1 X37.343 Y48.73 E15.485
G0 F6000 X37.748 Y48.588
G1 F1200 X37.824 Y47.67 E15.51564
G1 X37.979 Y46.763 E15.54624
G1 X38.213 Y45.872 E15.57688
G1 X38.522 Y45.005 E15.6075
G1 X38.906 Y44.168 E15.63812
G1 X39.361 Y43.368 E15.66873
G1 X39.884 Y42.61 E15.69936
G1 X40.609 Y41.75 E15.73678
G1 X41.159 Y41.18 E15.76312
G1 X41.645 Y40.707 E15.78568
G1 X42.332 Y40.094 E15.8163
G1 X43.07 Y39.543 E15.84693
G1 X43.852 Y39.058 E15.87754
G1 X44.674 Y38.643 E15.90817
G1 X45.529 Y38.301 E15.93879
G1 X46.41 Y38.034 E15.96941
G1 X47.311 Y37.845 E16.00003
G1 X48.225 Y37.734 E16.03066
G1 X49.145 Y37.704 E16.06127
G1 X50.064 Y37.753 E16.09188
G1 X50.976 Y37.882 E16.12252
G1 X51.873 Y38.089 E16.15313
G1 X52.748 Y38.374 E16.18374
G1 X53.596 Y38.733 E16.21437
G1 X54.409 Y39.165 E16.24499
G1 X54.929 Y39.49 E16.26539
G1 X55.842 Y40.103 E16.30196
G1 X61.077 Y43.739 E16.51396
G1 X67.809 Y48.334 E16.78505
G1 X84.404 Y59.495 E17.45022
G1 X87.596 Y61.658 E17.57847
G1 X91.06 Y64.032 E17.71814
G1 X95.04 Y66.796 E17.87931
G1 X98.841 Y69.474 E18.03395
G1 X102.766 Y72.281 E18.19445
G1 X106.491 Y74.989 E18.34762
G1 X110.925 Y78.27 E18.53108
G1 X114.771 Y81.168 E18.69125
G1 X118.844 Y84.296 E18.86206
G1 X123.107 Y87.642 E19.04231
G1 X127.028 Y90.783 E19.2094
G1 X131.055 Y94.085 E19.38261
G1 X135.157 Y97.535 E19.56088
G1 X139.059 Y100.897 E19.73219
G1 X140.962 Y102.571 E19.81649
G1 X142.935 Y104.329 E19.90438
G1 X144.805 Y106.018 E19.98819
G1 X146.705 Y107.758 E20.07388
G1 X148.676 Y109.59 E20.16338
G1 X150.52 Y111.329 E20.24769
G1 X152.327 Y113.06 E20.33091
G1 X154.117 Y114.802 E20.41399
G1 X155.864 Y116.525 E20.4956
G1 X157.767 Y118.436 E20.5853
G1 X159.462 Y120.166 E20.66585
G1 X161.101 Y121.868 E20.74444
G1 X162.913 Y123.782 E20.83211
G1 X164.525 Y125.517 E20.91088
G1 X165.998 Y127.129 E20.9835
G1 X167.61 Y128.926 E21.0638
G1 X169.18 Y130.713 E21.14291
G1 X170.761 Y132.549 E21.2235
G1 X172.275 Y134.346 E21.30165
G1 X173.67 Y136.035 E21.37451
G1 X175.117 Y137.825 E21.45107
G1 X176.556 Y139.652 E21.52842
G1 X177.978 Y141.503 E21.60605
G1 X179.309 Y143.279 E21.67987
G1 X180.649 Y145.115 E21.75547
G1 X181.815 Y146.757 E21.82245
G1 X183.066 Y148.569 E21.89569
G1 X184.255 Y150.342 E21.96669
G1 X185.478 Y152.231 E22.04154
G1 X186.555 Y153.952 E22.10906
G1 X187.637 Y155.745 E22.17872
G1 X188.7 Y157.582 E22.24931
G1 X189.693 Y159.373 E22.31742
G1 X190.627 Y161.139 E22.38387
G1 X191.528 Y162.93 E22.45055
G1 X192.555 Y165.108 E22.53064
G1 X192.877 Y165.821 E22.55666
G1 X193.455 Y167.161 E22.6052
G1 X193.933 Y168.328 E22.64714
G1 X194.343 Y169.382 E22.68476
G1 X194.913 Y170.945 E22.74009
G1 X195.27 Y172.003 E22.77723
G1 X195.507 Y172.756 E22.80348
G1 X195.999 Y174.468 E22.86273
G1 X196.369 Y175.951 E22.91357
G1 X196.671 Y177.357 E22.9614
G1 X196.833 Y178.244 E22.99139
G1 X196.904 Y178.691 E23.00644
G1 X197.011 Y179.462 E23.03233
G1 X197.072 Y179.998 E23.05027
G1 X197.196 Y181.419 E23.09772
G1 X197.233 Y182.08 E23.11973
G1 X197.244 Y182.685 E23.13986
G1 X197.243 Y183.232 E23.15805
G1 X197.218 Y183.937 E23.18152
G1 X197.167 Y184.682 E23.20635
G1 X197.099 Y185.389 E23.22998
G1 X197.01 Y186.018 E23.25111
G1 X196.926 Y186.509 E23.26767
G1 X196.828 Y187.01 E23.28465
G1 X196.719 Y187.503 E23.30145
G1 X196.551 Y188.164 E23.32413
G1 X196.487 Y188.385 E23.33178
G1 X196.209 Y189.213 E23.36083
G1 X196.111 Y189.47 E23.36998
G1 X195.748 Y190.312 E23.40048
G1 X195.596 Y190.626 E23.41208
G1 X195.159 Y191.436 E23.44269
G1 X194.775 Y192.038 E23.46644
G1 X194.236 Y192.784 E23.49705
G1 X193.847 Y193.249 E23.51722
G1 X193.672 Y193.446 E23.52598
G1 X193.031 Y194.107 E23.55661
G1 X192.335 Y194.71 E23.58723
G1 X191.273 Y195.452 E23.63032
G1 X191.034 Y195.598 E23.63964
G1 X190.228 Y196.043 E23.67026
G1 X189.387 Y196.417 E23.70087
G1 X188.516 Y196.716 E23.7315
G1 X187.972 Y196.862 E23.75024
G1 X187.7 Y196.927 E23.75954
G1 X186.796 Y197.102 E23.79016
G1 X186.076 Y197.184 E23.81427
G1 X185.711 Y197.213 E23.82644
G1 X184.81 Y197.246 E23.85643
G1 X183.642 Y197.181 E23.89534
G1 X183.173 Y197.129 E23.91103
G1 X181.874 Y196.903 E23.95489
G1 X181.406 Y196.791 E23.97089
G1 X180.602 Y196.565 E23.99867
G1 X180.078 Y196.395 E24.01699
G1 X179.483 Y196.182 E24.03801
G1 X179.049 Y196.012 E24.05352
G1 X178.37 Y195.718 E24.07813
G1 X177.721 Y195.41 E24.10202
G1 X177.195 Y195.142 E24.12165
G1 X176.67 Y194.856 E24.14154
G1 X175.993 Y194.46 E24.16762
G1 X174.992 Y193.821 E24.20712
G1 X174.25 Y193.317 E24.23696
G1 X173.271 Y192.611 E24.2771
G1 X171.936 Y191.585 E24.3331
G1 X170.425 Y190.365 E24.3977
G1 X169.453 Y189.547 E24.43995
G1 X168.048 Y188.327 E24.50184
G1 X166.472 Y186.927 E24.57195
G1 X164.235 Y184.892 E24.67253
G1 X162.476 Y183.249 E24.75259
G1 X160.862 Y181.717 E24.8266
G1 X158.11 Y179.07 E24.9536
G1 X156.618 Y177.616 E25.0229
G1 X153.517 Y174.556 E25.1678
G1 X150.629 Y171.675 E25.30347
G1 X147.692 Y168.714 E25.44219
G1 X143.246 Y164.18 E25.65339
G1 X142.835 Y163.747 E25.67325
G1 X140.79 Y161.651 E25.77065
G1 X137.723 Y158.472 E25.91757
G1 X132.499 Y153.01 E26.16895
G1 X118.163 Y137.944 E26.86065
G1 X80.61 Y98.399 E28.67448
G1 X63.741 Y80.648 E29.48896
G1 X63.614 Y80.502 E29.49539
G1 X43.113 Y58.917 E30.48552
G1 X40.994 Y56.674 E30.58815
G1 X40.533 Y56.172 E30.61082
G1 X39.94 Y55.467 E30.64146
G1 X39.411 Y54.714 E30.67206
G1 X38.949 Y53.918 E30.70268
G1 X38.558 Y53.084 E30.73331
G1 X38.24 Y52.22 E30.76393
G1 X37.999 Y51.331 E30.79457
G1 X37.836 Y50.425 E30.82519
G1 X37.752 Y49.508 E30.85581
G1 X37.748 Y48.588 E30.88641
G0 F6000 X38.146 Y49.352
G1 F1200 X38.155 Y48.449 E30.91645
G1 X38.244 Y47.55 E30.9465
G1 X38.412 Y46.663 E30.97652
G1 X38.658 Y45.794 E31.00656
G1 X38.979 Y44.95 E31.03659
G1 X39.375 Y44.138 E31.06664
G1 X39.84 Y43.364 E31.09667
G1 X40.372 Y42.634 E31.12672
G1 X40.901 Y42.024 E31.15357
G1 X41.438 Y41.466 E31.17933
G1 X41.924 Y40.993 E31.20189
G1 X42.598 Y40.393 E31.2319
G1 X43.323 Y39.854 E31.26195
G1 X44.093 Y39.382 E31.29199
G1 X44.902 Y38.979 E31.32205
G1 X45.742 Y38.65 E31.35205
G1 X46.609 Y38.396 E31.3821
G1 X47.495 Y38.22 E31.41214
G1 X48.393 Y38.123 E31.44219
G1 X49.296 Y38.106 E31.47223
G1 X50.197 Y38.169 E31.50227
G1 X51.089 Y38.311 E31.53231
G1 X51.964 Y38.532 E31.56232
G1 X52.817 Y38.829 E31.59237
G1 X53.64 Y39.2 E31.62239
G1 X54.706 Y39.823 E31.66346
G1 X55.613 Y40.431 E31.69978
G1 X60.851 Y44.069 E31.91189
G1 X67.643 Y48.705 E32.1854
G1 X84.179 Y59.826 E32.8482
G1 X87.369 Y61.988 E32.97637
G1 X90.832 Y64.36 E33.11598
G1 X94.81 Y67.123 E33.27707
G1 X98.609 Y69.8 E33.43165
G1 X102.53 Y72.605 E33.592
G1 X106.253 Y75.311 E33.74508
G1 X110.684 Y78.59 E33.92842
G1 X114.528 Y81.486 E34.08849
G1 X118.597 Y84.611 E34.25913
G1 X122.856 Y87.954 E34.43921
G1 X126.774 Y91.092 E34.60617
G1 X130.798 Y94.391 E34.77924
G1 X134.896 Y97.838 E34.95734
G1 X138.794 Y101.197 E35.12849
G1 X140.696 Y102.869 E35.21272
G1 X142.667 Y104.626 E35.30054
G1 X144.535 Y106.313 E35.38425
G1 X146.433 Y108.051 E35.46985
G1 X148.402 Y109.881 E35.55926
G1 X150.243 Y111.618 E35.64344
G1 X152.048 Y113.347 E35.72658
G1 X153.837 Y115.087 E35.80958
G1 X155.58 Y116.807 E35.89103
G1 X157.481 Y118.716 E35.98063
G1 X159.174 Y120.443 E36.06107
G1 X160.811 Y122.143 E36.13956
G1 X162.62 Y124.054 E36.22709
G1 X164.23 Y125.787 E36.30576
G1 X165.7 Y127.397 E36.37827
G1 X167.309 Y129.19 E36.4584
G1 X168.877 Y130.974 E36.5374
G1 X170.455 Y132.806 E36.61782
G1 X171.967 Y134.6 E36.69585
G1 X173.359 Y136.287 E36.7686
G1 X174.803 Y138.073 E36.84499
G1 X176.239 Y139.896 E36.92217
G1 X177.658 Y141.743 E36.99964
G1 X178.986 Y143.515 E37.07329
G1 X180.323 Y145.347 E37.14872
G1 X181.486 Y146.984 E37.21551
G1 X182.734 Y148.792 E37.28858
G1 X183.919 Y150.56 E37.35937
G1 X185.139 Y152.444 E37.43403
G1 X186.212 Y154.159 E37.50131
G1 X187.291 Y155.946 E37.57074
G1 X188.351 Y157.776 E37.64108
G1 X189.339 Y159.56 E37.70891
G1 X190.27 Y161.319 E37.7751
G1 X191.166 Y163.101 E37.84144
G1 X192.191 Y165.274 E37.92135
G1 X192.51 Y165.98 E37.94712
G1 X193.085 Y167.313 E37.99541
G1 X193.56 Y168.474 E38.03713
G1 X193.967 Y169.52 E38.07446
G1 X194.534 Y171.074 E38.12948
G1 X194.889 Y172.125 E38.16637
G1 X195.123 Y172.868 E38.19228
G1 X195.517 Y174.221 E38.23915
G1 X195.902 Y175.715 E38.29047
G1 X196.206 Y177.077 E38.33688
G1 X196.439 Y178.315 E38.37878
G1 X196.508 Y178.746 E38.3933
G1 X196.615 Y179.517 E38.41919
G1 X196.673 Y180.032 E38.43643
G1 X196.797 Y181.453 E38.48387
G1 X196.833 Y182.09 E38.50509
G1 X196.844 Y182.685 E38.52488
G1 X196.843 Y183.232 E38.54307
G1 X196.819 Y183.91 E38.56564
G1 X196.768 Y184.655 E38.59048
G1 X196.701 Y185.345 E38.61353
G1 X196.616 Y185.951 E38.63389
G1 X196.532 Y186.442 E38.65045
G1 X196.437 Y186.924 E38.66679
G1 X196.328 Y187.417 E38.68359
G1 X196.166 Y188.052 E38.70538
G1 X196.102 Y188.273 E38.71304
G1 X195.836 Y189.07 E38.74098
G1 X195.738 Y189.327 E38.75013
G1 X195.388 Y190.137 E38.77948
G1 X195.236 Y190.451 E38.79108
G1 X194.574 Y191.616 E38.83565
G1 X194.441 Y191.818 E38.84369
G1 X193.912 Y192.55 E38.87373
G1 X193.373 Y193.18 E38.90131
G1 X192.744 Y193.828 E38.93134
G1 X192.06 Y194.418 E38.96139
G1 X191.064 Y195.11 E39.00173
G1 X190.825 Y195.256 E39.01104
G1 X190.035 Y195.693 E39.04107
G1 X189.208 Y196.057 E39.07112
G1 X188.353 Y196.347 E39.10115
G1 X187.607 Y196.538 E39.12676
G1 X186.72 Y196.708 E39.1568
G1 X186.044 Y196.785 E39.17943
G1 X185.679 Y196.814 E39.19161
G1 X184.81 Y196.846 E39.22053
G1 X183.686 Y196.784 E39.25797
G1 X183.217 Y196.732 E39.27367
G1 X181.967 Y196.514 E39.31587
G1 X181.499 Y196.402 E39.33187
G1 X180.725 Y196.184 E39.35862
G1 X180.201 Y196.014 E39.37694
G1 X179.629 Y195.809 E39.39715
G1 X179.195 Y195.639 E39.41265
G1 X178.542 Y195.357 E39.43631
G1 X177.893 Y195.049 E39.46021
G1 X177.386 Y194.791 E39.47913
G1 X176.861 Y194.505 E39.49901
G1 X176.199 Y194.117 E39.52453
G1 X175.209 Y193.485 E39.5636
G1 X174.476 Y192.987 E39.59307
G1 X173.506 Y192.287 E39.63286
G1 X172.009 Y191.133 E39.69572
G1 X170.682 Y190.059 E39.7525
