;FLAVOR:Marlin
;TIME:2001
;Filament used: 1.33665m
;Layer height: 0.2
;MINX:50.651
;MINY:51.98
;MINZ:0.2
;MAXX:184.166
;MAXY:182.999
;MAXZ:2
;Generated with Cura_SteamEngine 5.0.0
M140 S70
M105
M190 S70
M104 S200
M105
M109 S200
M82 ;absolute extrusion mode
; Ender 3 Custom Start G-code
G28 ; Home all axes
M420 S1; Bed Leveling On
G92 E0 ; Reset Extruder
G1 Z2.0 F3000 ; Move Z Axis up little to prevent scratching of Heat Bed
G1 X0.1 Y20 Z0.3 F5000.0 ; Move to start position
G1 X0.1 Y200.0 Z0.3 F1500.0 E15 ; Draw the first line
G1 X0.4 Y200.0 Z0.3 F5000.0 ; Move to side a little
G1 X0.4 Y20 Z0.3 F1500.0 E30 ; Draw the second line
G92 E0 ; Reset Extruder
G1 Z2.0 F3000 ; Move Z Axis up little to prevent scratching of Heat Bed
G1 X5 Y20 Z0.3 F5000.0 ; Move over to prevent blob squish
G92 E0
G92 E0
G1 F2700 E-5
;LAYER_COUNT:10
;LAYER:0
M107
G0 F6000 X60.056 Y55.58 Z0.2
;TYPE:SKIRT
G1 F2700 E0
G1 F900 X60.565 Y55.086 E0.02359
G1 X61.265 Y54.462 E0.05478
G1 X62.016 Y53.901 E0.08596
G1 X62.812 Y53.405 E0.11715
G1 X63.647 Y52.978 E0.14835
G1 X64.516 Y52.624 E0.17956
G1 X65.412 Y52.346 E0.21076
G1 X66.328 Y52.145 E0.24195
G1 X67.258 Y52.023 E0.27315
G1 X68.195 Y51.98 E0.30434
G1 X69.132 Y52.017 E0.33553
G1 X70.062 Y52.134 E0.36671
G1 X70.979 Y52.33 E0.3979
G1 X71.877 Y52.603 E0.42911
G1 X72.747 Y52.952 E0.46029
G1 X73.921 Y53.569 E0.5044
G1 X76.268 Y54.989 E0.59564
G1 X78.43 Y56.216 E0.67832
G1 X80.665 Y57.402 E0.76248
G1 X82.994 Y58.553 E0.84888
G1 X83.878 Y58.976 E0.88148
G1 X84.706 Y59.416 E0.91266
G1 X85.493 Y59.926 E0.94386
G1 X86.234 Y60.501 E0.97505
G1 X86.682 Y60.901 E0.99503
G1 X87.177 Y61.375 E1.01782
G1 X130.334 Y104.53 E3.04775
G1 X131.79 Y105.996 E3.11647
G1 X132.469 Y106.666 E3.1482
G1 X175.605 Y149.802 E5.17718
G1 X176.924 Y151.159 E5.24012
G1 X178.754 Y152.989 E5.3262
G1 X179.752 Y153.95 E5.37228
G1 X180.563 Y154.76 E5.4104
G1 X181.047 Y155.257 E5.43348
G1 X181.672 Y155.956 E5.46467
G1 X182.235 Y156.706 E5.49586
G1 X182.732 Y157.501 E5.52704
G1 X183.16 Y158.335 E5.55822
G1 X183.515 Y159.203 E5.58941
G1 X183.795 Y160.099 E5.62063
G1 X183.998 Y161.014 E5.65181
G1 X184.122 Y161.944 E5.68301
G1 X184.166 Y162.881 E5.71421
G1 X184.13 Y163.818 E5.7454
G1 X184.015 Y164.749 E5.7766
G1 X183.821 Y165.666 E5.80777
G1 X183.549 Y166.564 E5.83898
G1 X183.202 Y167.435 E5.87016
G1 X182.781 Y168.274 E5.90139
G1 X182.291 Y169.073 E5.93256
G1 X181.735 Y169.828 E5.96375
G1 X181.144 Y170.504 E5.99361
G1 X180.701 Y170.965 E6.01488
G1 X172.225 Y179.439 E6.41351
G1 X171.734 Y179.913 E6.43621
G1 X171.032 Y180.535 E6.46741
G1 X170.28 Y181.095 E6.49859
G1 X169.482 Y181.589 E6.52981
G1 X168.646 Y182.013 E6.56099
G1 X167.776 Y182.364 E6.59219
G1 X166.88 Y182.64 E6.62337
G1 X165.963 Y182.839 E6.65458
G1 X165.033 Y182.959 E6.68577
G1 X164.096 Y182.999 E6.71696
G1 X163.159 Y182.959 E6.74816
G1 X162.229 Y182.84 E6.77934
G1 X161.312 Y182.641 E6.81055
G1 X160.416 Y182.366 E6.84172
G1 X159.546 Y182.015 E6.87292
G1 X158.709 Y181.591 E6.90413
G1 X157.912 Y181.097 E6.93532
G1 X157.159 Y180.538 E6.96651
G1 X156.489 Y179.946 E6.99625
G1 X156.037 Y179.51 E7.01714
G1 X54.288 Y77.758 E11.80317
G1 X53.776 Y77.233 E11.82756
G1 X53.15 Y76.534 E11.85877
G1 X52.587 Y75.785 E11.88993
G1 X52.089 Y74.99 E11.92113
G1 X51.66 Y74.156 E11.95233
G1 X51.304 Y73.288 E11.98353
G1 X51.024 Y72.393 E12.01472
G1 X50.821 Y71.477 E12.04593
G1 X50.696 Y70.548 E12.0771
G1 X50.651 Y69.611 E12.1083
G1 X50.686 Y68.674 E12.13949
G1 X50.801 Y67.743 E12.17069
G1 X50.995 Y66.825 E12.2019
G1 X51.266 Y65.928 E12.23306
G1 X51.612 Y65.056 E12.26427
G1 X52.032 Y64.217 E12.29547
G1 X52.521 Y63.417 E12.32666
G1 X53.077 Y62.662 E12.35784
G1 X53.66 Y61.994 E12.38733
G1 X54.118 Y61.515 E12.40938
G1 X60.056 Y55.58 E12.68861
G0 F6000 X60.335 Y55.867
G1 F900 X60.844 Y55.373 E12.7122
G1 X61.531 Y54.762 E12.74278
G1 X62.27 Y54.212 E12.77342
G1 X63.053 Y53.728 E12.80404
G1 X63.876 Y53.314 E12.83468
G1 X64.731 Y52.973 E12.86529
G1 X65.612 Y52.707 E12.8959
G1 X66.513 Y52.519 E12.92652
G1 X67.428 Y52.41 E12.95716
G1 X68.348 Y52.381 E12.98778
G1 X69.267 Y52.431 E13.01839
G1 X70.178 Y52.561 E13.049
G1 X71.075 Y52.77 E13.07963
G1 X71.95 Y53.056 E13.11025
G1 X72.797 Y53.416 E13.14086
G1 X73.714 Y53.911 E13.17552
G1 X76.07 Y55.336 E13.2671
G1 X78.225 Y56.559 E13.34951
G1 X80.507 Y57.77 E13.43544
G1 X82.823 Y58.915 E13.52137
G1 X83.705 Y59.337 E13.55389
G1 X84.517 Y59.77 E13.58449
G1 X85.289 Y60.272 E13.61512
G1 X86.014 Y60.839 E13.64573
G1 X86.407 Y61.192 E13.6633
G1 X86.894 Y61.658 E13.68572
G1 X130.05 Y104.812 E15.7156
G1 X131.508 Y106.28 E15.78442
G1 X132.186 Y106.949 E15.8161
G1 X175.318 Y150.081 E17.84489
G1 X176.637 Y151.438 E17.90784
G1 X178.476 Y153.278 E17.99436
G1 X179.47 Y154.233 E18.04021
G1 X180.276 Y155.039 E18.07812
G1 X180.76 Y155.536 E18.10119
G1 X181.373 Y156.222 E18.13179
G1 X181.924 Y156.96 E18.16242
G1 X182.409 Y157.742 E18.19303
G1 X182.825 Y158.564 E18.22367
G1 X183.167 Y159.419 E18.2543
G1 X183.434 Y160.3 E18.28492
G1 X183.624 Y161.201 E18.31554
G1 X183.735 Y162.115 E18.34617
G1 X183.765 Y163.035 E18.37678
G1 X183.717 Y163.954 E18.40739
G1 X183.588 Y164.866 E18.43802
G1 X183.381 Y165.763 E18.46864
G1 X183.097 Y166.638 E18.49924
G1 X182.737 Y167.486 E18.52988
G1 X182.306 Y168.299 E18.56049
G1 X181.806 Y169.072 E18.59111
G1 X181.24 Y169.799 E18.62175
G1 X180.854 Y170.229 E18.64097
G1 X180.418 Y170.682 E18.66188
G1 X171.947 Y179.151 E19.06028
G1 X171.456 Y179.625 E19.08298
G1 X170.767 Y180.235 E19.11359
G1 X170.027 Y180.783 E19.14422
G1 X169.242 Y181.265 E19.17485
G1 X168.419 Y181.677 E19.20547
G1 X167.563 Y182.015 E19.23608
G1 X166.68 Y182.279 E19.26673
G1 X165.779 Y182.464 E19.29732
G1 X164.864 Y182.571 E19.32796
G1 X163.944 Y182.598 E19.35857
G1 X163.025 Y182.545 E19.38919
G1 X162.114 Y182.412 E19.41981
G1 X161.218 Y182.201 E19.45043
G1 X160.343 Y181.913 E19.48107
G1 X159.497 Y181.55 E19.51169
G1 X158.686 Y181.115 E19.5423
G1 X157.915 Y180.612 E19.57291
G1 X157.191 Y180.043 E19.60354
G1 X156.765 Y179.657 E19.62266
G1 X156.32 Y179.227 E19.64324
G1 X54.574 Y77.479 E24.42911
G1 X54.062 Y76.954 E24.4535
G1 X53.449 Y76.267 E24.48412
G1 X52.897 Y75.53 E24.51475
G1 X52.411 Y74.748 E24.54537
G1 X51.995 Y73.927 E24.57598
G1 X51.652 Y73.073 E24.60659
G1 X51.385 Y72.192 E24.63721
G1 X51.194 Y71.291 E24.66785
G1 X51.083 Y70.377 E24.69847
G1 X51.051 Y69.457 E24.72909
G1 X51.1 Y68.537 E24.75973
G1 X51.228 Y67.626 E24.79033
G1 X51.434 Y66.729 E24.82094
G1 X51.718 Y65.853 E24.85157
G1 X52.076 Y65.005 E24.88218
G1 X52.507 Y64.191 E24.91282
G1 X53.007 Y63.418 E24.94344
G1 X53.572 Y62.691 E24.97406
G1 X53.95 Y62.269 E24.9929
G1 X54.401 Y61.798 E25.01459
G1 X60.335 Y55.867 E25.29364
G0 F6000 X60.613 Y56.154
G1 F900 X61.122 Y55.66 E25.31723
G1 X61.797 Y55.061 E25.34725
G1 X62.523 Y54.523 E25.3773
G1 X63.294 Y54.052 E25.40735
G1 X64.103 Y53.651 E25.43738
G1 X64.944 Y53.322 E25.46742
G1 X65.811 Y53.07 E25.49745
G1 X66.697 Y52.895 E25.52749
G1 X67.595 Y52.8 E25.55752
G1 X68.498 Y52.784 E25.58756
G1 X69.399 Y52.848 E25.6176
G1 X70.291 Y52.991 E25.64765
G1 X71.166 Y53.213 E25.67767
G1 X72.018 Y53.511 E25.70769
G1 X72.841 Y53.884 E25.73775
G1 X73.507 Y54.253 E25.76307
G1 X75.871 Y55.684 E25.85498
G1 X78.062 Y56.926 E25.93875
G1 X80.28 Y58.103 E26.02226
G1 X82.651 Y59.275 E26.11023
G1 X83.532 Y59.697 E26.14272
G1 X84.329 Y60.123 E26.17278
G1 X85.085 Y60.617 E26.20282
G1 X85.794 Y61.177 E26.23287
G1 X86.403 Y61.737 E26.26038
G1 X129.766 Y105.094 E28.2999
G1 X131.226 Y106.564 E28.36881
G1 X131.903 Y107.231 E28.40042
G1 X175.031 Y150.36 E30.42906
G1 X176.314 Y151.68 E30.49028
G1 X178.223 Y153.59 E30.5801
G1 X179.187 Y154.516 E30.62456
G1 X179.989 Y155.318 E30.66228
G1 X180.473 Y155.815 E30.68535
G1 X181.074 Y156.489 E30.71539
G1 X181.613 Y157.214 E30.74544
G1 X182.086 Y157.983 E30.77546
G1 X182.488 Y158.792 E30.80551
G1 X182.818 Y159.632 E30.83553
G1 X183.072 Y160.499 E30.86558
G1 X183.248 Y161.385 E30.89562
G1 X183.345 Y162.283 E30.92566
G1 X183.363 Y163.186 E30.9557
G1 X183.3 Y164.087 E30.98574
G1 X183.158 Y164.979 E31.01578
G1 X182.938 Y165.854 E31.04579
G1 X182.641 Y166.707 E31.07583
G1 X182.27 Y167.531 E31.10589
G1 X181.828 Y168.318 E31.13591
G1 X181.317 Y169.063 E31.16596
G1 X180.564 Y169.953 E31.20473
G1 X180.135 Y170.399 E31.22532
G1 X171.669 Y178.863 E31.62348
G1 X171.178 Y179.337 E31.64618
G1 X170.501 Y179.935 E31.67623
G1 X169.774 Y180.471 E31.70627
G1 X169.003 Y180.94 E31.73628
G1 X168.193 Y181.339 E31.76632
G1 X167.35 Y181.665 E31.79638
G1 X166.483 Y181.915 E31.82639
G1 X165.596 Y182.088 E31.85645
G1 X164.698 Y182.181 E31.88647
G1 X163.795 Y182.195 E31.91651
G1 X162.894 Y182.128 E31.94656
G1 X162.003 Y181.982 E31.97659
G1 X161.128 Y181.758 E32.00663
G1 X160.276 Y181.458 E32.03668
G1 X159.455 Y181.083 E32.0667
G1 X158.669 Y180.637 E32.09675
G1 X157.927 Y180.123 E32.12678
G1 X157.042 Y179.368 E32.16547
G1 X156.602 Y178.944 E32.18579
G1 X54.861 Y77.2 E36.97145
G1 X54.349 Y76.675 E36.99584
G1 X53.747 Y76.001 E37.02589
G1 X53.208 Y75.276 E37.05594
G1 X52.735 Y74.507 E37.08597
G1 X52.332 Y73.699 E37.116
G1 X52.001 Y72.858 E37.14606
G1 X51.747 Y71.992 E37.17608
G1 X51.57 Y71.106 E37.20613
G1 X51.472 Y70.209 E37.23614
G1 X51.454 Y69.306 E37.26618
G1 X51.516 Y68.405 E37.29622
G1 X51.657 Y67.513 E37.32625
G1 X51.877 Y66.637 E37.3563
G1 X52.173 Y65.784 E37.38633
G1 X52.544 Y64.96 E37.41638
G1 X52.986 Y64.172 E37.44643
G1 X53.496 Y63.427 E37.47646
G1 X54.241 Y62.544 E37.51489
G1 X54.684 Y62.081 E37.5362
G1 X60.613 Y56.154 E37.81503
G1 F2700 E32.81503
;MESH:Rear_Spar_Inner.stl
G0 F6000 X68.224 Y62.043
G0 X76.148 Y69.967
G0 X74.027 Y72.088
G0 X72.903 Y72.089
;TYPE:WALL-OUTER
G1 F2700 E37.81503
G1 F900 X72.961 Y71.946 E37.82017
G1 X74.94 Y69.968 E37.91323
G1 X68.224 Y63.251 E38.22915
G1 X61.921 Y69.553 E38.5256
G1 X116.014 Y123.646 E41.06997
G1 X164.096 Y171.73 E43.33165
G1 X172.894 Y162.932 E43.74548
G1 X172.329 Y162.367 E43.77206
G1 X171.764 Y161.802 E43.79863
G1 X167.361 Y166.205 E44.00574
G1 X167.19 Y166.262 E44.01173
G1 X167.077 Y166.205 E44.01594
G1 X163.541 Y162.669 E44.18226
G1 X163.483 Y162.541 E44.18694
G1 X163.541 Y162.385 E44.19247
G1 X167.945 Y157.982 E44.3996
G1 X124.388 Y114.425 E46.44839
G1 X119.984 Y118.829 E46.65554
G1 X119.828 Y118.887 E46.66107
G1 X119.7 Y118.829 E46.66575
G1 X118.286 Y117.414 E46.73228
G1 X118.228 Y117.286 E46.73695
G1 X118.286 Y117.13 E46.74249
G1 X122.69 Y112.727 E46.94962
G1 X79.132 Y69.171 E48.99841
G1 X74.639 Y73.662 E49.2097
G1 X74.503 Y73.702 E49.21441
G1 X74.375 Y73.644 E49.21908
G1 X72.961 Y72.23 E49.28559
G1 X72.903 Y72.089 E49.29067
G0 F6000 X74.374 Y69.968
;TYPE:WALL-INNER
G1 F900 X68.224 Y63.817 E49.57997
G1 X62.487 Y69.553 E49.84979
G1 X112.616 Y119.682 E52.20771
G1 X113.748 Y120.816 E52.261
G1 X116.126 Y123.192 E52.37281
G1 X116.864 Y123.931 E52.40754
G1 X156.17 Y163.236 E54.25635
G1 X159.004 Y166.073 E54.38973
G1 X162.254 Y169.32 E54.54253
G1 X164.096 Y171.164 E54.62922
G1 X166.793 Y168.466 E54.7561
G1 X167.501 Y167.76 E54.78935
G1 X172.046 Y163.213 E55.00318
G1 X172.328 Y162.932 E55.01642
G1 X172.046 Y162.65 E55.02969
G1 X171.764 Y162.368 E55.04295
G1 X167.644 Y166.488 E55.23675
G1 X167.134 Y166.658 E55.25463
G1 X166.794 Y166.488 E55.26727
G1 X163.258 Y162.952 E55.43359
G1 X163.109 Y162.702 E55.44327
G1 X163.088 Y162.442 E55.45195
G1 X163.205 Y162.163 E55.46201
G1 X163.262 Y162.098 E55.46489
G1 X167.379 Y157.982 E55.65851
G1 X124.388 Y114.991 E57.68068
G1 X120.267 Y119.112 E57.87452
G1 X120.038 Y119.255 E57.8835
G1 X119.8 Y119.286 E57.89148
G1 X119.534 Y119.203 E57.90075
G1 X119.417 Y119.112 E57.90568
G1 X118.003 Y117.697 E57.97221
G1 X117.853 Y117.447 E57.98191
G1 X117.833 Y117.187 E57.99058
G1 X117.951 Y116.907 E58.00069
G1 X118.007 Y116.843 E58.00352
G1 X122.124 Y112.727 E58.19714
G1 X79.132 Y69.737 E60.21931
G1 X74.942 Y73.927 E60.41639
G1 X74.713 Y74.07 E60.42537
G1 X74.476 Y74.101 E60.43332
G1 X74.209 Y74.018 E60.44262
G1 X74.092 Y73.927 E60.44755
G1 X72.678 Y72.513 E60.51406
G1 X72.521 Y72.236 E60.52465
G1 X72.517 Y71.955 E60.534
G1 X72.602 Y71.757 E60.54117
G1 X72.678 Y71.663 E60.54519
G1 X74.374 Y69.968 E60.62494
G1 F2700 E55.62494
G0 F6000 X75.269 Y70.862
G0 X79.133 Y67.963
G0 X169.153 Y157.981
G0 X167.219 Y165.139
G0 X166.585 Y166.776
;TYPE:SKIN
G1 F2700 E60.62494
G1 F900 X166.533 Y166.738 E60.62708
G1 X163.012 Y163.215 E60.79274
G1 X162.844 Y162.996 E60.80192
G1 X162.754 Y162.761 E60.81029
G1 X162.73 Y162.433 E60.82123
G1 X162.824 Y162.102 E60.83268
G1 X162.989 Y161.866 E60.84225
G1 X163.009 Y161.843 E60.84327
G1 X166.868 Y157.983 E61.02481
G1 X124.386 Y115.5 E63.02305
G1 X120.445 Y119.435 E63.20828
G1 X120.18 Y119.584 E63.2184
G1 X119.816 Y119.645 E63.23067
G1 X119.386 Y119.529 E63.24548
G1 X119.17 Y119.374 E63.25433
G1 X117.751 Y117.954 E63.3211
G1 X117.583 Y117.721 E63.33065
G1 X117.478 Y117.386 E63.34233
G1 X117.51 Y116.998 E63.35528
G1 X117.72 Y116.628 E63.36943
G1 X117.752 Y116.588 E63.37113
G1 X121.614 Y112.727 E63.55276
G1 X79.132 Y70.247 E65.55094
G1 X75.193 Y74.185 E65.73619
G1 X74.855 Y74.399 E65.7495
G1 X74.491 Y74.46 E65.76177
G1 X74.061 Y74.344 E65.77659
G1 X73.845 Y74.189 E65.78543
G1 X72.427 Y72.77 E65.85215
G1 X72.244 Y72.507 E65.86281
G1 X72.15 Y72.138 E65.87547
G1 X72.215 Y71.73 E65.88922
G1 X72.403 Y71.434 E65.90088
G1 X72.425 Y71.407 E65.90204
G1 X73.864 Y69.968 E65.96972
G1 X68.224 Y64.327 E66.23503
G1 X62.997 Y69.553 E66.48087
G1 X164.096 Y170.653 E71.23628
G1 X167.39 Y167.357 E71.39127
G1 F871.7 X167.625 Y167.104 E71.40313
G1 F820 X167.86 Y166.85 E71.41576
G1 F777.5 X167.933 Y166.763 E71.42013
G1 X167.837 Y166.811 E71.42426
G1 F820 X167.505 Y166.907 E71.43688
G1 F871.7 X167.173 Y167.003 E71.44875
G1 F900 X167.019 Y166.992 E71.45388
G1 X166.585 Y166.776 E71.47001
G0 F6000 X167.933 Y166.763
G1 F759.5 X169.848 Y164.848 E71.57675
G1 F757.9 X171.764 Y162.932 E71.68377
G1 F2700 E66.68377
G0 F6000 X170.587 Y161.755
G0 X169.153 Y157.981
G0 X124.388 Y113.217
G0 X119.842 Y117.763
G0 X119.842 Y119.842
G1 F2700 E71.68377
G1 F900 X162.552 Y162.552 E73.69271
G0 F6000 X162.63 Y162.064
G1 F900 X120.298 Y119.732 E75.68388
G0 F6000 X120.645 Y119.513
G1 F900 X162.853 Y161.721 E77.66922
G0 F6000 X163.135 Y161.438
G1 F900 X120.93 Y119.233 E79.65441
G0 F6000 X121.212 Y118.95
G1 F900 X163.418 Y161.155 E81.63963
G0 F6000 X163.7 Y160.872
G1 F900 X121.496 Y118.668 E83.62478
G0 F6000 X121.779 Y118.385
G1 F900 X163.983 Y160.589 E85.60992
G0 F6000 X164.266 Y160.306
G1 F900 X122.062 Y118.102 E87.59507
G0 F6000 X122.345 Y117.82
G1 F900 X164.548 Y160.023 E89.58017
G0 F6000 X164.831 Y159.74
G1 F900 X122.628 Y117.537 E91.56527
G0 F6000 X122.912 Y117.255
G1 F900 X165.113 Y159.456 E93.55027
G0 F6000 X165.396 Y159.173
G1 F900 X123.194 Y116.972 E95.5353
G0 F6000 X123.477 Y116.689
G1 F900 X165.679 Y158.891 E97.52036
G0 F6000 X165.961 Y158.607
G1 F900 X123.761 Y116.407 E99.50531
G0 F6000 X124.044 Y116.124
G1 F900 X166.244 Y158.324 E101.49027
G0 F6000 X166.527 Y158.041
G1 F900 X124.327 Y115.841 E103.47523
G1 F2700 E98.47523
G0 F6000 X123.037 Y114.552
G0 X122.563 Y114.077
G0 X121.27 Y112.785
G1 F2700 E103.47523
G1 F900 X79.073 Y70.588 E105.46005
G0 F6000 X78.79 Y70.871
G1 F900 X120.988 Y113.068 E107.44489
G0 F6000 X120.705 Y113.351
G1 F900 X78.507 Y71.154 E109.42973
G0 F6000 X78.225 Y71.436
G1 F900 X120.422 Y113.634 E111.41457
G0 F6000 X120.139 Y113.917
G1 F900 X77.942 Y71.719 E113.39941
G0 F6000 X77.659 Y72.002
G1 F900 X119.856 Y114.199 E115.38423
G0 F6000 X119.573 Y114.482
G1 F900 X77.376 Y72.285 E117.36905
G0 F6000 X77.093 Y72.568
G1 F900 X119.291 Y114.765 E119.35389
G0 F6000 X119.008 Y115.048
G1 F900 X76.81 Y72.851 E121.33873
G0 F6000 X76.528 Y73.133
G1 F900 X118.725 Y115.331 E123.32357
G0 F6000 X118.442 Y115.614
G1 F900 X76.245 Y73.416 E125.30841
G0 F6000 X75.962 Y73.699
G1 F900 X118.159 Y115.896 E127.29323
G0 F6000 X117.876 Y116.179
G1 F900 X75.679 Y73.982 E129.27805
G0 F6000 X75.395 Y74.263
G1 F900 X117.596 Y116.465 E131.26308
G0 F6000 X117.372 Y116.806
G1 F900 X75.069 Y74.504 E133.25286
G0 F6000 X74.64 Y74.64
G1 F900 X117.272 Y117.272 E135.25813
G1 F2700 E130.25813
G0 F6000 X119.352 Y117.272
G0 X123.898 Y112.726
G0 X79.133 Y67.963
