;FLAVOR:Marlin
;TIME:2366
;Filament used: 1.37656m
;Layer height: 0.2
;MINX:55.351
;MINY:52.516
;MINZ:0.2
;MAXX:179.729
;MAXY:182.487
;MAXZ:2
;Generated with Cura_SteamEngine 5.0.0
M140 S70
M105
M190 S70
M104 S200
M105
M109 S200
M82 ;absolute extrusion mode
; Ender 3 Custom Start G-code
G28 ; Home all axes
M420 S1; Bed Leveling On
G92 E0 ; Reset Extruder
G1 Z2.0 F3000 ; Move Z Axis up little to prevent scratching of Heat Bed
G1 X0.1 Y20 Z0.3 F5000.0 ; Move to start position
G1 X0.1 Y200.0 Z0.3 F1500.0 E15 ; Draw the first line
G1 X0.4 Y200.0 Z0.3 F5000.0 ; Move to side a little
G1 X0.4 Y20 Z0.3 F1500.0 E30 ; Draw the second line
G92 E0 ; Reset Extruder
G1 Z2.0 F3000 ; Move Z Axis up little to prevent scratching of Heat Bed
G1 X5 Y20 Z0.3 F5000.0 ; Move over to prevent blob squish
G92 E0
G92 E0
G1 F2700 E-5
;LAYER_COUNT:10
;LAYER:0
M107
G0 F6000 X59.083 Y56.452 Z0.2
G0 X55.351 Y65.803
;TYPE:SKIRT
G1 F2700 E0
G1 F900 X55.359 Y65.467 E0.01118
G1 X55.457 Y64.244 E0.05199
G1 X55.537 Y63.657 E0.07169
G1 X55.703 Y62.734 E0.10288
G1 X55.896 Y61.994 E0.12832
G1 X55.988 Y61.686 E0.13901
G1 X56.417 Y60.501 E0.18093
G1 X56.534 Y60.228 E0.1908
G1 X56.94 Y59.382 E0.22201
G1 X57.303 Y58.749 E0.24628
G1 X57.818 Y57.965 E0.27748
G1 X58.25 Y57.403 E0.30106
G1 X58.457 Y57.151 E0.31191
G1 X59.083 Y56.452 E0.34312
G1 X59.643 Y55.917 E0.36888
G1 X59.816 Y55.763 E0.37658
G1 X60.543 Y55.17 E0.40778
G1 X61.217 Y54.7 E0.43511
G1 X62.398 Y54.011 E0.48059
G1 X62.579 Y53.92 E0.48733
G1 X63.806 Y53.394 E0.53173
G1 X64.135 Y53.276 E0.54335
G1 X65.381 Y52.91 E0.58655
G1 X65.672 Y52.843 E0.59648
G1 X66.932 Y52.63 E0.63898
G1 X67.276 Y52.592 E0.65049
G1 X68.032 Y52.534 E0.67571
G1 X68.47 Y52.516 E0.69029
G1 X69.572 Y52.526 E0.72695
G1 X70.062 Y52.555 E0.74327
G1 X70.969 Y52.647 E0.77359
G1 X71.815 Y52.768 E0.80202
G1 X72.605 Y52.91 E0.82871
G1 X73.422 Y53.094 E0.85657
G1 X74.118 Y53.273 E0.88047
G1 X74.655 Y53.423 E0.89901
G1 X75.177 Y53.582 E0.91716
G1 X76.355 Y53.975 E0.95847
G1 X77.566 Y54.42 E1.00138
G1 X78.811 Y54.921 E1.04601
G1 X80.303 Y55.574 E1.10018
G1 X81.585 Y56.174 E1.14726
G1 X83.294 Y57.02 E1.21069
G1 X83.996 Y57.392 E1.23711
G1 X85.078 Y58.054 E1.2793
G1 X86.024 Y58.713 E1.31765
G1 X88.835 Y60.737 E1.43285
G1 X92.296 Y63.267 E1.57544
G1 X95.783 Y65.858 E1.71993
G1 X99.496 Y68.662 E1.87469
G1 X102.845 Y71.233 E2.01511
G1 X106.221 Y73.868 E2.15755
G1 X109.853 Y76.757 E2.31191
G1 X113.443 Y79.67 E2.46568
G1 X116.827 Y82.472 E2.61181
G1 X120.229 Y85.348 E2.75997
G1 X123.518 Y88.188 E2.9045
G1 X125.216 Y89.681 E2.9797
G1 X126.841 Y91.126 E3.05203
G1 X128.537 Y92.65 E3.12787
G1 X130.011 Y93.991 E3.19415
G1 X131.744 Y95.587 E3.27251
G1 X133.271 Y97.009 E3.34191
G1 X134.84 Y98.489 E3.41364
G1 X136.42 Y100 E3.48636
G1 X138.164 Y101.69 E3.56713
G1 X139.578 Y103.077 E3.63301
G1 X141.113 Y104.606 E3.70507
G1 X142.601 Y106.107 E3.77537
G1 X144.13 Y107.672 E3.84814
G1 X145.537 Y109.135 E3.91565
G1 X147.062 Y110.74 E3.98928
G1 X148.318 Y112.084 E4.05047
G1 X149.928 Y113.837 E4.12963
G1 X151.197 Y115.24 E4.19255
G1 X152.421 Y116.612 E4.25371
G1 X153.757 Y118.135 E4.32109
G1 X155.059 Y119.646 E4.38743
G1 X156.468 Y121.311 E4.45997
G1 X157.741 Y122.845 E4.52628
G1 X159.056 Y124.46 E4.59554
G1 X160.212 Y125.911 E4.65725
G1 X161.54 Y127.612 E4.72902
G1 X162.612 Y129.012 E4.78767
G1 X163.761 Y130.546 E4.85142
G1 X164.862 Y132.049 E4.91339
G1 X165.969 Y133.596 E4.97666
G1 X167.028 Y135.114 E5.03822
G1 X168.085 Y136.668 E5.10073
G1 X169.028 Y138.09 E5.15748
G1 X170.097 Y139.746 E5.22303
G1 X171.002 Y141.192 E5.27977
G1 X171.952 Y142.76 E5.34075
G1 X172.839 Y144.273 E5.39908
G1 X173.794 Y145.966 E5.46373
G1 X174.617 Y147.481 E5.52108
G1 X175.413 Y149.009 E5.57838
G1 X176.323 Y150.846 E5.64656
G1 X176.623 Y151.495 E5.67034
G1 X176.98 Y152.362 E5.70153
G1 X177.261 Y153.256 E5.7327
G1 X177.466 Y154.172 E5.76392
G1 X177.589 Y155.071 E5.7941
G1 X177.717 Y156.423 E5.83927
G1 X177.999 Y158.949 E5.9238
G1 X178.347 Y161.449 E6.00776
G1 X178.773 Y163.967 E6.09269
G1 X179.002 Y165.168 E6.13336
G1 X179.427 Y167.311 E6.20602
G1 X179.51 Y167.784 E6.222
G1 X179.583 Y168.26 E6.23801
G1 X179.691 Y169.277 E6.27203
G1 X179.718 Y169.733 E6.28722
G1 X179.729 Y170.803 E6.32281
G1 X179.719 Y171.065 E6.33153
G1 X179.618 Y172.188 E6.36904
G1 X179.583 Y172.435 E6.37733
G1 X179.412 Y173.357 E6.40852
G1 X179.211 Y174.108 E6.43438
G1 X179.152 Y174.301 E6.44109
G1 X178.84 Y175.185 E6.47227
G1 X178.454 Y176.04 E6.50347
G1 X177.994 Y176.862 E6.5348
G1 X177.857 Y177.084 E6.54348
G1 X177.331 Y177.86 E6.57466
G1 X176.741 Y178.589 E6.60585
G1 X176.09 Y179.265 E6.63707
G1 X175.385 Y179.883 E6.66825
G1 X174.629 Y180.438 E6.69944
G1 X173.949 Y180.866 E6.72617
G1 X173.129 Y181.32 E6.75734
G1 X172.272 Y181.703 E6.78856
G1 X171.387 Y182.011 E6.81973
G1 X170.478 Y182.243 E6.85093
G1 X169.553 Y182.396 E6.88211
G1 X168.78 Y182.464 E6.90792
G1 X168.488 Y182.479 E6.91765
G1 X167.55 Y182.487 E6.94885
G1 X166.615 Y182.415 E6.98004
G1 X165.658 Y182.257 E7.0123
G1 X165.392 Y182.201 E7.02134
G1 X164.483 Y181.969 E7.05254
G1 X163.785 Y181.736 E7.07702
G1 X162.799 Y181.336 E7.11241
G1 X162.488 Y181.192 E7.12381
G1 X161.819 Y180.854 E7.14874
G1 X161.303 Y180.565 E7.16841
G1 X160.774 Y180.253 E7.18883
G1 X158.52 Y178.97 E7.2751
G1 X156.277 Y177.776 E7.35961
G1 X154.08 Y176.683 E7.44123
G1 X153.148 Y176.253 E7.47536
G1 X152.155 Y175.779 E7.51196
G1 X151.327 Y175.339 E7.54315
G1 X150.539 Y174.831 E7.57433
G1 X149.577 Y174.065 E7.61523
G1 X148.852 Y173.416 E7.6476
G1 X146.643 Y171.366 E7.74783
G1 X144.962 Y169.774 E7.82483
G1 X142.037 Y166.963 E7.95976
G1 X140.423 Y165.387 E8.03479
G1 X137.401 Y162.406 E8.17598
G1 X134.479 Y159.49 E8.31328
G1 X130.971 Y155.948 E8.47908
G1 X127.094 Y151.992 E8.66331
G1 X126.825 Y151.707 E8.67635
G1 X124.722 Y149.549 E8.77657
G1 X121.523 Y146.232 E8.92984
G1 X115.601 Y140.035 E9.21493
G1 X104.125 Y127.977 E9.76859
G1 X64.552 Y86.307 E11.67993
G1 X64.271 Y86.003 E11.6937
G1 X62.316 Y83.954 E11.7879
G1 X61.896 Y83.5 E11.80847
G1 X61.289 Y82.785 E11.83966
G1 X60.746 Y82.021 E11.87084
G1 X60.26 Y81.197 E11.90266
G1 X59.717 Y80.167 E11.94138
G1 X59.11 Y78.944 E11.98679
G1 X58.549 Y77.754 E12.03055
G1 X58.016 Y76.565 E12.07389
G1 X57.512 Y75.363 E12.11724
G1 X57.045 Y74.153 E12.16038
G1 X56.75 Y73.322 E12.18971
G1 X56.613 Y72.912 E12.20409
G1 X56.273 Y71.82 E12.24213
G1 X56.002 Y70.85 E12.27562
G1 X55.849 Y70.229 E12.2969
G1 X55.672 Y69.355 E12.32656
G1 X55.571 Y68.742 E12.34722
G1 X55.466 Y67.962 E12.3734
G1 X55.38 Y67.006 E12.40532
G1 X55.36 Y66.577 E12.4196
G1 X55.351 Y65.803 E12.44535
G0 F6000 X55.751 Y65.813
G1 F900 X55.759 Y65.477 E12.45653
G1 X55.853 Y64.298 E12.49587
G1 X55.933 Y63.711 E12.51557
G1 X56.097 Y62.805 E12.54619
G1 X56.279 Y62.108 E12.57015
G1 X56.371 Y61.8 E12.58085
G1 X56.785 Y60.658 E12.62125
G1 X56.902 Y60.385 E12.63113
G1 X57.301 Y59.556 E12.66173
G1 X57.647 Y58.954 E12.68482
G1 X58.152 Y58.185 E12.71542
G1 X58.559 Y57.657 E12.73759
G1 X58.766 Y57.405 E12.74844
G1 X59.381 Y56.719 E12.77908
G1 X59.909 Y56.216 E12.80334
G1 X60.082 Y56.062 E12.81104
G1 X60.796 Y55.48 E12.84168
G1 X61.44 Y55.032 E12.86777
G1 X62.578 Y54.369 E12.91158
G1 X62.759 Y54.278 E12.91831
G1 X63.941 Y53.77 E12.9611
G1 X64.27 Y53.652 E12.97273
G1 X65.471 Y53.3 E13.01436
G1 X65.762 Y53.233 E13.02429
G1 X66.976 Y53.027 E13.06524
G1 X67.32 Y52.989 E13.07675
G1 X68.049 Y52.934 E13.10107
G1 X68.487 Y52.916 E13.11565
G1 X69.548 Y52.926 E13.15094
G1 X70.038 Y52.955 E13.16727
G1 X70.913 Y53.043 E13.19651
G1 X71.759 Y53.164 E13.22494
G1 X72.519 Y53.301 E13.25062
G1 X73.325 Y53.482 E13.2781
G1 X74.011 Y53.658 E13.30166
G1 X74.548 Y53.808 E13.3202
G1 X75.051 Y53.962 E13.3377
G1 X76.229 Y54.355 E13.379
G1 X77.426 Y54.795 E13.42142
G1 X78.66 Y55.291 E13.46565
G1 X79.913 Y55.837 E13.51111
G1 X81.408 Y56.533 E13.56596
G1 X83.114 Y57.377 E13.62926
G1 X83.808 Y57.745 E13.65539
G1 X84.85 Y58.383 E13.69603
G1 X85.791 Y59.037 E13.73414
G1 X88.599 Y61.06 E13.84925
G1 X92.057 Y63.588 E13.99172
G1 X95.542 Y66.178 E14.13614
G1 X99.253 Y68.979 E14.29078
G1 X102.599 Y71.548 E14.43109
G1 X105.972 Y74.181 E14.57341
G1 X109.601 Y77.068 E14.72764
G1 X113.188 Y79.978 E14.88127
G1 X116.568 Y82.777 E15.02723
G1 X119.968 Y85.651 E15.1753
G1 X123.254 Y88.489 E15.31972
G1 X124.95 Y89.98 E15.39482
G1 X126.574 Y91.424 E15.4671
G1 X128.268 Y92.946 E15.54285
G1 X129.741 Y94.286 E15.60908
G1 X131.471 Y95.879 E15.6873
G1 X132.997 Y97.3 E15.75665
G1 X134.563 Y98.779 E15.82829
G1 X136.142 Y100.287 E15.90091
G1 X137.883 Y101.976 E15.98159
G1 X139.296 Y103.361 E16.0474
G1 X140.829 Y104.888 E16.11936
G1 X142.315 Y106.387 E16.18957
G1 X143.841 Y107.949 E16.2622
G1 X145.247 Y109.41 E16.32964
G1 X146.769 Y111.013 E16.40316
G1 X148.023 Y112.355 E16.46425
G1 X149.631 Y114.106 E16.54332
G1 X150.899 Y115.506 E16.60614
G1 X152.12 Y116.876 E16.66718
G1 X153.454 Y118.396 E16.73444
G1 X154.753 Y119.905 E16.80067
G1 X156.16 Y121.566 E16.87307
G1 X157.431 Y123.098 E16.93927
G1 X158.743 Y124.71 E17.0084
G1 X159.897 Y126.158 E17.06999
G1 X161.223 Y127.855 E17.14162
G1 X162.292 Y129.252 E17.20013
G1 X163.438 Y130.782 E17.26371
G1 X164.537 Y132.282 E17.32555
G1 X165.641 Y133.825 E17.38866
G1 X166.697 Y135.339 E17.45005
G1 X167.752 Y136.889 E17.51241
G1 X168.692 Y138.307 E17.569
G1 X169.758 Y139.958 E17.63436
G1 X170.66 Y141.4 E17.69093
G1 X171.607 Y142.963 E17.75172
G1 X172.491 Y144.47 E17.80983
G1 X173.443 Y146.157 E17.87425
G1 X174.263 Y147.667 E17.9314
G1 X175.055 Y149.187 E17.98841
G1 X175.96 Y151.013 E18.05619
G1 X176.26 Y151.662 E18.07997
G1 X176.609 Y152.514 E18.1106
G1 X176.884 Y153.393 E18.14123
G1 X177.081 Y154.292 E18.17184
G1 X177.191 Y155.109 E18.19926
G1 X177.317 Y156.441 E18.24376
G1 X177.604 Y159.017 E18.32997
G1 X177.951 Y161.5 E18.41336
G1 X178.383 Y164.059 E18.49967
G1 X178.61 Y165.246 E18.53987
G1 X179.035 Y167.389 E18.61253
G1 X179.115 Y167.844 E18.6279
G1 X179.188 Y168.32 E18.64391
G1 X179.291 Y169.3 E18.67669
G1 X179.318 Y169.756 E18.69188
G1 X179.329 Y170.787 E18.72618
G1 X179.319 Y171.049 E18.7349
G1 X179.222 Y172.132 E18.77106
G1 X179.187 Y172.379 E18.77936
G1 X179.019 Y173.284 E18.80997
G1 X178.829 Y173.991 E18.83432
G1 X178.77 Y174.184 E18.84103
G1 X178.463 Y175.052 E18.87166
G1 X178.082 Y175.89 E18.90227
G1 X177.654 Y176.652 E18.93134
G1 X177.517 Y176.874 E18.94002
G1 X177 Y177.636 E18.97065
G1 X176.418 Y178.35 E19.00128
G1 X175.777 Y179.01 E19.03188
G1 X175.081 Y179.613 E19.06251
G1 X174.021 Y180.353 E19.10551
G1 X173.741 Y180.524 E19.11642
G1 X172.935 Y180.97 E19.14706
G1 X172.094 Y181.343 E19.17766
G1 X171.223 Y181.643 E19.2083
G1 X170.33 Y181.865 E19.23891
G1 X169.42 Y182.009 E19.26955
G1 X168.76 Y182.064 E19.29158
G1 X168.468 Y182.079 E19.3013
G1 X167.547 Y182.086 E19.33193
G1 X166.629 Y182.014 E19.36256
G1 X165.74 Y181.866 E19.39254
G1 X165.474 Y181.81 E19.40158
G1 X164.154 Y181.441 E19.44716
G1 X163.917 Y181.358 E19.45552
G1 X162.967 Y180.973 E19.48961
G1 X162.656 Y180.829 E19.50101
G1 X162.011 Y180.503 E19.52505
G1 X161.506 Y180.221 E19.54428
G1 X160.903 Y179.866 E19.56756
G1 X158.727 Y178.627 E19.65084
G1 X156.464 Y177.422 E19.73611
G1 X154.22 Y176.306 E19.81947
G1 X153.321 Y175.892 E19.85239
G1 X152.328 Y175.418 E19.88899
G1 X151.515 Y174.986 E19.91961
G1 X150.743 Y174.485 E19.95022
G1 X149.843 Y173.767 E19.98851
G1 X149.124 Y173.123 E20.02061
G1 X146.918 Y171.075 E20.12073
G1 X145.239 Y169.486 E20.19762
G1 X142.317 Y166.676 E20.33245
G1 X140.704 Y165.102 E20.40741
G1 X137.683 Y162.123 E20.54853
G1 X134.763 Y159.209 E20.68573
G1 X131.256 Y155.668 E20.85149
G1 X127.385 Y151.717 E21.03546
G1 X127.089 Y151.403 E21.04982
G1 X125.01 Y149.271 E21.14886
G1 X121.812 Y145.956 E21.30206
G1 X115.891 Y139.76 E21.58711
G1 X104.415 Y127.702 E22.14076
G1 X64.846 Y86.035 E24.05194
G1 X64.601 Y85.77 E24.06395
G1 X62.61 Y83.682 E24.15991
G1 X62.19 Y83.228 E24.18048
G1 X61.595 Y82.526 E24.21108
G1 X61.063 Y81.775 E24.24169
G1 X60.613 Y81.009 E24.27124
G1 X60.075 Y79.989 E24.3096
G1 X59.472 Y78.772 E24.35477
G1 X58.914 Y77.59 E24.39825
G1 X58.384 Y76.409 E24.4413
G1 X57.885 Y75.218 E24.48425
G1 X57.422 Y74.019 E24.527
G1 X57.127 Y73.188 E24.55633
G1 X56.995 Y72.793 E24.57018
G1 X56.655 Y71.701 E24.60822
G1 X56.388 Y70.745 E24.64123
G1 X56.239 Y70.138 E24.66202
G1 X56.064 Y69.279 E24.69118
G1 X55.968 Y68.688 E24.71109
G1 X55.863 Y67.908 E24.73727
G1 X55.78 Y66.988 E24.76799
G1 X55.76 Y66.559 E24.78228
G1 X55.751 Y65.813 E24.80709
G0 F6000 X56.151 Y65.822
G1 F900 X56.159 Y65.486 E24.81827
G1 X56.249 Y64.352 E24.8561
G1 X56.329 Y63.765 E24.87581
G1 X56.491 Y62.876 E24.90586
G1 X56.663 Y62.223 E24.92832
G1 X56.755 Y61.915 E24.93901
G1 X57.153 Y60.816 E24.97789
G1 X57.27 Y60.543 E24.98777
G1 X57.662 Y59.73 E25.01779
G1 X57.99 Y59.159 E25.03969
G1 X58.487 Y58.405 E25.06973
G1 X58.868 Y57.911 E25.09048
G1 X59.075 Y57.659 E25.10132
G1 X59.679 Y56.987 E25.13138
G1 X60.175 Y56.514 E25.15417
G1 X60.348 Y56.36 E25.16187
G1 X61.049 Y55.79 E25.19193
G1 X61.662 Y55.365 E25.21673
G1 X62.757 Y54.726 E25.2589
G1 X62.938 Y54.635 E25.26564
G1 X64.076 Y54.147 E25.30682
G1 X64.405 Y54.029 E25.31845
G1 X65.56 Y53.69 E25.35848
G1 X65.851 Y53.623 E25.36842
G1 X67.02 Y53.425 E25.40785
G1 X67.364 Y53.387 E25.41936
G1 X68.065 Y53.334 E25.44274
G1 X68.503 Y53.316 E25.45732
G1 X69.525 Y53.325 E25.49132
G1 X70.015 Y53.354 E25.50764
G1 X70.856 Y53.439 E25.53576
G1 X71.702 Y53.56 E25.56418
G1 X72.434 Y53.692 E25.58892
G1 X73.228 Y53.87 E25.61599
G1 X73.903 Y54.043 E25.63916
G1 X74.44 Y54.193 E25.65771
G1 X74.924 Y54.341 E25.67454
G1 X76.439 Y54.853 E25.72773
G1 X77.562 Y55.277 E25.76765
G1 X78.766 Y55.77 E25.81093
G1 X79.965 Y56.299 E25.85451
G1 X81.232 Y56.892 E25.90104
G1 X82.934 Y57.734 E25.9642
G1 X83.619 Y58.098 E25.99
G1 X84.622 Y58.711 E26.0291
G1 X85.557 Y59.362 E26.06699
G1 X88.363 Y61.383 E26.182
G1 X91.819 Y63.909 E26.32438
G1 X95.301 Y66.497 E26.46868
G1 X99.009 Y69.296 E26.6232
G1 X102.353 Y71.863 E26.76341
G1 X105.723 Y74.494 E26.90561
G1 X109.349 Y77.379 E27.05973
G1 X112.933 Y80.287 E27.21324
G1 X116.31 Y83.083 E27.35906
G1 X119.706 Y85.954 E27.50697
G1 X122.989 Y88.789 E27.65124
G1 X124.684 Y90.279 E27.7263
G1 X126.307 Y91.721 E27.79851
G1 X127.999 Y93.242 E27.87418
G1 X129.47 Y94.58 E27.94032
G1 X131.199 Y96.172 E28.01849
G1 X132.722 Y97.591 E28.08772
G1 X134.287 Y99.068 E28.1593
G1 X135.863 Y100.574 E28.2318
G1 X137.603 Y102.261 E28.31241
G1 X139.013 Y103.644 E28.3781
G1 X140.545 Y105.169 E28.44999
G1 X142.028 Y106.666 E28.52008
G1 X143.553 Y108.227 E28.59266
G1 X144.957 Y109.686 E28.66001
G1 X146.477 Y111.286 E28.73341
G1 X147.729 Y112.626 E28.7944
G1 X149.335 Y114.374 E28.87336
G1 X150.6 Y115.772 E28.93606
G1 X151.819 Y117.14 E28.99701
G1 X153.151 Y118.657 E29.06415
G1 X154.448 Y120.163 E29.13026
G1 X155.853 Y121.822 E29.20256
G1 X157.12 Y123.35 E29.26858
G1 X158.43 Y124.959 E29.33759
G1 X159.582 Y126.404 E29.39906
G1 X160.905 Y128.098 E29.47055
G1 X161.972 Y129.492 E29.52894
G1 X163.116 Y131.019 E29.5924
G1 X164.212 Y132.515 E29.65408
G1 X165.313 Y134.054 E29.71702
G1 X166.367 Y135.564 E29.77826
G1 X167.419 Y137.11 E29.84046
G1 X168.356 Y138.524 E29.89688
G1 X169.419 Y140.171 E29.96208
G1 X170.318 Y141.607 E30.01842
G1 X171.262 Y143.165 E30.07901
G1 X172.142 Y144.667 E30.13691
G1 X173.092 Y146.348 E30.20113
G1 X173.908 Y147.852 E30.25805
G1 X174.697 Y149.366 E30.31483
G1 X175.597 Y151.181 E30.38221
G1 X175.897 Y151.83 E30.40599
G1 X176.239 Y152.666 E30.43603
G1 X176.506 Y153.529 E30.46608
G1 X176.696 Y154.412 E30.49612
G1 X176.792 Y155.147 E30.52077
G1 X176.916 Y156.459 E30.56461
G1 X177.204 Y159.044 E30.65112
G1 X177.554 Y161.55 E30.73527
G1 X177.993 Y164.149 E30.82294
G1 X178.217 Y165.324 E30.86273
G1 X178.642 Y167.467 E30.93539
G1 X178.792 Y168.381 E30.9662
G1 X178.892 Y169.324 E30.99774
G1 X178.919 Y169.78 E31.01293
G1 X178.93 Y170.772 E31.04593
G1 X178.92 Y171.034 E31.05465
G1 X178.826 Y172.076 E31.08945
G1 X178.791 Y172.323 E31.09774
G1 X178.625 Y173.211 E31.12779
G1 X178.446 Y173.874 E31.15063
G1 X178.387 Y174.067 E31.15734
G1 X178.085 Y174.918 E31.18738
G1 X177.709 Y175.739 E31.21741
G1 X177.313 Y176.442 E31.24425
