;FLAVOR:Marlin
;TIME:5870
;Filament used: 3.38632m
;Layer height: 0.2
;MINX:95.926
;MINY:86.158
;MINZ:0.2
;MAXX:139.067
;MAXY:148.842
;MAXZ:66
;Generated with Cura_SteamEngine 5.0.0
M140 S70
M105
M190 S70
M104 S200
M105
M109 S200
M82 ;absolute extrusion mode
; Ender 3 Custom Start G-code
G28 ; Home all axes
M420 S1; Bed Leveling On
G92 E0 ; Reset Extruder
G1 Z2.0 F3000 ; Move Z Axis up little to prevent scratching of Heat Bed
G1 X0.1 Y20 Z0.3 F5000.0 ; Move to start position
G1 X0.1 Y200.0 Z0.3 F1500.0 E15 ; Draw the first line
G1 X0.4 Y200.0 Z0.3 F5000.0 ; Move to side a little
G1 X0.4 Y20 Z0.3 F1500.0 E30 ; Draw the second line
G92 E0 ; Reset Extruder
G1 Z2.0 F3000 ; Move Z Axis up little to prevent scratching of Heat Bed
G1 X5 Y20 Z0.3 F5000.0 ; Move over to prevent blob squish
G92 E0
G92 E0
G1 F2700 E-5
;LAYER_COUNT:330
;LAYER:0
M107
G0 F6000 X98.5 Y90.201 Z0.2
G0 X95.926 Y97.097
;TYPE:SKIRT
G1 F2700 E0
G1 F900 X95.981 Y96.161 E0.03119
G1 X96.116 Y95.232 E0.06241
G1 X96.329 Y94.319 E0.09359
G1 X96.619 Y93.427 E0.12479
G1 X96.984 Y92.563 E0.15598
G1 X97.422 Y91.734 E0.18717
G1 X97.928 Y90.944 E0.21837
G1 X98.5 Y90.201 E0.24956
G1 X99.133 Y89.509 E0.28075
G1 X99.823 Y88.873 E0.31196
G1 X100.564 Y88.299 E0.34314
G1 X101.406 Y87.758 E0.37642
G1 X101.606 Y87.642 E0.38411
G1 X102.437 Y87.206 E0.41533
G1 X103.301 Y86.843 E0.4465
G1 X104.194 Y86.555 E0.4777
G1 X105.108 Y86.344 E0.5089
G1 X106.036 Y86.211 E0.54008
G1 X106.973 Y86.158 E0.5713
G1 X107.91 Y86.185 E0.60248
G1 X108.842 Y86.292 E0.63368
G1 X109.761 Y86.478 E0.66486
G1 X110.661 Y86.741 E0.69605
G1 X111.536 Y87.08 E0.72726
G1 X112.378 Y87.492 E0.75844
G1 X113.182 Y87.975 E0.78963
G1 X113.942 Y88.524 E0.82082
G1 X114.653 Y89.136 E0.85202
G1 X115.309 Y89.807 E0.88323
G1 X115.905 Y90.531 E0.91442
G1 X116.314 Y91.111 E0.93803
G1 X116.684 Y91.684 E0.96071
G1 X137.104 Y125.047 E2.26172
G1 X137.462 Y125.649 E2.28501
G1 X137.906 Y126.474 E2.31617
G1 X138.279 Y127.335 E2.34738
G1 X138.577 Y128.224 E2.37857
G1 X138.798 Y129.136 E2.40978
G1 X138.94 Y130.063 E2.44097
G1 X139.007 Y131.29 E2.48184
G1 X139.006 Y131.806 E2.499
G1 X139.045 Y134.773 E2.5977
G1 X139.067 Y135.532 E2.62295
G1 X139.054 Y136.47 E2.65415
G1 X138.961 Y137.403 E2.68534
G1 X138.789 Y138.325 E2.71653
G1 X138.539 Y139.229 E2.74773
G1 X138.213 Y140.108 E2.77891
G1 X137.813 Y140.957 E2.81012
G1 X137.343 Y141.768 E2.8413
G1 X136.804 Y142.536 E2.87251
G1 X136.203 Y143.256 E2.9037
G1 X135.542 Y143.921 E2.93489
G1 X134.827 Y144.528 E2.96608
G1 X133.82 Y145.226 E3.00683
G1 X133.229 Y145.583 E3.0298
G1 X130.57 Y147.117 E3.1319
G1 X129.987 Y147.443 E3.15412
G1 X129.149 Y147.865 E3.18532
G1 X128.279 Y148.215 E3.21651
G1 X127.382 Y148.489 E3.24771
G1 X126.465 Y148.686 E3.2789
G1 X125.535 Y148.804 E3.31008
G1 X124.598 Y148.842 E3.34127
G1 X123.661 Y148.8 E3.37247
G1 X122.731 Y148.679 E3.40366
G1 X121.814 Y148.479 E3.43488
G1 X120.918 Y148.201 E3.46608
G1 X120.049 Y147.848 E3.49728
G1 X118.877 Y147.225 E3.54142
G1 X116.943 Y146.042 E3.61683
G1 X115.171 Y145.012 E3.685
G1 X114.381 Y144.506 E3.7162
G1 X113.637 Y143.935 E3.74739
G1 X112.944 Y143.303 E3.77859
G1 X112.308 Y142.614 E3.80978
G1 X111.732 Y141.874 E3.84097
G1 X111.222 Y141.087 E3.87216
G1 X110.78 Y140.259 E3.90338
G1 X110.363 Y139.267 E3.93917
G1 X109.983 Y138.219 E3.97624
G1 X108.379 Y133.556 E4.14025
G1 X104.659 Y122.685 E4.52241
G1 X102.701 Y117.041 E4.7211
G1 X101.195 Y112.777 E4.87151
G1 X99.75 Y108.775 E5.01303
G1 X98.846 Y106.38 E5.09817
G1 X97.893 Y104.055 E5.18175
G1 X97.388 Y102.926 E5.22288
G1 X96.838 Y101.662 E5.26873
G1 X96.501 Y100.787 E5.29992
G1 X96.24 Y99.886 E5.33112
G1 X96.056 Y98.966 E5.36232
G1 X95.951 Y98.034 E5.39352
G1 X95.926 Y97.097 E5.42469
G0 F6000 X96.328 Y97.019
G1 F900 X96.39 Y96.1 E5.45533
G1 X96.532 Y95.19 E5.48596
G1 X96.751 Y94.296 E5.51657
G1 X97.048 Y93.425 E5.54718
G1 X97.419 Y92.582 E5.57782
G1 X97.862 Y91.775 E5.60844
G1 X98.373 Y91.01 E5.63903
G1 X98.949 Y90.291 E5.66967
G1 X99.585 Y89.625 E5.7003
G1 X100.276 Y89.017 E5.73092
G1 X101.018 Y88.472 E5.76154
G1 X101.607 Y88.104 E5.78464
G1 X101.807 Y87.988 E5.79233
G1 X102.622 Y87.561 E5.82293
G1 X103.472 Y87.206 E5.85357
G1 X104.349 Y86.927 E5.88418
G1 X105.248 Y86.725 E5.91482
G1 X106.16 Y86.601 E5.94544
G1 X107.079 Y86.557 E5.97604
G1 X107.999 Y86.593 E6.00666
G1 X108.913 Y86.709 E6.0373
G1 X109.813 Y86.903 E6.06792
G1 X110.692 Y87.175 E6.09853
G1 X111.545 Y87.522 E6.12916
G1 X112.364 Y87.942 E6.15977
G1 X113.144 Y88.432 E6.19041
G1 X113.878 Y88.987 E6.22101
G1 X114.562 Y89.604 E6.25165
G1 X115.189 Y90.278 E6.28227
G1 X115.98 Y91.33 E6.32605
G1 X116.343 Y91.892 E6.3483
G1 X136.76 Y125.251 E7.64914
G1 X137.118 Y125.853 E7.67243
G1 X137.553 Y126.664 E7.70304
G1 X137.917 Y127.51 E7.73367
G1 X138.206 Y128.384 E7.76429
G1 X138.418 Y129.28 E7.79492
G1 X138.552 Y130.191 E7.82554
G1 X138.607 Y131.289 E7.86211
G1 X138.606 Y131.81 E7.87944
G1 X138.645 Y134.726 E7.97643
G1 X138.668 Y135.544 E8.00365
G1 X138.654 Y136.464 E8.03425
G1 X138.561 Y137.38 E8.06487
G1 X138.388 Y138.284 E8.09549
G1 X138.138 Y139.17 E8.12611
G1 X137.811 Y140.031 E8.15674
G1 X137.411 Y140.86 E8.18735
G1 X136.941 Y141.652 E8.21798
G1 X136.404 Y142.4 E8.24861
G1 X135.804 Y143.098 E8.27922
G1 X135.146 Y143.742 E8.30985
G1 X134.434 Y144.326 E8.34048
G1 X133.611 Y144.885 E8.37357
G1 X133.029 Y145.237 E8.39619
G1 X130.374 Y146.768 E8.49812
G1 X129.791 Y147.094 E8.52034
G1 X128.969 Y147.508 E8.55095
G1 X128.114 Y147.849 E8.58157
G1 X127.232 Y148.115 E8.61221
G1 X126.331 Y148.303 E8.64282
G1 X125.417 Y148.412 E8.67344
G1 X124.497 Y148.441 E8.70405
G1 X123.578 Y148.391 E8.73466
G1 X122.666 Y148.261 E8.7653
G1 X121.77 Y148.052 E8.7959
G1 X120.894 Y147.766 E8.82655
G1 X120.047 Y147.406 E8.85716
G1 X119.086 Y146.884 E8.89354
G1 X117.14 Y145.694 E8.9694
G1 X115.372 Y144.666 E9.03742
G1 X114.597 Y144.169 E9.06805
G1 X113.868 Y143.607 E9.09866
G1 X113.19 Y142.984 E9.12929
G1 X112.569 Y142.304 E9.15992
G1 X112.009 Y141.573 E9.19054
G1 X111.515 Y140.796 E9.22117
G1 X111.09 Y139.979 E9.2518
G1 X110.739 Y139.13 E9.28235
G1 X110.361 Y138.089 E9.31919
G1 X108.758 Y133.427 E9.48316
G1 X105.038 Y122.556 E9.86531
G1 X103.079 Y116.91 E10.06408
G1 X101.571 Y112.641 E10.21467
G1 X100.128 Y108.646 E10.35594
G1 X99.214 Y106.223 E10.44208
G1 X98.264 Y103.905 E10.5254
G1 X97.755 Y102.766 E10.56689
G1 X97.205 Y101.502 E10.61274
G1 X96.875 Y100.643 E10.64335
G1 X96.62 Y99.758 E10.67398
G1 X96.444 Y98.855 E10.70458
G1 X96.346 Y97.939 E10.73522
G1 X96.328 Y97.019 E10.76582
G0 F6000 X96.73 Y96.942
G1 F900 X96.8 Y96.042 E10.79585
G1 X96.948 Y95.151 E10.82589
G1 X97.175 Y94.277 E10.85592
G1 X97.478 Y93.426 E10.88597
G1 X97.855 Y92.606 E10.91598
G1 X98.304 Y91.822 E10.94603
G1 X98.82 Y91.081 E10.97607
G1 X99.399 Y90.388 E11.0061
G1 X100.038 Y89.749 E11.03616
G1 X100.73 Y89.17 E11.06617
G1 X101.807 Y88.45 E11.10926
G1 X102.007 Y88.334 E11.11695
G1 X102.808 Y87.916 E11.147
G1 X103.642 Y87.57 E11.17703
G1 X104.504 Y87.3 E11.20707
G1 X105.386 Y87.106 E11.23711
G1 X106.282 Y86.992 E11.26715
G1 X107.184 Y86.957 E11.29717
G1 X108.086 Y87.002 E11.32721
G1 X108.981 Y87.127 E11.35727
G1 X109.861 Y87.331 E11.38731
G1 X110.719 Y87.611 E11.41733
G1 X111.549 Y87.967 E11.44737
G1 X112.345 Y88.394 E11.47741
G1 X113.1 Y88.89 E11.50746
G1 X113.808 Y89.451 E11.5375
G1 X114.463 Y90.072 E11.56752
G1 X115.061 Y90.749 E11.59757
G1 X115.646 Y91.55 E11.63056
G1 X116.002 Y92.101 E11.65238
G1 X136.416 Y125.455 E12.95302
G1 X136.774 Y126.057 E12.97632
G1 X137.201 Y126.853 E13.00636
G1 X137.555 Y127.684 E13.0364
G1 X137.835 Y128.543 E13.06645
G1 X138.038 Y129.423 E13.09649
G1 X138.162 Y130.317 E13.12651
G1 X138.207 Y131.288 E13.15884
G1 X138.206 Y131.814 E13.17634
G1 X138.245 Y134.742 E13.27373
G1 X138.268 Y135.555 E13.30078
G1 X138.254 Y136.458 E13.33082
G1 X138.16 Y137.356 E13.36085
G1 X137.987 Y138.243 E13.39091
G1 X137.736 Y139.11 E13.42093
G1 X137.409 Y139.952 E13.45097
G1 X137.01 Y140.762 E13.481
G1 X136.54 Y141.533 E13.51104
G1 X136.004 Y142.26 E13.54108
G1 X135.405 Y142.937 E13.57114
G1 X134.75 Y143.557 E13.60114
G1 X134.041 Y144.118 E13.63121
G1 X133.402 Y144.544 E13.65675
G1 X132.829 Y144.891 E13.67903
G1 X130.179 Y146.419 E13.78078
G1 X129.596 Y146.745 E13.80299
G1 X128.789 Y147.15 E13.83302
G1 X127.95 Y147.483 E13.86305
G1 X127.084 Y147.739 E13.89308
G1 X126.199 Y147.919 E13.92312
G1 X125.301 Y148.019 E13.95317
G1 X124.398 Y148.04 E13.98321
G1 X123.497 Y147.98 E14.01325
G1 X122.605 Y147.841 E14.04327
G1 X121.728 Y147.624 E14.07332
G1 X120.874 Y147.33 E14.10336
G1 X120.05 Y146.962 E14.13338
G1 X119.295 Y146.543 E14.1621
G1 X117.338 Y145.346 E14.2384
G1 X115.573 Y144.32 E14.3063
G1 X114.813 Y143.832 E14.33634
G1 X114.099 Y143.279 E14.36638
G1 X113.437 Y142.665 E14.39641
G1 X112.832 Y141.994 E14.42646
G1 X112.288 Y141.273 E14.4565
G1 X111.811 Y140.507 E14.48651
G1 X111.403 Y139.701 E14.51656
G1 X111.114 Y138.993 E14.54199
G1 X110.739 Y137.959 E14.57858
G1 X109.136 Y133.297 E14.74254
G1 X105.416 Y122.426 E15.1247
G1 X103.457 Y116.779 E15.3235
G1 X101.923 Y112.436 E15.47669
G1 X100.536 Y108.595 E15.61252
G1 X99.582 Y106.067 E15.70239
G1 X98.63 Y103.743 E15.78592
G1 X98.122 Y102.607 E15.82731
G1 X97.572 Y101.343 E15.87316
G1 X97.249 Y100.499 E15.90322
G1 X97.001 Y99.631 E15.93324
G1 X96.832 Y98.744 E15.96327
G1 X96.741 Y97.845 E15.99333
G1 X96.73 Y96.942 E16.02336
G1 F2700 E11.02336
;MESH:TE_End.stl
G0 F6000 X106.381 Y97.685
G0 X107.084 Y97.317
;TYPE:WALL-OUTER
G1 F2700 E16.02336
G1 F1313.9 X107.317 Y97.73 E16.03417
G1 F1188.1 X107.459 Y97.988 E16.04159
G1 F1094.2 X107.602 Y98.246 E16.04966
G1 F1011.2 X107.745 Y98.504 E16.05839
G1 F942.4 X107.888 Y98.763 E16.06778
G1 F869.6 X108.04 Y99.047 E16.07887
G1 F798.2 X108.192 Y99.331 E16.09095
G1 F739.2 X108.344 Y99.615 E16.104
G1 F681.8 X108.494 Y99.902 E16.11821
G1 F628.3 X108.644 Y100.189 E16.13364
G1 F592.1 X108.699 Y100.301 E16.13995
G1 F560.7 X108.829 Y100.569 E16.15585
G1 F524 X108.959 Y100.837 E16.17287
G0 F6000 X108.958 Y101.02
G1 F638.3 X109.032 Y101.264 E16.18483
G1 F667.9 X109.106 Y101.508 E16.19625
G1 F701.8 X109.181 Y101.752 E16.20714
G1 F737.7 X109.255 Y101.996 E16.21749
G1 F777.5 X109.33 Y102.24 E16.22732
G1 F823.8 X109.404 Y102.484 E16.23658
G1 F873.8 X109.479 Y102.728 E16.24533
G1 F900 X111.867 Y109.355 E16.47961
G1 X115.325 Y119.256 E16.82843
G1 X120.792 Y135.207 E17.38926
G1 X122.518 Y134.214 E17.45549
G1 X122.68 Y134.197 E17.4609
G1 X122.792 Y134.287 E17.46568
G1 X124.692 Y137.577 E17.59205
G1 X127.807 Y135.778 E17.71169
G1 X125.908 Y132.489 E17.83801
G1 X125.897 Y132.311 E17.84394
G1 X125.982 Y132.214 E17.84823
G1 X127.741 Y131.2 E17.91576
G1 X125.054 Y126.812 E18.08689
G1 F902.3 X124.794 Y126.384 E18.10351
G1 X124.425 Y125.785 E18.12685
G1 F900 X110.124 Y102.42 E19.03798
G1 F873.8 X109.979 Y102.211 E19.0467
G1 F823.8 X109.834 Y102.001 E19.05597
G1 F777.5 X109.689 Y101.791 E19.06579
G1 F737.7 X109.544 Y101.581 E19.07615
G1 F701.8 X109.399 Y101.372 E19.087
G1 F667.9 X109.253 Y101.162 E19.09846
G1 F638.3 X109.108 Y100.952 E19.11043
G1 F563.4 X108.959 Y100.847 E19.12011
G1 X108.958 Y101.02 E19.12931
G1 F2700 E14.12931
G0 F6000 X123.109 Y129.114
G1 F2700 E19.12931
G1 F900 X123.082 Y129.139 E19.13053
G1 X122.683 Y129.445 E19.14725
G1 X122.176 Y129.666 E19.16565
G1 X121.893 Y129.729 E19.17529
G1 X121.358 Y129.744 E19.19309
G1 X121.07 Y129.701 E19.20278
G1 X120.804 Y129.623 E19.212
G1 X120.551 Y129.514 E19.22116
G1 X120.517 Y129.495 E19.22246
G1 X120.106 Y129.209 E19.23911
G1 X119.742 Y128.799 E19.25735
G1 X119.592 Y128.549 E19.26704
G1 X119.483 Y128.294 E19.27627
G1 X119.366 Y127.773 E19.29403
G1 X119.357 Y127.484 E19.30364
G1 X119.383 Y127.204 E19.313
G1 X119.535 Y126.69 E19.33082
G1 X119.664 Y126.432 E19.34042
G1 X119.684 Y126.4 E19.34167
G1 X119.993 Y126.006 E19.35833
G1 X120.029 Y125.971 E19.36
G1 X120.427 Y125.666 E19.37667
G1 X120.934 Y125.445 E19.39507
G1 X121.217 Y125.382 E19.40471
G1 X121.752 Y125.366 E19.42252
G1 X121.803 Y125.371 E19.42422
G1 X122.293 Y125.485 E19.44095
G1 X122.557 Y125.596 E19.45048
G1 X122.795 Y125.739 E19.45971
G1 F902.3 X123.013 Y125.91 E19.4689
G1 X123.039 Y125.934 E19.47008
G1 F900 X123.368 Y126.311 E19.48672
G1 X123.397 Y126.353 E19.48842
G1 X123.621 Y126.802 E19.50511
G1 F902.3 X123.636 Y126.849 E19.50674
G1 X123.744 Y127.338 E19.52336
G1 F900 X123.753 Y127.628 E19.53301
G1 X123.727 Y127.907 E19.54233
G1 X123.575 Y128.421 E19.56016
G1 X123.301 Y128.895 E19.57837
G1 X123.109 Y129.114 E19.58805
G1 F2700 E14.58805
G0 F6000 X122.366 Y128.615
G0 X120.444 Y128.294
G0 X119.146 Y128.81
;TYPE:WALL-INNER
G1 F2700 E19.58805
G1 F581.6 X119.02 Y128.487 E19.6059
G1 X118.933 Y128.187 E19.62198
G1 F554.7 X118.846 Y127.886 E19.63888
G0 F6000 X119.152 Y126.574
G1 F900 X119.308 Y126.249 E19.65087
G1 X119.369 Y126.153 E19.65466
G1 X119.678 Y125.759 E19.67131
G1 X119.786 Y125.653 E19.67634
G1 X120.184 Y125.348 E19.69302
G1 X120.443 Y125.218 E19.70266
G1 X120.779 Y125.076 E19.71479
G1 X121.135 Y124.99 E19.72697
G1 X121.742 Y124.966 E19.74718
G1 X121.894 Y124.981 E19.75226
G1 X122.384 Y125.095 E19.76899
G1 X122.717 Y125.229 E19.78093
G1 X123.003 Y125.397 E19.79196
G1 F875.9 X123.269 Y125.587 E19.80313
G1 F839.2 X123.353 Y125.658 E19.80706
G1 F847.1 X123.51 Y125.854 E19.81593
G1 F893.3 X123.667 Y126.051 E19.82437
G1 F923.1 X123.75 Y126.177 E19.82927
G1 F916 X123.866 Y126.399 E19.83745
G1 F891.1 X123.983 Y126.621 E19.84588
G1 F884.5 X124.03 Y126.763 E19.85094
G1 F895.5 X124.135 Y127.252 E19.86766
G1 F900 X124.153 Y127.62 E19.87992
G1 X124.125 Y127.948 E19.89086
G1 X123.958 Y128.537 E19.91123
G1 X123.645 Y129.099 E19.93262
G1 X123.407 Y129.382 E19.94492
G1 X123.325 Y129.457 E19.94862
G1 X122.926 Y129.763 E19.96534
G1 X122.636 Y129.905 E19.97608
G1 X122.332 Y130.034 E19.98706
G1 X121.975 Y130.121 E19.99929
G1 X121.367 Y130.144 E20.01952
G1 X121.005 Y130.096 E20.03167
G1 X120.69 Y130.007 E20.04256
G1 X120.39 Y129.88 E20.05339
G1 X119.878 Y129.537 E20.07389
G1 F897.8 X119.439 Y129.062 E20.09545
G1 F695 X119.146 Y128.81 E20.1121
G1 F644 X119.158 Y129.074 E20.12438
G1 F812.6 X119.164 Y129.22 E20.12977
G1 F897.8 X119.396 Y129.9 E20.15372
G1 F900 X121.013 Y134.618 E20.3196
G1 X122.318 Y133.867 E20.36968
G1 X122.615 Y133.788 E20.37991
G1 X122.804 Y133.817 E20.38626
G1 X122.969 Y133.901 E20.39242
G1 X123.138 Y134.087 E20.40078
G1 X124.838 Y137.031 E20.51385
G1 X127.261 Y135.632 E20.60691
G1 X125.562 Y132.689 E20.71993
G1 X125.485 Y132.449 E20.72832
G1 X125.528 Y132.157 E20.73813
G1 X125.678 Y131.943 E20.74683
G1 X125.782 Y131.868 E20.75109
G1 X127.185 Y131.058 E20.80497
G1 X126.274 Y129.571 E20.86298
G1 F895.5 X125.362 Y128.083 E20.92131
G1 F893.3 X124.45 Y126.595 E20.9798
G1 F884.5 X124.341 Y126.423 E20.98669
G1 F891.1 X124.198 Y126.177 E20.99625
G1 F916 X124.054 Y125.931 E21.00556
G1 F923.1 X123.983 Y125.82 E21.00983
G1 F893.3 X123.842 Y125.611 E21.01828
G1 F847.1 X123.701 Y125.401 E21.02722
G1 F861.2 X123.505 Y125.05 E21.04119
G1 F900 X123.245 Y124.622 E21.05785
G1 X109.989 Y102.965 E21.90239
G1 X112.245 Y109.223 E22.12364
G1 X115.703 Y119.126 E22.47252
G1 X117.147 Y123.34 E22.62068
G1 X118.591 Y127.555 E22.76887
G1 F743.8 X118.754 Y127.765 E22.77957
G1 F584.4 X118.846 Y127.886 E22.78735
G1 F676.7 X118.957 Y127.492 E22.80546
G1 F900 X118.985 Y127.163 E22.81644
G1 X119.152 Y126.574 E22.8368
G1 F2700 E17.8368
G0 F6000 X120.336 Y127.013
G0 X122.885 Y127.441
G0 X124.509 Y127.375
;TYPE:SKIN
G1 F2700 E22.8368
G1 F900 X124.511 Y127.708 E22.84788
G1 X124.454 Y128.135 E22.86221
G1 X124.446 Y128.173 E22.8635
G1 X124.226 Y128.82 E22.88623
G1 X124.206 Y128.862 E22.88778
G1 X123.864 Y129.409 E22.90923
G1 X123.564 Y129.725 E22.92372
G1 X123.054 Y130.11 E22.94498
G1 X122.778 Y130.235 E22.95505
G1 X122.326 Y130.413 E22.97121
G1 X121.902 Y130.491 E22.98555
G1 X121.867 Y130.493 E22.98672
G1 X121.217 Y130.493 E23.00834
G1 X120.846 Y130.431 E23.02085
G1 X120.49 Y130.316 E23.03329
G1 X120.111 Y130.136 E23.04724
G1 X119.771 Y129.885 E23.0613
G1 X121.213 Y134.088 E23.20909
G1 X122.139 Y133.554 E23.24465
G1 X122.375 Y133.458 E23.25312
G1 X122.762 Y133.442 E23.266
G1 X123.006 Y133.528 E23.27461
