;FLAVOR:Marlin
;TIME:5470
;Filament used: 3.21445m
;Layer height: 0.2
;MINX:95.927
;MINY:86.158
;MINZ:0.2
;MAXX:139.067
;MAXY:148.842
;MAXZ:71
;Generated with Cura_SteamEngine 5.0.0
M140 S70
M105
M190 S70
M104 S200
M105
M109 S200
M82 ;absolute extrusion mode
; Ender 3 Custom Start G-code
G28 ; Home all axes
M420 S1; Bed Leveling On
G92 E0 ; Reset Extruder
G1 Z2.0 F3000 ; Move Z Axis up little to prevent scratching of Heat Bed
G1 X0.1 Y20 Z0.3 F5000.0 ; Move to start position
G1 X0.1 Y200.0 Z0.3 F1500.0 E15 ; Draw the first line
G1 X0.4 Y200.0 Z0.3 F5000.0 ; Move to side a little
G1 X0.4 Y20 Z0.3 F1500.0 E30 ; Draw the second line
G92 E0 ; Reset Extruder
G1 Z2.0 F3000 ; Move Z Axis up little to prevent scratching of Heat Bed
G1 X5 Y20 Z0.3 F5000.0 ; Move over to prevent blob squish
G92 E0
G92 E0
G1 F2700 E-5
;LAYER_COUNT:355
;LAYER:0
M107
G0 F6000 X98.511 Y90.186 Z0.2
G0 X95.927 Y97.078
;TYPE:SKIRT
G1 F2700 E0
G1 F900 X95.983 Y96.142 E0.03119
G1 X96.119 Y95.214 E0.06238
G1 X96.334 Y94.301 E0.09358
G1 X96.625 Y93.41 E0.12475
G1 X96.992 Y92.547 E0.15595
G1 X97.43 Y91.718 E0.18713
G1 X97.938 Y90.929 E0.21834
G1 X98.511 Y90.186 E0.24955
G1 X99.145 Y89.495 E0.28074
G1 X99.836 Y88.861 E0.31193
G1 X100.578 Y88.288 E0.34311
G1 X101.442 Y87.736 E0.37721
G1 X101.642 Y87.621 E0.38489
G1 X102.474 Y87.189 E0.41607
G1 X103.34 Y86.829 E0.44726
G1 X104.234 Y86.544 E0.47847
G1 X105.148 Y86.336 E0.50965
G1 X106.077 Y86.207 E0.54084
G1 X107.014 Y86.158 E0.57205
G1 X107.951 Y86.188 E0.60323
G1 X108.882 Y86.298 E0.63441
G1 X109.801 Y86.487 E0.66561
G1 X110.7 Y86.754 E0.69681
G1 X111.573 Y87.097 E0.728
G1 X112.414 Y87.512 E0.7592
G1 X113.217 Y87.998 E0.79041
G1 X113.975 Y88.55 E0.8216
G1 X114.683 Y89.165 E0.85279
G1 X115.336 Y89.837 E0.88396
G1 X115.93 Y90.564 E0.91518
G1 X116.314 Y91.111 E0.93741
G1 X116.684 Y91.684 E0.9601
G1 X137.104 Y125.047 E2.2611
G1 X137.462 Y125.649 E2.2844
G1 X137.906 Y126.474 E2.31556
G1 X138.279 Y127.335 E2.34677
G1 X138.577 Y128.224 E2.37795
G1 X138.798 Y129.136 E2.40917
G1 X138.94 Y130.063 E2.44036
G1 X139.007 Y131.29 E2.48123
G1 X139.006 Y131.806 E2.49839
G1 X139.045 Y134.773 E2.59708
G1 X139.067 Y135.532 E2.62234
G1 X139.054 Y136.47 E2.65354
G1 X138.961 Y137.403 E2.68472
G1 X138.789 Y138.325 E2.71592
G1 X138.539 Y139.229 E2.74711
G1 X138.213 Y140.108 E2.7783
G1 X137.813 Y140.957 E2.80951
G1 X137.343 Y141.768 E2.84069
G1 X136.804 Y142.536 E2.87189
G1 X136.203 Y143.256 E2.90309
G1 X135.542 Y143.921 E2.93427
G1 X134.827 Y144.528 E2.96547
G1 X133.82 Y145.226 E3.00622
G1 X133.229 Y145.583 E3.02918
G1 X130.57 Y147.117 E3.13129
G1 X129.987 Y147.443 E3.1535
G1 X129.149 Y147.865 E3.18471
G1 X128.279 Y148.215 E3.2159
G1 X127.382 Y148.489 E3.24709
G1 X126.465 Y148.686 E3.27829
G1 X125.535 Y148.804 E3.30947
G1 X124.598 Y148.842 E3.34066
G1 X123.661 Y148.8 E3.37186
G1 X122.731 Y148.679 E3.40305
G1 X121.814 Y148.479 E3.43426
G1 X120.918 Y148.201 E3.46547
G1 X120.049 Y147.848 E3.49666
G1 X118.877 Y147.225 E3.54081
G1 X116.943 Y146.042 E3.61621
G1 X115.171 Y145.012 E3.68438
G1 X114.381 Y144.506 E3.71559
G1 X113.637 Y143.935 E3.74678
G1 X112.944 Y143.303 E3.77798
G1 X112.308 Y142.614 E3.80916
G1 X111.732 Y141.874 E3.84035
G1 X111.222 Y141.087 E3.87154
G1 X110.78 Y140.259 E3.90276
G1 X110.363 Y139.267 E3.93855
G1 X109.983 Y138.22 E3.9756
G1 X108.379 Y133.557 E4.13961
G1 X104.645 Y122.643 E4.52327
G1 X102.888 Y117.578 E4.70158
G1 X101.13 Y112.594 E4.87736
G1 X99.772 Y108.834 E5.01032
G1 X98.655 Y105.897 E5.11483
G1 X97.691 Y103.582 E5.19824
G1 X97.137 Y102.349 E5.2432
G1 X96.832 Y101.645 E5.26872
G1 X96.496 Y100.769 E5.29992
G1 X96.236 Y99.868 E5.33111
G1 X96.053 Y98.948 E5.36231
G1 X95.95 Y98.016 E5.3935
G1 X95.927 Y97.078 E5.42471
G0 F6000 X96.328 Y97.001
G1 F900 X96.392 Y96.082 E5.45535
G1 X96.535 Y95.173 E5.48595
G1 X96.756 Y94.279 E5.51658
G1 X97.054 Y93.408 E5.5472
G1 X97.427 Y92.566 E5.57783
G1 X97.871 Y91.76 E5.60843
G1 X98.383 Y90.995 E5.63905
G1 X98.96 Y90.278 E5.66966
G1 X99.597 Y89.613 E5.70029
G1 X100.289 Y89.006 E5.73091
G1 X101.032 Y88.461 E5.76155
G1 X101.641 Y88.083 E5.78539
G1 X101.841 Y87.968 E5.79307
G1 X102.659 Y87.544 E5.82371
G1 X103.509 Y87.193 E5.8543
G1 X104.388 Y86.917 E5.88494
G1 X105.287 Y86.718 E5.91557
G1 X106.199 Y86.597 E5.94616
G1 X107.119 Y86.557 E5.97679
G1 X108.039 Y86.596 E6.00742
G1 X108.952 Y86.716 E6.03805
G1 X109.851 Y86.914 E6.06867
G1 X110.73 Y87.189 E6.0993
G1 X111.581 Y87.539 E6.1299
G1 X112.399 Y87.962 E6.16053
G1 X113.177 Y88.454 E6.19115
G1 X113.909 Y89.012 E6.22176
G1 X114.59 Y89.632 E6.25239
G1 X115.215 Y90.308 E6.28301
G1 X115.98 Y91.33 E6.32547
G1 X116.343 Y91.892 E6.34773
G1 X136.76 Y125.251 E7.64857
G1 X137.118 Y125.853 E7.67186
G1 X137.553 Y126.664 E7.70247
G1 X137.917 Y127.51 E7.7331
G1 X138.206 Y128.384 E7.76372
G1 X138.418 Y129.28 E7.79434
G1 X138.552 Y130.191 E7.82497
G1 X138.607 Y131.289 E7.86154
G1 X138.606 Y131.81 E7.87886
G1 X138.645 Y134.726 E7.97586
G1 X138.668 Y135.544 E8.00308
G1 X138.654 Y136.464 E8.03368
G1 X138.561 Y137.38 E8.0643
G1 X138.388 Y138.284 E8.09492
G1 X138.138 Y139.17 E8.12553
G1 X137.811 Y140.031 E8.15617
G1 X137.411 Y140.86 E8.18678
G1 X136.941 Y141.652 E8.21741
G1 X136.404 Y142.4 E8.24804
G1 X135.804 Y143.098 E8.27865
G1 X135.146 Y143.742 E8.30928
G1 X134.434 Y144.326 E8.3399
G1 X133.611 Y144.885 E8.37299
G1 X133.029 Y145.237 E8.39562
G1 X130.374 Y146.768 E8.49755
G1 X129.791 Y147.094 E8.51977
G1 X128.969 Y147.508 E8.55038
G1 X128.114 Y147.849 E8.581
G1 X127.232 Y148.115 E8.61164
G1 X126.331 Y148.303 E8.64225
G1 X125.417 Y148.412 E8.67286
G1 X124.497 Y148.441 E8.70348
G1 X123.578 Y148.391 E8.73409
G1 X122.666 Y148.261 E8.76473
G1 X121.77 Y148.052 E8.79533
G1 X120.894 Y147.766 E8.82598
G1 X120.047 Y147.406 E8.85659
G1 X119.086 Y146.884 E8.89297
G1 X117.14 Y145.694 E8.96883
G1 X115.372 Y144.666 E9.03685
G1 X114.597 Y144.169 E9.06748
G1 X113.868 Y143.607 E9.09809
G1 X113.19 Y142.984 E9.12872
G1 X112.569 Y142.304 E9.15934
G1 X112.009 Y141.573 E9.18997
G1 X111.515 Y140.796 E9.2206
G1 X111.09 Y139.979 E9.25123
G1 X110.739 Y139.13 E9.28178
G1 X110.361 Y138.09 E9.31859
G1 X108.758 Y133.427 E9.48259
G1 X105.024 Y122.513 E9.86625
G1 X103.283 Y117.497 E10.04284
G1 X101.507 Y112.461 E10.22045
G1 X100.143 Y108.684 E10.35401
G1 X99.029 Y105.755 E10.45824
G1 X98.06 Y103.43 E10.54202
G1 X97.504 Y102.19 E10.58722
G1 X97.199 Y101.486 E10.61274
G1 X96.87 Y100.626 E10.64336
G1 X96.617 Y99.741 E10.67398
G1 X96.441 Y98.837 E10.70461
G1 X96.345 Y97.921 E10.73524
G1 X96.328 Y97.001 E10.76585
G0 F6000 X96.731 Y96.925
G1 F900 X96.802 Y96.025 E10.79587
G1 X96.952 Y95.134 E10.82592
G1 X97.18 Y94.26 E10.85597
G1 X97.484 Y93.41 E10.88599
G1 X97.863 Y92.59 E10.91604
G1 X98.313 Y91.807 E10.94607
G1 X98.83 Y91.067 E10.9761
G1 X99.41 Y90.375 E11.00613
G1 X100.05 Y89.737 E11.03619
G1 X100.743 Y89.159 E11.0662
G1 X101.841 Y88.43 E11.11004
G1 X102.041 Y88.315 E11.11771
G1 X102.843 Y87.899 E11.14776
G1 X103.678 Y87.557 E11.17777
G1 X104.541 Y87.29 E11.20782
G1 X105.424 Y87.1 E11.23786
G1 X106.32 Y86.989 E11.26789
G1 X107.223 Y86.957 E11.29794
G1 X108.124 Y87.006 E11.32795
G1 X109.018 Y87.134 E11.35799
G1 X109.898 Y87.341 E11.38806
G1 X110.755 Y87.625 E11.41808
G1 X111.584 Y87.983 E11.44812
G1 X112.378 Y88.414 E11.47817
G1 X113.131 Y88.912 E11.50819
G1 X113.836 Y89.476 E11.53822
G1 X114.489 Y90.1 E11.56826
G1 X115.085 Y90.779 E11.59831
G1 X115.646 Y91.55 E11.63003
G1 X116.002 Y92.101 E11.65184
G1 X136.416 Y125.455 E12.95249
G1 X136.774 Y126.057 E12.97579
G1 X137.201 Y126.853 E13.00583
G1 X137.555 Y127.684 E13.03587
G1 X137.835 Y128.543 E13.06592
G1 X138.038 Y129.423 E13.09596
G1 X138.162 Y130.317 E13.12598
G1 X138.207 Y131.288 E13.15831
G1 X138.206 Y131.814 E13.1758
G1 X138.245 Y134.742 E13.2732
G1 X138.268 Y135.555 E13.30025
G1 X138.254 Y136.458 E13.33029
G1 X138.16 Y137.356 E13.36032
G1 X137.987 Y138.243 E13.39038
G1 X137.736 Y139.11 E13.4204
G1 X137.409 Y139.952 E13.45044
G1 X137.01 Y140.762 E13.48047
G1 X136.54 Y141.533 E13.5105
G1 X136.004 Y142.26 E13.54054
G1 X135.405 Y142.937 E13.57061
G1 X134.75 Y143.557 E13.60061
G1 X134.041 Y144.118 E13.63068
G1 X133.402 Y144.544 E13.65622
G1 X132.829 Y144.891 E13.6785
G1 X130.179 Y146.419 E13.78024
G1 X129.596 Y146.745 E13.80246
G1 X128.789 Y147.15 E13.83249
G1 X127.95 Y147.483 E13.86251
G1 X127.084 Y147.739 E13.89255
G1 X126.199 Y147.919 E13.92259
G1 X125.301 Y148.019 E13.95264
G1 X124.398 Y148.04 E13.98268
G1 X123.497 Y147.98 E14.01272
G1 X122.605 Y147.841 E14.04274
G1 X121.728 Y147.624 E14.07279
G1 X120.874 Y147.33 E14.10283
G1 X120.05 Y146.962 E14.13285
G1 X119.295 Y146.543 E14.16157
G1 X117.338 Y145.346 E14.23787
G1 X115.573 Y144.32 E14.30577
G1 X114.813 Y143.832 E14.33581
G1 X114.099 Y143.279 E14.36585
G1 X113.437 Y142.665 E14.39588
G1 X112.832 Y141.994 E14.42593
G1 X112.288 Y141.273 E14.45597
G1 X111.811 Y140.507 E14.48598
G1 X111.403 Y139.701 E14.51603
G1 X111.114 Y138.993 E14.54146
G1 X110.74 Y137.96 E14.578
G1 X109.136 Y133.298 E14.74198
G1 X105.402 Y122.384 E15.12564
G1 X103.644 Y117.316 E15.30405
G1 X101.91 Y112.4 E15.47743
G1 X100.532 Y108.585 E15.61235
G1 X99.391 Y105.585 E15.7191
G1 X98.423 Y103.261 E15.80283
G1 X97.871 Y102.031 E15.84767
G1 X97.566 Y101.327 E15.87319
G1 X97.244 Y100.483 E15.90324
G1 X96.998 Y99.614 E15.93328
G1 X96.829 Y98.727 E15.96331
G1 X96.74 Y97.828 E15.99336
G1 X96.731 Y96.925 E16.02339
G1 F2700 E11.02339
;MESH:TE_Mid.stl
G0 F6000 X106.38 Y97.684
G0 X107.084 Y97.317
;TYPE:WALL-OUTER
G1 F2700 E16.02339
G1 F1309.1 X107.318 Y97.731 E16.03427
G1 F1180.3 X107.46 Y97.989 E16.04173
G1 F1087.6 X107.603 Y98.247 E16.04985
G1 F1008.4 X107.745 Y98.506 E16.05862
G1 F939.9 X107.888 Y98.764 E16.06801
G1 F869.6 X108.04 Y99.048 E16.0791
G1 F798.2 X108.193 Y99.333 E16.09123
G1 F739.2 X108.346 Y99.617 E16.1043
G1 F681.8 X108.495 Y99.903 E16.11846
G1 F628.3 X108.644 Y100.189 E16.13382
G1 F572.3 X108.819 Y100.549 E16.15476
G0 F6000 X108.862 Y101.057
G1 F965.1 X108.95 Y101.296 E16.16265
G1 F954.9 X109.038 Y101.535 E16.17064
G1 F944.9 X109.127 Y101.774 E16.17872
G1 F935.1 X109.215 Y102.014 E16.1869
G1 F925.4 X109.303 Y102.253 E16.19514
G1 F916 X109.392 Y102.492 E16.20347
G1 F906.8 X109.48 Y102.731 E16.21188
G1 F900 X111.867 Y109.355 E16.44606
G1 X115.325 Y119.256 E16.79488
G1 X120.792 Y135.207 E17.35571
G1 X122.518 Y134.214 E17.42194
G1 X122.681 Y134.197 E17.42739
G1 X122.792 Y134.287 E17.43214
G1 X124.692 Y137.577 E17.5585
G1 X127.807 Y135.778 E17.67815
G1 X125.908 Y132.489 E17.80446
G1 X125.894 Y132.319 E17.81014
G1 X125.982 Y132.214 E17.81469
G1 X127.741 Y131.2 E17.88222
G1 X124.952 Y126.645 E18.05987
G1 X110.124 Y102.42 E19.00455
G1 F906.8 X109.991 Y102.202 E19.01298
G1 F916 X109.858 Y101.983 E19.02135
G1 F925.4 X109.725 Y101.765 E19.02961
G1 F935.1 X109.592 Y101.546 E19.03781
G1 F944.9 X109.458 Y101.327 E19.04595
G1 F954.9 X109.325 Y101.109 E19.05395
G1 F965.1 X109.192 Y100.89 E19.0619
G1 F812.6 X109.005 Y100.718 E19.07126
G1 F611.2 X108.819 Y100.549 E19.08356
G1 F661.8 X108.826 Y100.889 E19.09895
G1 F904.5 X108.862 Y101.057 E19.10463
G1 F2700 E14.10463
G0 F6000 X122.017 Y129.706
G1 F2700 E19.10463
G1 F900 X121.752 Y129.746 E19.11355
G1 X121.456 Y129.752 E19.12339
G1 X121.174 Y129.721 E19.13283
G1 X120.901 Y129.657 E19.14216
G1 X120.638 Y129.556 E19.15153
G1 X120.391 Y129.421 E19.16089
G1 X120.161 Y129.257 E19.17028
G1 X119.954 Y129.066 E19.17965
G1 X119.775 Y128.847 E19.18906
G1 X119.617 Y128.598 E19.19887
G1 X119.498 Y128.335 E19.20847
G1 X119.412 Y128.057 E19.21815
G1 X119.37 Y127.805 E19.22665
G1 X119.356 Y127.502 E19.23673
G1 X119.378 Y127.245 E19.24531
G1 X119.435 Y126.969 E19.25469
G1 X119.528 Y126.703 E19.26406
G1 X119.652 Y126.45 E19.27343
G1 X119.808 Y126.217 E19.28276
G1 X119.994 Y126.005 E19.29214
G1 X120.207 Y125.816 E19.30161
G1 X120.436 Y125.659 E19.31084
G1 X120.695 Y125.531 E19.32045
G1 X120.953 Y125.438 E19.32957
G1 X121.233 Y125.379 E19.33909
G1 X121.513 Y125.355 E19.34844
G1 X121.795 Y125.369 E19.35783
G1 X122.074 Y125.416 E19.36724
G1 X122.346 Y125.503 E19.37674
G1 X122.596 Y125.617 E19.38588
G1 X122.839 Y125.77 E19.39543
G1 X123.054 Y125.944 E19.40463
G1 X123.253 Y126.155 E19.41427
G1 X123.422 Y126.392 E19.42395
G1 X123.644 Y126.872 E19.44154
G1 X123.72 Y127.16 E19.45145
G1 X123.752 Y127.443 E19.46092
G1 X123.748 Y127.724 E19.47027
G1 X123.708 Y128.005 E19.47971
G1 X123.633 Y128.276 E19.48906
G1 X123.526 Y128.534 E19.49835
G1 X123.384 Y128.778 E19.50774
G1 X123.166 Y129.03 E19.51882
G1 X122.793 Y129.374 E19.5357
G1 X122.547 Y129.52 E19.54522
G1 X122.289 Y129.629 E19.55453
G1 X122.017 Y129.706 E19.56393
G1 F2700 E14.56393
G0 F6000 X121.662 Y128.886
G0 X120.469 Y128.33
G0 X119.179 Y128.886
;TYPE:WALL-INNER
G1 F2700 E19.56393
G1 F573.2 X119.046 Y128.559 E19.58237
G1 F590.2 X118.937 Y128.238 E19.59956
G1 F565.1 X118.846 Y127.892 E19.61851
G1 F2700 E14.61851
G0 F6000 X117.521 Y128.345
G0 X114.508 Y119.537
G0 X115.703 Y119.126
G1 F2700 E19.61851
G1 F900 X118.579 Y127.515 E19.91347
G1 F717.1 X118.791 Y127.819 E19.92894
G1 F568.7 X118.846 Y127.892 E19.93375
G1 F654.5 X118.937 Y127.55 E19.94994
G1 F859.2 X118.98 Y127.211 E19.96184
G1 F900 X119.043 Y126.887 E19.97282
G1 X119.152 Y126.568 E19.98403
G1 X119.294 Y126.272 E19.99495
G1 X119.477 Y125.992 E20.00608
G1 X119.694 Y125.74 E20.01714
G1 X119.943 Y125.515 E20.0283
G1 X120.212 Y125.327 E20.03922
G1 X120.521 Y125.171 E20.05073
G1 X120.819 Y125.061 E20.0613
G1 X121.153 Y124.987 E20.07267
G1 X121.481 Y124.956 E20.08363
G1 X121.817 Y124.969 E20.09482
G1 X122.144 Y125.022 E20.10583
G1 X122.47 Y125.123 E20.11718
G1 X122.763 Y125.253 E20.12785
G1 X123.055 Y125.434 E20.13927
G1 X123.307 Y125.634 E20.14997
G1 F895.5 X123.544 Y125.877 E20.16132
G1 F909.1 X123.735 Y126.151 E20.17232
G1 F925.4 X123.792 Y126.248 E20.17596
G1 F906.8 X123.904 Y126.474 E20.18428
G1 F875.9 X124.016 Y126.701 E20.19293
G1 F880.2 X124.108 Y127.063 E20.20564
G1 F900 X124.15 Y127.399 E20.2169
G1 X124.148 Y127.732 E20.22797
G1 X124.104 Y128.064 E20.23911
G1 X124.018 Y128.386 E20.2502
G1 X123.895 Y128.69 E20.2611
G1 X123.728 Y128.982 E20.27229
G1 X123.466 Y129.295 E20.28587
G1 X123.29 Y129.491 E20.29463
G1 X123.039 Y129.69 E20.30528
G1 X122.749 Y129.866 E20.31657
G1 X122.443 Y129.998 E20.32765
G1 X122.124 Y130.092 E20.33871
G1 X121.81 Y130.142 E20.34929
G1 X121.459 Y130.152 E20.36097
G1 X121.128 Y130.119 E20.37203
G1 X120.807 Y130.046 E20.38298
G1 X120.491 Y129.928 E20.3942
G1 X120.197 Y129.771 E20.40528
G1 X119.927 Y129.582 E20.41625
G1 X119.68 Y129.358 E20.42734
G1 F869.6 X119.453 Y129.108 E20.43896
G1 F669.1 X119.179 Y128.886 E20.45474
G1 F634.9 X119.186 Y129.158 E20.46756
G1 F812.6 X119.258 Y129.498 E20.48037
G1 F900 X121.013 Y134.618 E20.66038
G1 X122.318 Y133.867 E20.71046
G1 X122.62 Y133.788 E20.72085
G1 X122.805 Y133.817 E20.72707
G1 X122.97 Y133.901 E20.73323
G1 X123.138 Y134.087 E20.74157
G1 X124.838 Y137.031 E20.85464
G1 X127.261 Y135.632 E20.9477
G1 X125.562 Y132.689 E21.06072
G1 X125.485 Y132.45 E21.06907
G1 X125.518 Y132.181 E21.07809
G1 X125.661 Y131.959 E21.08687
G1 X125.782 Y131.868 E21.09191
G1 X127.185 Y131.058 E21.14579
G1 X124.61 Y126.854 E21.30976
G1 F888.9 X124.471 Y126.634 E21.31852
G1 F867.5 X124.386 Y126.505 E21.32385
G1 F875.9 X124.261 Y126.286 E21.33247
G1 F906.8 X124.135 Y126.066 E21.34084
G1 F916 X123.92 Y125.722 E21.3541
G1 F902.3 X123.731 Y125.415 E21.36606
G1 F900 X122.852 Y123.982 E21.42197
G1 X122.495 Y123.396 E21.44479
G1 X109.989 Y102.965 E22.24153
G1 X112.245 Y109.223 E22.46278
G1 X115.703 Y119.126 E22.81166
G1 F2700 E17.81166
G0 F6000 X119.784 Y125.183
;TYPE:SKIN
G1 F2700 E22.81166
G1 F900 X120.112 Y124.97 E22.82467
G1 X120.366 Y124.85 E22.83401
G1 X120.813 Y124.689 E22.84981
G1 X121.178 Y124.621 E22.86216
G1 X121.561 Y124.595 E22.87493
G1 X121.933 Y124.62 E22.88733
G1 X122.318 Y124.696 E22.90038
G1 X122.669 Y124.814 E22.9127
G1 X123.01 Y124.978 E22.92529
G1 X123.054 Y125.005 E22.927
G1 X111.527 Y106.169 E23.66149
G1 X112.581 Y109.09 E23.76478
G1 X116.043 Y119.006 E24.11411
G1 X118.704 Y126.769 E24.38705
G1 X118.848 Y126.361 E24.40144
G1 X119.025 Y126.018 E24.41428
G1 X119.24 Y125.711 E24.42675
G1 X119.5 Y125.425 E24.4396
