;FLAVOR:Marlin
;TIME:2731
;Filament used: 1.89699m
;Layer height: 0.2
;MINX:52.325
;MINY:55.808
;MINZ:0.2
;MAXX:182.726
;MAXY:179.206
;MAXZ:2
;Generated with Cura_SteamEngine 5.0.0
M140 S70
M105
M190 S70
M104 S200
M105
M109 S200
M82 ;absolute extrusion mode
; Ender 3 Custom Start G-code
G28 ; Home all axes
M420 S1; Bed Leveling On
G92 E0 ; Reset Extruder
G1 Z2.0 F3000 ; Move Z Axis up little to prevent scratching of Heat Bed
G1 X0.1 Y20 Z0.3 F5000.0 ; Move to start position
G1 X0.1 Y200.0 Z0.3 F1500.0 E15 ; Draw the first line
G1 X0.4 Y200.0 Z0.3 F5000.0 ; Move to side a little
G1 X0.4 Y20 Z0.3 F1500.0 E30 ; Draw the second line
G92 E0 ; Reset Extruder
G1 Z2.0 F3000 ; Move Z Axis up little to prevent scratching of Heat Bed
G1 X5 Y20 Z0.3 F5000.0 ; Move over to prevent blob squish
G92 E0
G92 E0
G1 F2700 E-5
;LAYER_COUNT:10
;LAYER:0
M107
G0 F6000 X58.946 Y61.288 Z0.2
G0 X52.524 Y73.707
;TYPE:SKIRT
G1 F2700 E0
G1 F900 X52.629 Y72.995 E0.02394
G1 X52.802 Y72.088 E0.05465
G1 X53.012 Y71.225 E0.08419
G1 X53.222 Y70.463 E0.11048
G1 X53.494 Y69.615 E0.1401
G1 X53.698 Y69.056 E0.15989
G1 X53.944 Y68.44 E0.18195
G1 X54.158 Y67.948 E0.1998
G1 X54.439 Y67.351 E0.22174
G1 X54.747 Y66.745 E0.24435
G1 X55.122 Y66.067 E0.27012
G1 X55.463 Y65.499 E0.29216
G1 X55.851 Y64.899 E0.31592
G1 X56.173 Y64.434 E0.33473
G1 X56.594 Y63.865 E0.35828
G1 X56.983 Y63.374 E0.37911
G1 X57.463 Y62.808 E0.40379
G1 X57.9 Y62.327 E0.42541
G1 X58.425 Y61.788 E0.45043
G1 X58.946 Y61.288 E0.47445
G1 X59.569 Y60.734 E0.50218
G1 X60.165 Y60.243 E0.52786
G1 X60.911 Y59.679 E0.55897
G1 X61.395 Y59.345 E0.57853
G1 X61.854 Y59.046 E0.59675
G1 X62.287 Y58.778 E0.61369
G1 X62.789 Y58.485 E0.63302
G1 X63.205 Y58.257 E0.6488
G1 X63.869 Y57.922 E0.67353
G1 X64.48 Y57.639 E0.69593
G1 X65.147 Y57.356 E0.72003
G1 X65.902 Y57.065 E0.74694
G1 X66.617 Y56.817 E0.77211
G1 X67.136 Y56.657 E0.79017
G1 X67.803 Y56.474 E0.81318
G1 X68.447 Y56.319 E0.83521
G1 X69.2 Y56.166 E0.86077
G1 X69.915 Y56.046 E0.88488
G1 X70.598 Y55.953 E0.90781
G1 X71.165 Y55.894 E0.92677
G1 X71.868 Y55.844 E0.95021
G1 X72.626 Y55.814 E0.97544
G1 X73.297 Y55.808 E0.99776
G1 X73.903 Y55.821 E1.01792
G1 X74.568 Y55.855 E1.04006
G1 X75.213 Y55.908 E1.06159
G1 X75.81 Y55.974 E1.08157
G1 X76.37 Y56.051 E1.10037
G1 X76.995 Y56.155 E1.12144
G1 X77.712 Y56.296 E1.14574
G1 X78.432 Y56.463 E1.17033
G1 X79.418 Y56.733 E1.20433
G1 X80.124 Y56.958 E1.22897
G1 X80.742 Y57.175 E1.25076
G1 X81.514 Y57.474 E1.27829
G1 X81.964 Y57.667 E1.29458
G1 X82.702 Y58.003 E1.32155
G1 X83.305 Y58.3 E1.34391
G1 X83.785 Y58.555 E1.36199
G1 X84.244 Y58.813 E1.3795
G1 X85.099 Y59.329 E1.41271
G1 X85.639 Y59.684 E1.43421
G1 X86.117 Y60.014 E1.45353
G1 X86.629 Y60.389 E1.47463
G1 X87.213 Y60.844 E1.49926
G1 X87.601 Y61.161 E1.51592
G1 X87.953 Y61.462 E1.53133
G1 X88.304 Y61.776 E1.54699
G1 X89.066 Y62.497 E1.58188
G1 X90.213 Y63.652 E1.63602
G1 X90.785 Y64.215 E1.66272
G1 X133.816 Y107.244 E3.68671
G1 X135.387 Y108.825 E3.76085
G1 X135.943 Y109.372 E3.78679
G1 X179.134 Y152.564 E5.81838
G1 X179.602 Y153.044 E5.84068
G1 X180.228 Y153.743 E5.87189
G1 X180.791 Y154.492 E5.90305
G1 X181.289 Y155.287 E5.93426
G1 X181.717 Y156.121 E5.96543
G1 X182.073 Y156.989 E5.99664
G1 X182.353 Y157.884 E6.02783
G1 X182.557 Y158.8 E6.05904
G1 X182.681 Y159.729 E6.09021
G1 X182.726 Y160.666 E6.12141
G1 X182.691 Y161.603 E6.1526
G1 X182.576 Y162.534 E6.1838
G1 X182.382 Y163.452 E6.21501
G1 X182.111 Y164.35 E6.24621
G1 X181.764 Y165.221 E6.27739
G1 X181.345 Y166.06 E6.30858
G1 X180.855 Y166.86 E6.33978
G1 X180.299 Y167.615 E6.37097
G1 X179.751 Y168.246 E6.39877
G1 X179.294 Y168.725 E6.42079
G1 X174.689 Y173.329 E6.63737
G1 X174.194 Y173.809 E6.6603
G1 X173.493 Y174.433 E6.69152
G1 X172.742 Y174.994 E6.72269
G1 X171.946 Y175.49 E6.75389
G1 X171.11 Y175.916 E6.7851
G1 X170.241 Y176.269 E6.81629
G1 X169.346 Y176.547 E6.84746
G1 X168.43 Y176.748 E6.87865
G1 X167.231 Y176.89 E6.91881
G1 X166.784 Y176.918 E6.93371
G1 X164.165 Y177.123 E7.02108
G1 X161.676 Y177.388 E7.10434
G1 X159.17 Y177.727 E7.18844
G1 X156.696 Y178.134 E7.27184
G1 X154.217 Y178.613 E7.35581
G1 X153.553 Y178.76 E7.37843
G1 X152.438 Y178.988 E7.41628
G1 X151.512 Y179.137 E7.44748
G1 X150.576 Y179.206 E7.4787
G1 X149.639 Y179.195 E7.50986
G1 X148.705 Y179.104 E7.54107
G1 X147.783 Y178.934 E7.57226
G1 X146.878 Y178.687 E7.60346
G1 X145.998 Y178.363 E7.63465
G1 X145.149 Y177.965 E7.66584
G1 X144.336 Y177.496 E7.69705
G1 X143.567 Y176.96 E7.72823
G1 X142.645 Y176.174 E7.76853
G1 X142.2 Y175.745 E7.78908
G1 X59.463 Y93.004 E11.68087
G1 X58.528 Y92.037 E11.72561
G1 X58.028 Y91.484 E11.75041
G1 X57.429 Y90.774 E11.7813
G1 X56.979 Y90.202 E11.80551
G1 X56.513 Y89.569 E11.83165
G1 X56.093 Y88.958 E11.85631
G1 X55.642 Y88.25 E11.88423
G1 X55.374 Y87.805 E11.90151
G1 X55.133 Y87.384 E11.91765
G1 X54.822 Y86.801 E11.93962
G1 X54.522 Y86.184 E11.96244
G1 X54.056 Y85.153 E12.00007
G1 X53.943 Y84.882 E12.00984
G1 X53.717 Y84.293 E12.03082
G1 X53.411 Y83.408 E12.06197
G1 X53.176 Y82.638 E12.08874
G1 X52.983 Y81.912 E12.11373
G1 X52.819 Y81.194 E12.13823
G1 X52.717 Y80.691 E12.1553
G1 X52.576 Y79.863 E12.18323
G1 X52.514 Y79.406 E12.19857
G1 X52.411 Y78.506 E12.2287
G1 X52.348 Y77.665 E12.25675
G1 X52.329 Y77.156 E12.27369
G1 X52.325 Y76.453 E12.29707
G1 X52.348 Y75.589 E12.32582
G1 X52.409 Y74.693 E12.35569
G1 X52.524 Y73.707 E12.38871
G0 F6000 X52.725 Y76.464
G1 F900 X52.748 Y75.6 E12.41745
G1 X52.806 Y74.736 E12.44626
G1 X52.919 Y73.766 E12.47874
G1 X53.024 Y73.054 E12.50267
G1 X53.191 Y72.18 E12.53227
G1 X53.398 Y71.332 E12.5613
G1 X53.608 Y70.57 E12.58759
G1 X53.869 Y69.752 E12.61615
G1 X54.073 Y69.193 E12.63594
G1 X54.311 Y68.599 E12.65722
G1 X54.525 Y68.107 E12.67507
G1 X54.795 Y67.532 E12.6962
G1 X55.103 Y66.926 E12.71881
G1 X55.465 Y66.273 E12.74364
G1 X55.806 Y65.705 E12.76567
G1 X56.179 Y65.126 E12.78858
G1 X56.501 Y64.661 E12.80739
G1 X56.908 Y64.114 E12.83007
G1 X57.297 Y63.623 E12.85091
G1 X57.759 Y63.077 E12.87469
G1 X58.196 Y62.596 E12.89631
G1 X58.702 Y62.076 E12.92044
G1 X59.223 Y61.576 E12.94446
G1 X59.823 Y61.043 E12.97115
G1 X60.419 Y60.552 E12.99684
G1 X61.139 Y60.009 E13.02683
G1 X61.623 Y59.675 E13.04639
G1 X62.064 Y59.386 E13.06393
G1 X62.497 Y59.118 E13.08086
G1 X62.981 Y58.836 E13.09949
G1 X63.397 Y58.608 E13.11527
G1 X64.037 Y58.285 E13.13912
G1 X64.648 Y58.002 E13.16151
G1 X65.291 Y57.729 E13.18475
G1 X66.046 Y57.438 E13.21166
G1 X66.735 Y57.199 E13.23591
G1 X67.254 Y57.039 E13.25398
G1 X67.897 Y56.863 E13.27615
G1 X68.541 Y56.708 E13.29818
G1 X69.267 Y56.56 E13.32282
G1 X69.982 Y56.44 E13.34694
G1 X70.639 Y56.351 E13.36899
G1 X71.206 Y56.292 E13.38795
G1 X71.884 Y56.243 E13.41056
G1 X72.642 Y56.213 E13.43579
G1 X73.288 Y56.207 E13.45728
G1 X73.894 Y56.22 E13.47744
G1 X74.535 Y56.254 E13.49879
G1 X75.18 Y56.307 E13.52031
G1 X75.756 Y56.37 E13.53958
G1 X76.316 Y56.447 E13.55838
G1 X76.917 Y56.547 E13.57865
G1 X77.634 Y56.688 E13.60295
G1 X78.328 Y56.849 E13.62665
G1 X79.302 Y57.116 E13.66024
G1 X79.992 Y57.336 E13.68433
G1 X80.61 Y57.553 E13.70611
G1 X81.365 Y57.845 E13.73304
G1 X81.798 Y58.031 E13.74871
G1 X82.536 Y58.367 E13.77568
G1 X83.117 Y58.653 E13.79722
G1 X83.597 Y58.908 E13.8153
G1 X84.039 Y59.157 E13.83217
G1 X84.883 Y59.666 E13.86495
G1 X85.412 Y60.013 E13.88599
G1 X85.89 Y60.343 E13.90531
G1 X86.383 Y60.704 E13.92564
G1 X86.967 Y61.159 E13.95026
G1 X87.341 Y61.465 E13.96633
G1 X88.032 Y62.068 E13.99683
G1 X88.782 Y62.778 E14.03118
G1 X89.932 Y63.936 E14.08547
G1 X90.502 Y64.498 E14.11209
G1 X133.532 Y107.526 E16.13604
G1 X135.106 Y109.11 E16.21031
G1 X135.663 Y109.658 E16.2363
G1 X178.848 Y152.843 E18.26759
G1 X179.316 Y153.323 E18.28989
G1 X179.929 Y154.01 E18.32051
G1 X180.481 Y154.747 E18.35114
G1 X180.966 Y155.529 E18.38174
G1 X181.382 Y156.35 E18.41236
G1 X181.725 Y157.205 E18.443
G1 X181.993 Y158.086 E18.47362
G1 X182.183 Y158.986 E18.50422
G1 X182.294 Y159.9 E18.53484
G1 X182.326 Y160.82 E18.56546
G1 X182.277 Y161.74 E18.5961
G1 X182.149 Y162.652 E18.62673
G1 X181.942 Y163.549 E18.65735
G1 X181.659 Y164.425 E18.68797
G1 X181.3 Y165.272 E18.71857
G1 X180.869 Y166.086 E18.7492
G1 X180.369 Y166.859 E18.77982
G1 X179.804 Y167.586 E18.81045
G1 X179.249 Y168.197 E18.8379
G1 X174.526 Y172.927 E19.06022
G1 X173.915 Y173.522 E19.08859
G1 X173.227 Y174.133 E19.11919
G1 X172.488 Y174.683 E19.14983
G1 X171.705 Y175.166 E19.18043
G1 X170.882 Y175.58 E19.21107
G1 X170.027 Y175.921 E19.24168
G1 X169.145 Y176.186 E19.27232
G1 X168.244 Y176.373 E19.30292
G1 X167.206 Y176.491 E19.33767
G1 X166.722 Y176.522 E19.3538
G1 X164.127 Y176.724 E19.44037
G1 X161.616 Y176.992 E19.52436
G1 X159.122 Y177.329 E19.60807
G1 X156.627 Y177.74 E19.69217
G1 X154.159 Y178.217 E19.77577
G1 X153.473 Y178.368 E19.79914
G1 X152.358 Y178.596 E19.83699
G1 X151.448 Y178.741 E19.86764
G1 X150.53 Y178.807 E19.89825
G1 X149.61 Y178.793 E19.92885
G1 X148.694 Y178.699 E19.95948
G1 X147.79 Y178.525 E19.9901
G1 X146.904 Y178.274 E20.02072
G1 X146.043 Y177.947 E20.05136
G1 X145.214 Y177.547 E20.08197
G1 X144.423 Y177.076 E20.11259
G1 X143.676 Y176.539 E20.14319
G1 X142.921 Y175.884 E20.17643
G1 X142.483 Y175.462 E20.19666
G1 X59.751 Y92.726 E24.08822
G1 X58.816 Y91.759 E24.13296
G1 X58.334 Y91.226 E24.15686
G1 X57.735 Y90.516 E24.18775
G1 X57.301 Y89.965 E24.21108
G1 X56.835 Y89.332 E24.23723
G1 X56.431 Y88.743 E24.26098
G1 X55.98 Y88.035 E24.2889
G1 X55.721 Y87.606 E24.30557
G1 X55.48 Y87.185 E24.3217
G1 X55.18 Y86.624 E24.34286
G1 X54.885 Y86.017 E24.36531
G1 X54.425 Y84.999 E24.40246
G1 X54.312 Y84.728 E24.41223
G1 X54.095 Y84.161 E24.43242
G1 X53.793 Y83.287 E24.46318
G1 X53.561 Y82.533 E24.48942
G1 X53.373 Y81.82 E24.51394
G1 X53.211 Y81.115 E24.538
G1 X53.109 Y80.612 E24.55507
G1 X52.972 Y79.801 E24.58243
G1 X52.912 Y79.36 E24.59723
G1 X52.809 Y78.46 E24.62736
G1 X52.747 Y77.65 E24.65438
G1 X52.728 Y77.141 E24.67132
G1 X52.725 Y76.464 E24.69384
G0 F6000 X53.125 Y76.475
G1 F900 X53.148 Y75.611 E24.72259
G1 X53.204 Y74.779 E24.75032
G1 X53.315 Y73.824 E24.7823
G1 X53.42 Y73.112 E24.80623
G1 X53.58 Y72.271 E24.83471
G1 X53.784 Y71.438 E24.86323
G1 X53.994 Y70.676 E24.88952
G1 X54.245 Y69.889 E24.917
G1 X54.449 Y69.33 E24.93679
G1 X54.677 Y68.759 E24.95724
G1 X54.891 Y68.267 E24.97508
G1 X55.152 Y67.714 E24.99542
G1 X55.46 Y67.108 E25.01803
G1 X55.808 Y66.479 E25.04194
G1 X56.149 Y65.911 E25.06397
G1 X56.508 Y65.354 E25.08602
G1 X56.83 Y64.889 E25.10483
G1 X57.221 Y64.362 E25.12665
G1 X57.61 Y63.871 E25.14749
G1 X58.055 Y63.346 E25.17038
G1 X58.492 Y62.865 E25.19199
G1 X58.979 Y62.365 E25.21521
G1 X59.5 Y61.865 E25.23923
G1 X60.077 Y61.351 E25.26493
G1 X60.673 Y60.86 E25.29061
G1 X61.366 Y60.338 E25.31947
G1 X61.85 Y60.004 E25.33903
G1 X62.275 Y59.726 E25.35592
G1 X62.708 Y59.458 E25.37285
G1 X63.174 Y59.186 E25.3908
G1 X63.59 Y58.958 E25.40658
G1 X64.205 Y58.648 E25.42948
G1 X64.816 Y58.365 E25.45188
G1 X65.435 Y58.102 E25.47425
G1 X66.19 Y57.811 E25.50116
G1 X66.853 Y57.582 E25.52449
G1 X67.372 Y57.422 E25.54256
G1 X67.99 Y57.252 E25.56387
G1 X68.634 Y57.097 E25.5859
G1 X69.333 Y56.955 E25.60963
G1 X70.048 Y56.835 E25.63374
G1 X70.68 Y56.749 E25.65496
G1 X71.247 Y56.69 E25.67392
G1 X71.9 Y56.643 E25.69569
G1 X72.658 Y56.613 E25.72092
G1 X73.28 Y56.607 E25.74161
G1 X73.886 Y56.62 E25.76177
G1 X74.502 Y56.652 E25.78229
G1 X75.147 Y56.705 E25.80381
G1 X75.701 Y56.766 E25.82235
G1 X76.261 Y56.843 E25.84115
G1 X76.84 Y56.94 E25.86068
G1 X77.557 Y57.081 E25.88498
G1 X78.225 Y57.235 E25.90778
G1 X79.185 Y57.498 E25.94089
G1 X79.859 Y57.713 E25.96442
G1 X80.477 Y57.93 E25.9862
G1 X81.215 Y58.216 E26.01253
G1 X81.632 Y58.395 E26.02762
G1 X82.37 Y58.731 E26.05459
G1 X82.929 Y59.006 E26.07531
G1 X83.409 Y59.261 E26.09339
G1 X83.835 Y59.501 E26.10965
G1 X84.667 Y60.002 E26.14195
G1 X85.185 Y60.342 E26.16256
G1 X85.663 Y60.672 E26.18188
G1 X86.137 Y61.02 E26.20144
G1 X86.721 Y61.475 E26.22606
G1 X87.081 Y61.769 E26.24152
G1 X87.759 Y62.361 E26.27146
G1 X88.498 Y63.06 E26.30529
G1 X89.65 Y64.22 E26.35967
G1 X90.219 Y64.78 E26.38622
G1 X133.248 Y107.808 E28.41015
G1 X134.824 Y109.394 E28.48452
G1 X135.382 Y109.943 E28.51055
G1 X178.561 Y153.122 E30.54156
G1 X179.029 Y153.602 E30.56386
G1 X179.63 Y154.276 E30.59389
G1 X180.17 Y155.001 E30.62396
G1 X180.643 Y155.77 E30.65399
G1 X181.046 Y156.578 E30.68402
G1 X181.376 Y157.419 E30.71407
G1 X181.63 Y158.285 E30.74408
G1 X181.807 Y159.171 E30.77413
G1 X181.905 Y160.069 E30.80418
G1 X181.923 Y160.972 E30.83422
G1 X181.861 Y161.873 E30.86426
G1 X181.72 Y162.765 E30.89429
G1 X181.5 Y163.641 E30.92433
G1 X181.203 Y164.494 E30.95437
G1 X180.833 Y165.317 E30.98439
G1 X180.391 Y166.105 E31.01444
G1 X179.881 Y166.85 E31.04447
G1 X179.167 Y167.699 E31.08136
G1 X178.728 Y168.159 E31.10251
G1 X174.132 Y172.755 E31.31869
G1 X173.637 Y173.235 E31.34163
G1 X172.961 Y173.834 E31.37167
G1 X172.235 Y174.371 E31.4017
G1 X171.465 Y174.842 E31.43172
G1 X170.655 Y175.243 E31.46178
G1 X169.814 Y175.571 E31.49181
G1 X168.947 Y175.823 E31.52184
G1 X168.061 Y175.997 E31.55187
G1 X167.18 Y176.092 E31.58134
G1 X166.669 Y176.124 E31.59837
G1 X164.09 Y176.326 E31.68441
G1 X161.592 Y176.592 E31.76797
G1 X159.07 Y176.933 E31.85261
G1 X156.557 Y177.346 E31.93731
G1 X154.06 Y177.829 E32.0219
G1 X153.392 Y177.976 E32.04465
G1 X152.277 Y178.204 E32.08251
G1 X151.386 Y178.346 E32.11251
G1 X150.485 Y178.408 E32.14255
G1 X149.582 Y178.39 E32.17259
G1 X148.684 Y178.293 E32.20263
G1 X147.798 Y178.116 E32.23269
G1 X146.932 Y177.862 E32.2627
G1 X146.091 Y177.532 E32.29275
G1 X145.283 Y177.129 E32.32278
G1 X144.513 Y176.656 E32.35284
G1 X143.789 Y176.117 E32.38286
G1 X143.197 Y175.594 E32.40913
G1 X142.765 Y175.179 E32.42906
G1 X60.038 Y92.448 E36.32037
G1 X59.103 Y91.481 E36.36511
G1 X58.64 Y90.968 E36.3881
G1 X58.041 Y90.258 E36.41899
G1 X57.623 Y89.728 E36.44144
G1 X57.157 Y89.095 E36.46759
G1 X56.768 Y88.528 E36.49046
G1 X56.317 Y87.82 E36.51838
G1 X56.068 Y87.407 E36.53442
G1 X55.827 Y86.986 E36.55055
G1 X55.539 Y86.446 E36.57091
G1 X55.249 Y85.851 E36.59292
G1 X54.795 Y84.846 E36.6296
G1 X54.682 Y84.575 E36.63937
G1 X54.472 Y84.028 E36.65885
G1 X54.174 Y83.165 E36.68922
G1 X53.947 Y82.427 E36.7149
G1 X53.762 Y81.728 E36.73895
G1 X53.603 Y81.035 E36.7626
G1 X53.501 Y80.532 E36.77967
G1 X53.367 Y79.738 E36.80645
G1 X53.309 Y79.315 E36.82065
G1 X53.206 Y78.415 E36.85078
G1 X53.147 Y77.635 E36.8768
G1 X53.128 Y77.126 E36.89374
G1 X53.125 Y76.475 E36.91539
G1 F2700 E31.91539
;MESH:Front_Spar_Outter.stl
G0 F6000 X63.477 Y80.916
G0 X64.288 Y80.615
;TYPE:WALL-OUTER
G1 F2700 E36.91539
G1 F900 X64.601 Y81.335 E36.94151
G1 X64.979 Y82.066 E36.96888
G1 X65.392 Y82.739 E36.99514
G1 X65.858 Y83.401 E37.02207
G1 X66.379 Y84.042 E37.04954
G1 X66.923 Y84.628 E37.07613
G1 X150.236 Y167.942 E40.99495
G1 X159.4 Y158.778 E41.42599
G1 X159.531 Y158.72 E41.43076
G1 X159.684 Y158.778 E41.4362
G1 X166.542 Y165.637 E41.7588
G1 X168.998 Y163.18 E41.87435
G1 X171.455 Y160.724 E41.98989
G1 X127.968 Y117.238 E44.03537
G1 X120.852 Y124.354 E44.37008
G1 X120.711 Y124.401 E44.37502
G1 X120.58 Y124.343 E44.37979
G1 X119.165 Y122.929 E44.44632
G1 X119.107 Y122.771 E44.45192
G1 X119.165 Y122.645 E44.45653
G1 X126.271 Y115.54 E44.79076
G1 X82.714 Y71.984 E46.83952
G1 X75.597 Y79.1 E47.17426
G1 X75.456 Y79.147 E47.1792
G1 X75.325 Y79.089 E47.18397
G1 X73.897 Y77.659 E47.25118
G1 X73.855 Y77.498 E47.25672
G1 X73.92 Y77.381 E47.26117
G1 X81.016 Y70.284 E47.59497
G1 X80.973 Y70.242 E47.59696
G1 X80.538 Y69.845 E47.61655
G1 X80.093 Y69.476 E47.63578
G1 X79.582 Y69.1 E47.65688
G1 X79.018 Y68.724 E47.67943
G1 X78.496 Y68.417 E47.69957
G1 X77.951 Y68.135 E47.71998
G1 X77.334 Y67.854 E47.74253
G1 X76.747 Y67.627 E47.76346
G1 X76.134 Y67.432 E47.78485
G1 X75.551 Y67.279 E47.8049
G1 X74.903 Y67.147 E47.8269
G1 X74.413 Y67.078 E47.84336
G1 X73.84 Y67.022 E47.8625
G1 X73.574 Y67.007 E47.87137
G1 X73.097 Y66.995 E47.88724
G1 X72.432 Y67.016 E47.90936
G1 X71.839 Y67.072 E47.92918
G1 X71.235 Y67.165 E47.9495
G1 X70.596 Y67.307 E47.97127
G1 X70.019 Y67.473 E47.99124
G1 X69.394 Y67.699 E48.01335
G1 X68.804 Y67.959 E48.03479
