;FLAVOR:Marlin
;TIME:5878
;Filament used: 3.38043m
;Layer height: 0.2
;MINX:102.28
;MINY:84.51
;MINZ:0.2
;MAXX:132.725
;MAXY:150.5
;MAXZ:66
;Generated with Cura_SteamEngine 5.0.0
M140 S70
M105
M190 S70
M104 S200
M105
M109 S200
M82 ;absolute extrusion mode
; Ender 3 Custom Start G-code
G28 ; Home all axes
M420 S1; Bed Leveling On
G92 E0 ; Reset Extruder
G1 Z2.0 F3000 ; Move Z Axis up little to prevent scratching of Heat Bed
G1 X0.1 Y20 Z0.3 F5000.0 ; Move to start position
G1 X0.1 Y200.0 Z0.3 F1500.0 E15 ; Draw the first line
G1 X0.4 Y200.0 Z0.3 F5000.0 ; Move to side a little
G1 X0.4 Y20 Z0.3 F1500.0 E30 ; Draw the second line
G92 E0 ; Reset Extruder
G1 Z2.0 F3000 ; Move Z Axis up little to prevent scratching of Heat Bed
G1 X5 Y20 Z0.3 F5000.0 ; Move over to prevent blob squish
G92 E0
G92 E0
G1 F2700 E-5
;LAYER_COUNT:330
;LAYER:0
M107
G0 F6000 X112.141 Y88.321 Z0.2
G0 X109.301 Y96.49
;TYPE:SKIRT
G1 F2700 E0
G1 F900 X109.468 Y94.867 E0.05427
G1 X109.54 Y94.245 E0.07509
G1 X109.687 Y93.319 E0.10628
G1 X109.913 Y92.409 E0.13746
G1 X110.216 Y91.521 E0.16867
G1 X110.593 Y90.662 E0.19987
G1 X111.042 Y89.839 E0.23105
G1 X111.559 Y89.056 E0.26226
G1 X112.141 Y88.321 E0.29344
G1 X112.784 Y87.638 E0.32464
G1 X113.482 Y87.012 E0.35583
G1 X114.232 Y86.448 E0.38704
G1 X115.026 Y85.95 E0.41821
G1 X115.86 Y85.521 E0.4494
G1 X116.728 Y85.165 E0.48061
G1 X117.623 Y84.884 E0.51181
G1 X118.538 Y84.68 E0.54299
G1 X119.468 Y84.555 E0.5742
G1 X120.467 Y84.51 E0.60746
G1 X120.7 Y84.51 E0.61521
G1 X121.637 Y84.55 E0.6464
G1 X122.567 Y84.67 E0.67759
G1 X123.484 Y84.868 E0.70879
G1 X124.38 Y85.144 E0.73998
G1 X125.25 Y85.495 E0.77118
G1 X126.086 Y85.919 E0.80236
G1 X126.884 Y86.413 E0.83357
G1 X127.636 Y86.973 E0.86476
G1 X128.338 Y87.594 E0.89593
G1 X128.985 Y88.274 E0.92715
G1 X129.571 Y89.006 E0.95833
G1 X130.093 Y89.785 E0.98952
G1 X130.546 Y90.606 E1.02071
G1 X130.928 Y91.463 E1.05192
G1 X131.236 Y92.349 E1.08312
G1 X131.467 Y93.258 E1.11431
G1 X131.62 Y94.183 E1.1455
G1 X131.686 Y94.953 E1.1712
G1 X131.716 Y95.623 E1.19351
G1 X131.84 Y100.669 E1.36139
G1 X132.717 Y134.683 E2.49307
G1 X132.725 Y135.366 E2.51579
G1 X132.696 Y136.304 E2.547
G1 X132.587 Y137.235 E2.57818
G1 X132.4 Y138.154 E2.60937
G1 X132.134 Y139.054 E2.64059
G1 X131.794 Y139.927 E2.67175
G1 X131.257 Y140.987 E2.71127
G1 X130.913 Y141.584 E2.73419
G1 X129.574 Y143.975 E2.82533
G1 X129.156 Y144.744 E2.85444
G1 X128.673 Y145.548 E2.88564
G1 X128.124 Y146.309 E2.91685
G1 X127.511 Y147.019 E2.94805
G1 X126.841 Y147.675 E2.97924
G1 X126.117 Y148.271 E3.01043
G1 X125.345 Y148.804 E3.04163
G1 X124.531 Y149.269 E3.07281
G1 X123.679 Y149.662 E3.10401
G1 X122.798 Y149.982 E3.13519
G1 X121.892 Y150.226 E3.1664
G1 X120.969 Y150.391 E3.19758
G1 X119.799 Y150.487 E3.23663
G1 X119.17 Y150.5 E3.25755
G1 X116.05 Y150.499 E3.36132
G1 X115.349 Y150.489 E3.38464
G1 X114.413 Y150.436 E3.41582
G1 X113.484 Y150.303 E3.44704
G1 X112.571 Y150.091 E3.47821
G1 X111.678 Y149.803 E3.50942
G1 X110.814 Y149.439 E3.5406
G1 X109.983 Y149.003 E3.57182
G1 X109.193 Y148.498 E3.603
G1 X108.449 Y147.928 E3.63417
G1 X107.756 Y147.296 E3.66537
G1 X107.119 Y146.607 E3.69658
G1 X106.543 Y145.867 E3.72777
G1 X105.908 Y144.864 E3.76725
G1 X105.603 Y144.316 E3.78811
G1 X104.74 Y142.722 E3.8484
G1 X103.74 Y140.979 E3.91523
G1 X103.308 Y140.146 E3.94644
G1 X102.949 Y139.28 E3.97762
G1 X102.665 Y138.386 E4.00882
G1 X102.458 Y137.471 E4.04003
G1 X102.329 Y136.542 E4.07122
G1 X102.28 Y135.606 E4.10239
G1 X102.312 Y134.668 E4.13361
G1 X102.448 Y133.585 E4.16991
G1 X102.641 Y132.507 E4.20634
G1 X105.814 Y116.314 E4.75516
G1 X106.919 Y110.543 E4.95059
G1 X107.756 Y106.054 E5.10247
G1 X108.562 Y101.551 E5.25462
G1 X108.969 Y99.01 E5.34021
G1 X109.301 Y96.49 E5.42475
G1 F2700 E0.42475
G0 F6000 X108.955 Y101.628
G1 F2700 E5.42475
G1 F900 X109.37 Y99.038 E5.512
G1 X109.693 Y96.581 E5.59442
G1 X109.865 Y94.913 E5.65019
G1 X109.937 Y94.291 E5.67102
G1 X110.083 Y93.382 E5.70164
G1 X110.307 Y92.489 E5.73226
G1 X110.607 Y91.619 E5.76287
G1 X110.982 Y90.778 E5.79349
G1 X111.428 Y89.973 E5.8241
G1 X111.943 Y89.209 E5.85475
G1 X112.522 Y88.493 E5.88537
G1 X113.161 Y87.83 E5.916
G1 X113.854 Y87.225 E5.9466
G1 X114.598 Y86.683 E5.97721
G1 X115.386 Y86.207 E6.00783
G1 X116.213 Y85.801 E6.03848
G1 X117.071 Y85.469 E6.06907
G1 X117.955 Y85.212 E6.09969
G1 X118.858 Y85.033 E6.13031
G1 X119.774 Y84.933 E6.16096
G1 X120.467 Y84.91 E6.18402
G1 X120.7 Y84.91 E6.19177
G1 X121.62 Y84.95 E6.2224
G1 X122.533 Y85.07 E6.25303
G1 X123.432 Y85.268 E6.28364
G1 X124.31 Y85.544 E6.31426
G1 X125.161 Y85.895 E6.34487
G1 X125.979 Y86.318 E6.3755
G1 X126.756 Y86.811 E6.40611
G1 X127.488 Y87.369 E6.43672
G1 X128.169 Y87.989 E6.46735
G1 X128.794 Y88.665 E6.49797
G1 X129.357 Y89.393 E6.52858
G1 X129.855 Y90.168 E6.55922
G1 X130.284 Y90.982 E6.58983
G1 X130.641 Y91.831 E6.62046
G1 X130.923 Y92.707 E6.65107
G1 X131.127 Y93.605 E6.6817
G1 X131.286 Y94.974 E6.72754
G1 X131.316 Y95.633 E6.74948
G1 X131.44 Y100.679 E6.91736
G1 X132.317 Y134.688 E8.04888
G1 X132.325 Y135.371 E8.0716
G1 X132.296 Y136.291 E8.10221
G1 X132.187 Y137.205 E8.13283
G1 X131.999 Y138.107 E8.16347
G1 X131.734 Y138.988 E8.19407
G1 X131.393 Y139.843 E8.22469
G1 X130.91 Y140.787 E8.25995
G1 X130.611 Y141.305 E8.27985
G1 X129.186 Y143.85 E8.37686
G1 X128.804 Y144.553 E8.40347
G1 X128.33 Y145.342 E8.43408
G1 X127.789 Y146.087 E8.46471
G1 X127.185 Y146.782 E8.49533
G1 X126.523 Y147.422 E8.52596
G1 X125.809 Y148.003 E8.55658
G1 X125.046 Y148.519 E8.58721
G1 X124.242 Y148.967 E8.61782
G1 X123.402 Y149.343 E8.64843
G1 X122.532 Y149.645 E8.67906
G1 X121.639 Y149.871 E8.7097
G1 X120.731 Y150.018 E8.74029
G1 X119.788 Y150.087 E8.77174
G1 X119.17 Y150.1 E8.7923
G1 X116.056 Y150.099 E8.89587
G1 X115.355 Y150.089 E8.91919
G1 X114.436 Y150.036 E8.94981
G1 X113.525 Y149.903 E8.98043
G1 X112.629 Y149.692 E9.01105
G1 X111.754 Y149.404 E9.04168
G1 X110.908 Y149.041 E9.0723
G1 X110.097 Y148.606 E9.10291
G1 X109.326 Y148.102 E9.13355
G1 X108.602 Y147.533 E9.16418
G1 X107.93 Y146.904 E9.19479
G1 X107.315 Y146.219 E9.22541
G1 X106.762 Y145.483 E9.25603
G1 X106.257 Y144.669 E9.28789
G1 X105.954 Y144.126 E9.30857
G1 X105.072 Y142.496 E9.37021
G1 X104.087 Y140.78 E9.43602
G1 X103.664 Y139.962 E9.46665
G1 X103.313 Y139.111 E9.49727
G1 X103.037 Y138.232 E9.52791
G1 X102.839 Y137.333 E9.55853
G1 X102.72 Y136.42 E9.58915
G1 X102.68 Y135.501 E9.61975
G1 X102.72 Y134.581 E9.65037
G1 X102.842 Y133.655 E9.68144
G1 X103.034 Y132.584 E9.71763
G1 X106.198 Y116.435 E10.26496
G1 X107.312 Y110.618 E10.46195
G1 X108.15 Y106.127 E10.6139
G1 X108.955 Y101.628 E10.76591
G1 F2700 E5.76591
G0 F6000 X108.529 Y106.275
G1 F2700 E10.76591
G1 F900 X109.358 Y101.641 E10.92249
G1 X109.759 Y99.138 E11.0068
G1 X110.092 Y96.607 E11.09171
G1 X110.263 Y94.959 E11.14681
G1 X110.335 Y94.337 E11.16764
G1 X110.478 Y93.445 E11.19769
G1 X110.7 Y92.57 E11.22771
G1 X110.998 Y91.718 E11.25773
G1 X111.371 Y90.895 E11.28778
G1 X111.815 Y90.108 E11.31784
G1 X112.326 Y89.364 E11.34786
G1 X112.902 Y88.668 E11.37791
G1 X113.537 Y88.026 E11.40794
G1 X114.226 Y87.442 E11.43798
G1 X114.964 Y86.922 E11.46801
G1 X115.745 Y86.469 E11.49804
G1 X116.563 Y86.087 E11.52806
G1 X117.412 Y85.778 E11.55811
G1 X118.285 Y85.546 E11.58816
G1 X119.175 Y85.392 E11.6182
G1 X120.467 Y85.31 E11.66126
G1 X120.7 Y85.31 E11.66901
G1 X121.602 Y85.35 E11.69904
G1 X122.497 Y85.47 E11.72907
G1 X123.378 Y85.668 E11.75911
G1 X124.238 Y85.943 E11.78914
G1 X125.071 Y86.294 E11.8192
G1 X125.869 Y86.717 E11.84924
G1 X126.626 Y87.208 E11.87925
G1 X127.337 Y87.765 E11.90929
G1 X127.997 Y88.383 E11.93936
G1 X128.598 Y89.056 E11.96938
G1 X129.138 Y89.78 E11.99942
G1 X129.612 Y90.549 E12.02946
G1 X130.016 Y91.356 E12.05948
G1 X130.347 Y92.197 E12.08954
G1 X130.602 Y93.063 E12.11956
G1 X130.78 Y93.948 E12.14959
G1 X130.887 Y94.994 E12.18456
G1 X130.916 Y95.642 E12.20613
G1 X131.917 Y134.693 E13.5054
G1 X131.925 Y135.376 E13.52812
G1 X131.896 Y136.278 E13.55814
G1 X131.787 Y137.175 E13.58819
G1 X131.599 Y138.058 E13.61822
G1 X131.333 Y138.921 E13.64825
G1 X130.993 Y139.758 E13.6783
G1 X130.564 Y140.587 E13.70935
G1 X130.238 Y141.152 E13.73104
G1 X128.871 Y143.593 E13.8241
G1 X128.453 Y144.362 E13.85321
G1 X127.987 Y145.136 E13.88326
G1 X127.454 Y145.865 E13.91329
G1 X126.859 Y146.545 E13.94334
G1 X126.206 Y147.169 E13.97339
G1 X125.501 Y147.732 E14.00339
G1 X124.748 Y148.232 E14.03346
G1 X123.955 Y148.663 E14.06348
G1 X123.126 Y149.021 E14.09351
G1 X122.269 Y149.306 E14.12355
G1 X121.39 Y149.513 E14.15358
G1 X120.496 Y149.641 E14.18362
G1 X119.777 Y149.687 E14.20758
G1 X119.17 Y149.7 E14.22778
G1 X116.062 Y149.699 E14.33115
G1 X115.361 Y149.689 E14.35447
G1 X114.459 Y149.636 E14.38452
G1 X113.566 Y149.504 E14.41454
G1 X112.687 Y149.293 E14.44461
G1 X111.831 Y149.005 E14.47465
G1 X111.004 Y148.643 E14.50468
G1 X110.212 Y148.209 E14.53471
G1 X109.462 Y147.706 E14.56475
G1 X108.759 Y147.139 E14.59479
G1 X108.109 Y146.513 E14.6248
G1 X107.516 Y145.831 E14.65486
G1 X106.987 Y145.099 E14.6849
G1 X106.606 Y144.473 E14.70927
G1 X106.306 Y143.935 E14.72976
G1 X105.431 Y142.318 E14.79091
G1 X104.434 Y140.581 E14.85753
G1 X104.019 Y139.778 E14.88759
G1 X103.677 Y138.942 E14.91763
G1 X103.411 Y138.079 E14.94767
G1 X103.222 Y137.196 E14.9777
G1 X103.111 Y136.3 E15.00773
G1 X103.081 Y135.397 E15.03778
G1 X103.13 Y134.496 E15.06779
G1 X103.236 Y133.725 E15.09368
G1 X103.426 Y132.661 E15.12963
G1 X106.599 Y116.468 E15.67845
G1 X107.705 Y110.693 E15.87402
G1 X108.529 Y106.275 E16.0235
G1 F2700 E11.0235
;MESH:TE_Start.stl
G0 F6000 X119.417 Y99.606
G0 X120.447 Y99.612
;TYPE:WALL-OUTER
G1 F2700 E16.0235
G1 F524 X120.469 Y99.315 E16.04051
G1 F561.6 X120.491 Y99.017 E16.05643
G1 F593.1 X120.498 Y98.897 E16.0625
G1 F627.2 X120.512 Y98.574 E16.07793
G1 F679.2 X120.526 Y98.251 E16.09218
G1 F734.7 X120.535 Y97.93 E16.10526
G1 F793 X120.545 Y97.609 E16.11739
G1 F861.2 X120.555 Y97.288 E16.12855
G1 F932.6 X120.56 Y96.993 E16.13802
G1 F1002.8 X120.566 Y96.698 E16.14683
G1 F1084.3 X120.572 Y96.403 E16.15497
G1 F1180.3 X120.577 Y96.108 E16.16246
G1 F1309.1 X120.583 Y95.629 E16.17341
G1 F2700 E11.17341
G0 F6000 X118.253 Y126.867
G1 F2700 E16.17341
G1 F900 X118.528 Y126.916 E16.1827
G1 X119.028 Y127.108 E16.20051
G1 X119.072 Y127.132 E16.20218
G1 X119.479 Y127.426 E16.21888
G1 X119.678 Y127.635 E16.22848
G1 X119.842 Y127.855 E16.23761
G1 X119.98 Y128.098 E16.2469
G1 F902.3 X120.15 Y128.608 E16.26474
G1 X120.191 Y128.892 E16.27426
G1 F900 X120.192 Y129.171 E16.28354
G1 X120.16 Y129.451 E16.29291
G1 X120.089 Y129.722 E16.30223
G1 X119.869 Y130.203 E16.31982
G1 X119.703 Y130.44 E16.32944
G1 X119.316 Y130.811 E16.34727
G1 X119.275 Y130.841 E16.34896
G1 X118.834 Y131.083 E16.36569
G1 X118.564 Y131.177 E16.3752
G1 X118.287 Y131.231 E16.38459
G1 X117.754 Y131.235 E16.40232
G1 X117.465 Y131.186 E16.41207
G1 X117.23 Y131.098 E16.42041
G1 X116.965 Y130.994 E16.42988
G1 X116.717 Y130.839 E16.43961
G1 X116.323 Y130.477 E16.4574
G1 X116.149 Y130.244 E16.46708
G1 X116.013 Y130.003 E16.47628
G1 X115.842 Y129.495 E16.49411
G1 X115.801 Y129.211 E16.50365
G1 X115.8 Y128.926 E16.51313
G1 X115.833 Y128.654 E16.52224
G1 X115.903 Y128.381 E16.53162
G1 X116.124 Y127.899 E16.54925
G1 X116.466 Y127.47 E16.5675
G1 X116.688 Y127.282 E16.57718
G1 X116.719 Y127.261 E16.57842
G1 X117.158 Y127.018 E16.59511
G1 X117.429 Y126.925 E16.60464
G1 X117.467 Y126.916 E16.60594
G1 X117.965 Y126.852 E16.62264
G1 X118.253 Y126.867 E16.63223
G1 F2700 E11.63223
G0 F6000 X114.794 Y128.743
G1 F2700 E16.63223
G1 F900 X113.509 Y135.295 E16.8543
G1 X115.501 Y135.3 E16.92056
G1 X115.649 Y135.366 E16.92595
G1 X115.7 Y135.5 E16.93072
G1 X115.7 Y139.3 E17.05711
G1 X119.3 Y139.3 E17.17684
G1 X119.3 Y135.5 E17.30323
G1 X119.364 Y135.352 E17.30859
G1 X119.5 Y135.3 E17.31344
G1 X121.531 Y135.3 E17.38099
G1 X121.342 Y127.902 E17.62713
G1 X120.846 Y108.609 E18.26903
G1 X120.664 Y101.566 E18.50336
G1 F873.8 X120.644 Y101.312 E18.51208
G1 F825.7 X120.624 Y101.058 E18.52132
G1 F780.9 X120.604 Y100.804 E18.53109
G1 F740.7 X120.583 Y100.549 E18.54143
G1 F705.9 X120.563 Y100.295 E18.55223
G1 F672.9 X120.543 Y100.041 E18.56357
G1 F644 X120.522 Y99.787 E18.57541
G1 F565.1 X120.442 Y99.621 E18.58517
G1 X120.352 Y99.775 E18.59462
G1 F644 X120.295 Y100.023 E18.60645
G1 F672.9 X120.238 Y100.272 E18.61781
G1 F705.9 X120.181 Y100.52 E18.6286
G1 F740.7 X120.124 Y100.769 E18.63893
G1 F780.9 X120.067 Y101.017 E18.64868
G1 F825.7 X120.01 Y101.266 E18.65794
G1 F873.8 X119.953 Y101.514 E18.66666
G1 F900 X118.707 Y108.447 E18.90094
G1 X116.751 Y118.75 E19.24974
G1 X114.794 Y128.743 E19.58843
G0 F6000 X115.283 Y128.931
;TYPE:WALL-INNER
G1 F581.6 X115.335 Y128.591 E19.60613
G1 F587.3 X115.409 Y128.252 E19.62382
G1 F570.5 X115.444 Y128.127 E19.63063
G1 F2700 E14.63063
G0 F6000 X115.502 Y134.9
G1 F2700 E19.63063
G1 F900 X115.767 Y134.962 E19.63968
G1 X115.947 Y135.099 E19.6472
G1 X116.048 Y135.254 E19.65336
G1 X116.1 Y135.5 E19.66172
G1 X116.1 Y138.9 E19.7748
G1 X118.9 Y138.9 E19.86793
G1 X118.9 Y135.5 E19.98102
G1 X118.952 Y135.254 E19.98938
G1 X119.093 Y135.058 E19.99741
G1 X119.351 Y134.918 E20.00717
G1 X119.5 Y134.9 E20.01216
G1 X121.121 Y134.9 E20.06608
G1 X120.993 Y129.886 E20.2329
G1 F884.5 X120.976 Y129.517 E20.2454
G1 F895.5 X120.979 Y129.167 E20.2571
G1 F925.4 X120.974 Y128.893 E20.26596
G1 F911.4 X120.958 Y128.563 E20.27682
G1 F897.8 X120.905 Y126.475 E20.34646
G1 F900 X120.446 Y108.619 E20.94055
G1 X120.275 Y101.979 E21.16147
G1 X119.1 Y108.522 E21.38257
G1 X117.144 Y118.827 E21.73144
G1 X115.421 Y127.619 E22.02942
G1 F782.6 X115.432 Y127.873 E22.03915
G1 F620.7 X115.444 Y128.127 E22.05141
G1 X115.603 Y127.929 E22.06366
G1 F782.6 X115.762 Y127.73 E22.0734
G1 F900 X116.156 Y127.217 E22.09491
G1 X116.434 Y126.973 E22.10722
G1 X116.525 Y126.911 E22.11088
G1 X116.964 Y126.668 E22.12757
G1 X117.303 Y126.545 E22.13956
G1 X117.416 Y126.519 E22.14342
G1 X117.914 Y126.455 E22.16012
G1 X118.279 Y126.468 E22.17227
G1 X118.6 Y126.522 E22.18309
G1 X119.174 Y126.736 E22.20347
G1 X119.306 Y126.808 E22.20847
G1 X119.713 Y127.102 E22.22517
G1 X119.97 Y127.362 E22.23733
G1 X120.164 Y127.618 E22.24801
G1 X120.329 Y127.903 E22.25896
G1 X120.53 Y128.483 E22.27938
G1 F911.4 X120.582 Y128.841 E22.29126
G1 F923.1 X120.587 Y129.171 E22.30196
G1 F895.5 X120.564 Y129.497 E22.31289
G1 F884.5 X120.475 Y129.825 E22.32439
G1 F900 X120.232 Y130.371 E22.34427
G1 X120.028 Y130.673 E22.35639
G1 X119.591 Y131.102 E22.37676
G1 X119.467 Y131.191 E22.38183
G1 X119.026 Y131.433 E22.39856
G1 X118.785 Y131.524 E22.40713
G1 X118.361 Y131.624 E22.42162
G1 X117.755 Y131.635 E22.44178
G1 X117.393 Y131.58 E22.45396
G1 X117.084 Y131.47 E22.46487
G1 X116.819 Y131.366 E22.47434
G1 X116.501 Y131.176 E22.48666
G1 X116.05 Y130.77 E22.50684
G1 X115.826 Y130.48 E22.51903
G1 X115.663 Y130.197 E22.52989
G1 X115.462 Y129.62 E22.55021
G1 F871.7 X115.392 Y129.266 E22.5626
G1 F679.2 X115.283 Y128.931 E22.57813
G1 F644 X115.161 Y129.165 E22.5904
G1 F814.5 X115.053 Y129.5 E22.60333
G1 F900 X113.995 Y134.896 E22.78622
G1 X115.502 Y134.9 E22.83634
G1 F2700 E17.83634
G0 F6000 X115.703 Y130.92
;TYPE:SKIN
G1 F2700 E22.83634
G1 F900 X115.479 Y130.608 E22.84912
G1 X115.281 Y130.23 E22.86331
G1 X115.106 Y131.106 E22.89302
G1 X114.433 Y134.537 E23.00931
G1 X115.496 Y134.54 E23.04467
G1 X115.816 Y134.595 E23.05547
G1 X116.103 Y134.76 E23.06648
G1 X116.355 Y135.068 E23.07971
G1 X116.456 Y135.464 E23.09331
G1 X116.46 Y135.506 E23.09471
G1 X116.46 Y138.54 E23.19562
G1 X118.54 Y138.54 E23.2648
G1 X118.54 Y135.506 E23.36571
G1 X118.612 Y135.143 E23.37802
G1 X118.763 Y134.886 E23.38794
G1 X119.044 Y134.657 E23.39999
G1 X119.361 Y134.551 E23.41111
G1 X119.416 Y134.544 E23.41295
G1 X120.752 Y134.54 E23.45739
G1 X120.654 Y130.686 E23.58562
G1 X120.644 Y130.32 E23.59779
G1 X120.485 Y130.649 E23.60995
G1 X120.223 Y130.998 E23.62446
G1 X120.196 Y131.027 E23.62578
G1 X119.67 Y131.485 E23.64898
G1 X119.631 Y131.512 E23.65055
G1 X119.071 Y131.805 E23.67158
G1 X118.7 Y131.927 E23.68457
G1 X118.279 Y131.993 E23.69874
G1 X117.874 Y131.988 E23.71221
