;FLAVOR:Marlin
;TIME:3966
;Filament used: 2.77028m
;Layer height: 0.2
;MINX:27.923
;MINY:33.034
;MINZ:0.2
;MAXX:207.162
;MAXY:200.001
;MAXZ:2
;Generated with Cura_SteamEngine 5.0.0
M140 S70
M105
M190 S70
M104 S200
M105
M109 S200
M82 ;absolute extrusion mode
; Ender 3 Custom Start G-code
G28 ; Home all axes
M420 S1; Bed Leveling On
G92 E0 ; Reset Extruder
G1 Z2.0 F3000 ; Move Z Axis up little to prevent scratching of Heat Bed
G1 X0.1 Y20 Z0.3 F5000.0 ; Move to start position
G1 X0.1 Y200.0 Z0.3 F1500.0 E15 ; Draw the first line
G1 X0.4 Y200.0 Z0.3 F5000.0 ; Move to side a little
G1 X0.4 Y20 Z0.3 F1500.0 E30 ; Draw the second line
G92 E0 ; Reset Extruder
G1 Z2.0 F3000 ; Move Z Axis up little to prevent scratching of Heat Bed
G1 X5 Y20 Z0.3 F5000.0 ; Move over to prevent blob squish
G92 E0
G92 E0
G1 F2700 E-5
;LAYER_COUNT:10
;LAYER:0
M107
G0 F6000 X38.855 Y37.755 Z0.2
G0 X35.204 Y41.547
;TYPE:SKIRT
G1 F2700 E0
G1 F900 X37.06 Y39.637 E0.08858
G1 X37.65 Y39.003 E0.11738
G1 X38.855 Y37.755 E0.17508
G1 X40 Y36.611 E0.22892
G1 X40.483 Y36.142 E0.25131
G1 X41.183 Y35.518 E0.2825
G1 X41.934 Y34.956 E0.3137
G1 X42.73 Y34.46 E0.34489
G1 X43.565 Y34.033 E0.37609
G1 X44.434 Y33.679 E0.40729
G1 X45.329 Y33.401 E0.43847
G1 X46.245 Y33.2 E0.46966
G1 X47.175 Y33.077 E0.50086
G1 X48.112 Y33.034 E0.53206
G1 X49.049 Y33.071 E0.56324
G1 X49.979 Y33.188 E0.59442
G1 X51.296 Y33.495 E0.6394
G1 X54.082 Y34.328 E0.73611
G1 X56.538 Y34.984 E0.82066
G1 X58.99 Y35.566 E0.90448
G1 X61.485 Y36.083 E0.98923
G1 X63.77 Y36.494 E1.06645
G1 X64.685 Y36.699 E1.09764
G1 X65.58 Y36.982 E1.12886
G1 X66.447 Y37.339 E1.16004
G1 X67.28 Y37.77 E1.19124
G1 X68.074 Y38.269 E1.22243
G1 X68.822 Y38.835 E1.25363
G1 X69.365 Y39.314 E1.27771
G1 X69.842 Y39.77 E1.29966
G1 X113.033 Y82.961 E3.33123
G1 X114.479 Y84.417 E3.39948
G1 X115.168 Y85.096 E3.43166
G1 X158.271 Y128.201 E5.45914
G1 X159.683 Y129.622 E5.52576
G1 X160.325 Y130.254 E5.55573
G1 X203.587 Y173.518 E7.59069
G1 X204.054 Y173.999 E7.61298
G1 X204.678 Y174.699 E7.64417
G1 X205.24 Y175.449 E7.67535
G1 X205.736 Y176.245 E7.70654
G1 X206.163 Y177.081 E7.73776
G1 X206.517 Y177.949 E7.76894
G1 X206.795 Y178.845 E7.80014
G1 X206.997 Y179.761 E7.83134
G1 X207.119 Y180.691 E7.86254
G1 X207.162 Y181.627 E7.8937
G1 X207.125 Y182.565 E7.92492
G1 X207.008 Y183.495 E7.9561
G1 X206.812 Y184.412 E7.98729
G1 X206.539 Y185.31 E8.01851
G1 X206.191 Y186.18 E8.04967
G1 X205.769 Y187.018 E8.08088
G1 X205.278 Y187.817 E8.11207
G1 X204.721 Y188.571 E8.14325
G1 X204.139 Y189.236 E8.17264
G1 X203.694 Y189.698 E8.19398
G1 X199.187 Y194.203 E8.40592
G1 X198.649 Y194.727 E8.4309
G1 X197.95 Y195.352 E8.46209
G1 X197.2 Y195.915 E8.49328
G1 X196.405 Y196.413 E8.52448
G1 X195.57 Y196.841 E8.55569
G1 X194.702 Y197.196 E8.58688
G1 X193.807 Y197.476 E8.61807
G1 X192.891 Y197.679 E8.64928
G1 X191.645 Y197.827 E8.69101
G1 X189.903 Y197.933 E8.74906
G1 X187.313 Y198.142 E8.83548
G1 X184.849 Y198.41 E8.91792
G1 X182.343 Y198.755 E9.00205
G1 X179.863 Y199.169 E9.08568
G1 X176.713 Y199.787 E9.19245
G1 X175.786 Y199.934 E9.22366
G1 X174.851 Y200.001 E9.25484
G1 X173.913 Y199.989 E9.28604
G1 X172.98 Y199.896 E9.31723
G1 X172.058 Y199.725 E9.34842
G1 X171.154 Y199.475 E9.37961
G1 X170.274 Y199.149 E9.41083
G1 X169.426 Y198.75 E9.442
G1 X168.614 Y198.28 E9.4732
G1 X167.846 Y197.742 E9.50439
G1 X166.994 Y197.019 E9.54156
G1 X166.517 Y196.563 E9.5635
G1 X31.473 Y61.517 E15.91561
G1 X31.007 Y61.034 E15.93793
G1 X30.385 Y60.332 E15.96912
G1 X29.825 Y59.579 E16.00034
G1 X29.332 Y58.782 E16.03151
G1 X28.908 Y57.945 E16.06271
G1 X28.557 Y57.075 E16.09392
G1 X28.281 Y56.179 E16.1251
G1 X28.082 Y55.262 E16.15631
G1 X27.963 Y54.332 E16.18749
G1 X27.923 Y53.395 E16.21868
G1 X27.963 Y52.458 E16.24988
G1 X28.083 Y51.528 E16.28107
G1 X28.281 Y50.611 E16.31227
G1 X28.557 Y49.715 E16.34345
G1 X28.909 Y48.845 E16.37467
G1 X29.333 Y48.009 E16.40584
G1 X29.826 Y47.211 E16.43704
G1 X30.386 Y46.459 E16.46823
G1 X30.931 Y45.838 E16.49571
G1 X31.354 Y45.397 E16.51603
G1 X35.204 Y41.547 E16.69712
G0 F6000 X35.491 Y41.826
G1 F900 X37.337 Y39.926 E16.78523
G1 X37.938 Y39.28 E16.81458
G1 X39.138 Y38.038 E16.87202
G1 X40.279 Y36.898 E16.92567
G1 X40.762 Y36.429 E16.94806
G1 X41.449 Y35.817 E16.97866
G1 X42.188 Y35.267 E17.0093
G1 X42.971 Y34.783 E17.03992
G1 X43.793 Y34.369 E17.07053
G1 X44.648 Y34.028 E17.10114
G1 X45.53 Y33.762 E17.13178
G1 X46.431 Y33.574 E17.1624
G1 X47.345 Y33.464 E17.19302
G1 X48.265 Y33.435 E17.22363
G1 X49.184 Y33.485 E17.25424
G1 X50.096 Y33.615 E17.28488
G1 X51.182 Y33.878 E17.32205
G1 X54.009 Y34.723 E17.42018
G1 X56.439 Y35.372 E17.50384
G1 X58.889 Y35.953 E17.58758
G1 X61.412 Y36.476 E17.67328
G1 X63.699 Y36.888 E17.75057
G1 X64.597 Y37.09 E17.78119
G1 X65.475 Y37.369 E17.81183
G1 X66.324 Y37.724 E17.84244
G1 X67.14 Y38.151 E17.87307
G1 X67.916 Y38.647 E17.9037
G1 X68.645 Y39.208 E17.93429
G1 X69.091 Y39.605 E17.95415
G1 X69.559 Y40.053 E17.9757
G1 X112.749 Y83.243 E20.00723
G1 X114.154 Y84.657 E20.07353
G1 X114.886 Y85.379 E20.10772
G1 X157.987 Y128.483 E22.13513
G1 X159.378 Y129.883 E22.20077
G1 X160.044 Y130.539 E22.23187
G1 X203.3 Y173.796 E24.26652
G1 X203.767 Y174.277 E24.28882
G1 X204.379 Y174.965 E24.31944
G1 X204.929 Y175.703 E24.35006
G1 X205.413 Y176.486 E24.38067
G1 X205.827 Y177.309 E24.41131
G1 X206.168 Y178.164 E24.44193
G1 X206.434 Y179.045 E24.47254
G1 X206.622 Y179.946 E24.50315
G1 X206.732 Y180.861 E24.5338
G1 X206.761 Y181.781 E24.56442
G1 X206.711 Y182.7 E24.59503
G1 X206.581 Y183.611 E24.62564
G1 X206.372 Y184.508 E24.65627
G1 X206.087 Y185.383 E24.68688
G1 X205.726 Y186.231 E24.71753
G1 X205.294 Y187.043 E24.74812
G1 X204.792 Y187.815 E24.77875
G1 X204.226 Y188.541 E24.80937
G1 X203.848 Y188.96 E24.82814
G1 X203.411 Y189.415 E24.84912
G1 X198.908 Y193.916 E25.06088
G1 X198.37 Y194.44 E25.08586
G1 X197.683 Y195.054 E25.1165
G1 X196.946 Y195.605 E25.14711
G1 X196.163 Y196.09 E25.17774
G1 X195.342 Y196.505 E25.20834
G1 X194.487 Y196.848 E25.23898
G1 X193.606 Y197.115 E25.2696
G1 X192.705 Y197.305 E25.30023
G1 X191.621 Y197.427 E25.33651
G1 X189.897 Y197.532 E25.39395
G1 X187.309 Y197.741 E25.48031
G1 X184.783 Y198.016 E25.56482
G1 X182.294 Y198.359 E25.64839
G1 X179.762 Y198.781 E25.73377
G1 X176.633 Y199.395 E25.83982
G1 X175.724 Y199.539 E25.87043
G1 X174.805 Y199.602 E25.90107
G1 X173.885 Y199.586 E25.93167
G1 X172.969 Y199.49 E25.96231
G1 X172.065 Y199.316 E25.99293
G1 X171.18 Y199.063 E26.02354
G1 X170.32 Y198.734 E26.05417
G1 X169.492 Y198.332 E26.08478
G1 X168.702 Y197.86 E26.11539
G1 X167.955 Y197.321 E26.14603
G1 X167.268 Y196.728 E26.17621
G1 X166.8 Y196.28 E26.19776
G1 X31.761 Y61.239 E32.54963
G1 X31.295 Y60.756 E32.57195
G1 X30.685 Y60.066 E32.60258
G1 X30.137 Y59.326 E32.63321
G1 X29.656 Y58.541 E32.66383
G1 X29.244 Y57.718 E32.69444
G1 X28.906 Y56.862 E32.72505
G1 X28.643 Y55.979 E32.75569
G1 X28.457 Y55.078 E32.78629
G1 X28.351 Y54.163 E32.81693
G1 X28.324 Y53.243 E32.84754
G1 X28.377 Y52.324 E32.87816
G1 X28.51 Y51.413 E32.90878
G1 X28.722 Y50.517 E32.9394
G1 X29.01 Y49.642 E32.97004
G1 X29.373 Y48.796 E33.00066
G1 X29.808 Y47.985 E33.03127
G1 X30.312 Y47.214 E33.06191
G1 X30.881 Y46.491 E33.09251
G1 X31.43 Y45.892 E33.11953
G1 X35.491 Y41.826 E33.31067
G0 F6000 X35.742 Y42.141
G1 F900 X37.636 Y40.193 E33.40103
G1 X38.226 Y39.558 E33.42986
G1 X39.421 Y38.321 E33.48707
G1 X40.557 Y37.185 E33.5405
G1 X41.04 Y36.716 E33.56289
G1 X41.715 Y36.116 E33.59293
G1 X42.441 Y35.579 E33.62297
G1 X43.211 Y35.107 E33.65301
G1 X44.02 Y34.706 E33.68304
G1 X44.862 Y34.377 E33.7131
G1 X45.729 Y34.125 E33.74313
G1 X46.615 Y33.95 E33.77317
G1 X47.513 Y33.854 E33.80321
G1 X48.416 Y33.838 E33.83325
G1 X49.316 Y33.901 E33.86326
G1 X50.208 Y34.045 E33.89331
G1 X51.067 Y34.261 E33.92277
G1 X53.888 Y35.104 E34.02069
G1 X56.349 Y35.761 E34.10541
G1 X58.794 Y36.342 E34.189
G1 X61.33 Y36.868 E34.27514
G1 X63.628 Y37.281 E34.3528
G1 X64.509 Y37.48 E34.38284
G1 X65.369 Y37.757 E34.41289
G1 X66.201 Y38.108 E34.44292
G1 X66.999 Y38.531 E34.47296
G1 X67.756 Y39.024 E34.50301
G1 X68.467 Y39.581 E34.53305
G1 X69.059 Y40.124 E34.55977
G1 X112.465 Y83.525 E36.60134
G1 X113.872 Y84.941 E36.66773
G1 X114.603 Y85.662 E36.70188
G1 X157.703 Y128.765 E38.72924
G1 X159.098 Y130.168 E38.79505
G1 X159.818 Y130.879 E38.8287
G1 X203.013 Y174.075 E40.86049
G1 X203.48 Y174.556 E40.88278
G1 X204.08 Y175.231 E40.91282
G1 X204.618 Y175.957 E40.94288
G1 X205.089 Y176.727 E40.9729
G1 X205.491 Y177.536 E41.00294
G1 X205.819 Y178.377 E41.03297
G1 X206.072 Y179.244 E41.06301
G1 X206.246 Y180.13 E41.09304
G1 X206.342 Y181.028 E41.12308
G1 X206.358 Y181.931 E41.15312
G1 X206.295 Y182.832 E41.18316
G1 X206.151 Y183.724 E41.21321
G1 X205.93 Y184.599 E41.24322
G1 X205.631 Y185.452 E41.27329
G1 X205.259 Y186.274 E41.3033
G1 X204.815 Y187.061 E41.33335
G1 X204.304 Y187.805 E41.36337
G1 X203.558 Y188.685 E41.40174
G1 X203.129 Y189.132 E41.42235
G1 X198.629 Y193.63 E41.63397
G1 X198.091 Y194.154 E41.65895
G1 X197.417 Y194.755 E41.68898
G1 X196.692 Y195.294 E41.71903
G1 X195.922 Y195.766 E41.74907
G1 X195.114 Y196.169 E41.7791
G1 X194.273 Y196.499 E41.80915
G1 X193.407 Y196.753 E41.83916
G1 X192.521 Y196.929 E41.86921
G1 X191.596 Y197.028 E41.90015
G1 X189.839 Y197.135 E41.9587
G1 X187.269 Y197.342 E42.04445
G1 X184.761 Y197.615 E42.12836
G1 X182.205 Y197.967 E42.21418
G1 X179.728 Y198.38 E42.2977
G1 X176.554 Y199.003 E42.40528
G1 X175.662 Y199.143 E42.43531
G1 X174.761 Y199.203 E42.46535
G1 X173.858 Y199.184 E42.49539
G1 X172.96 Y199.084 E42.52544
G1 X172.075 Y198.906 E42.55546
G1 X171.209 Y198.65 E42.5855
G1 X170.369 Y198.319 E42.61553
G1 X169.561 Y197.914 E42.64559
G1 X168.793 Y197.44 E42.67561
G1 X168.069 Y196.899 E42.70567
G1 X167.542 Y196.436 E42.729
G1 X167.083 Y195.997 E42.75012
G1 X32.048 Y60.961 E49.10178
G1 X31.582 Y60.478 E49.1241
G1 X30.985 Y59.801 E49.15412
G1 X30.449 Y59.074 E49.18417
G1 X29.98 Y58.302 E49.21421
G1 X29.581 Y57.492 E49.24424
G1 X29.256 Y56.649 E49.27429
G1 X29.006 Y55.782 E49.3043
G1 X28.834 Y54.895 E49.33435
G1 X28.741 Y53.997 E49.36438
G1 X28.727 Y53.094 E49.39442
G1 X28.794 Y52.193 E49.42447
G1 X28.94 Y51.302 E49.4545
G1 X29.165 Y50.427 E49.48455
G1 X29.465 Y49.576 E49.51456
G1 X29.84 Y48.754 E49.54461
G1 X30.287 Y47.969 E49.57466
G1 X30.801 Y47.226 E49.6047
G1 X31.512 Y46.388 E49.64126
G1 X31.92 Y45.963 E49.66085
G1 X35.742 Y42.141 E49.84063
G1 F2700 E44.84063
;MESH:Front_Spar_Mid.stl
G0 F6000 X45.641 Y45.584
G0 X46.254 Y46.197
;TYPE:WALL-OUTER
G1 F2700 E49.84063
G1 F900 X46.27 Y46.308 E49.84436
G1 X46.235 Y46.355 E49.84631
G1 X39.192 Y53.398 E50.17759
G1 X174.531 Y188.737 E56.54352
G1 X181.725 Y181.544 E56.88188
G1 X181.78 Y181.51 E56.88403
G1 X181.997 Y181.553 E56.89139
G1 X183.854 Y179.699 E56.97866
G1 X184.007 Y179.659 E56.98392
G1 X184.12 Y179.715 E56.98812
G1 X190.978 Y186.573 E57.3107
G1 X193.433 Y184.117 E57.4262
G1 X195.891 Y181.661 E57.54177
G1 X152.333 Y138.104 E59.59058
G1 X145.217 Y145.22 E59.92529
G1 X145.076 Y145.267 E59.93024
G1 X144.945 Y145.209 E59.935
G1 X143.531 Y143.795 E60.00151
G1 X143.473 Y143.637 E60.00711
G1 X143.531 Y143.511 E60.01172
G1 X150.636 Y136.406 E60.34592
G1 X107.079 Y92.849 E62.39471
G1 X99.962 Y99.965 E62.72945
G1 X99.821 Y100.012 E62.73439
G1 X99.69 Y99.954 E62.73916
G1 X98.276 Y98.54 E62.80567
G1 X98.218 Y98.382 E62.81126
G1 X98.276 Y98.256 E62.81588
G1 X105.381 Y91.151 E63.15007
G1 X61.824 Y47.594 E65.19886
G1 X54.637 Y54.781 E65.53692
G1 X54.496 Y54.828 E65.54186
G1 X54.365 Y54.77 E65.54663
G1 X52.88 Y53.285 E65.61647
G1 X52.822 Y53.126 E65.6221
G1 X52.88 Y53.001 E65.62669
G1 X54.859 Y51.023 E65.71975
G1 X48.143 Y44.306 E66.03567
G1 X46.254 Y46.197 E66.12457
G1 F2700 E61.12457
G0 F6000 X45.641 Y45.584
G0 X48.143 Y43.098
G0 X61.825 Y46.386
G0 X151.844 Y136.406
G0 X145.087 Y144.143
G0 X144.742 Y145.559
;TYPE:WALL-INNER
G1 F2700 E66.12457
G1 F900 X144.662 Y145.492 E66.12804
G1 X143.248 Y144.078 E66.19455
G1 X143.105 Y143.849 E66.20353
G1 X143.074 Y143.605 E66.21171
G1 X143.153 Y143.352 E66.22053
G1 X143.248 Y143.228 E66.22573
G1 X150.07 Y136.406 E66.54661
G1 X107.079 Y93.415 E68.56878
G1 X100.257 Y100.237 E68.88966
G1 X100.02 Y100.383 E68.89892
G1 X99.719 Y100.402 E68.90895
G1 X99.487 Y100.304 E68.91733
G1 X99.407 Y100.237 E68.9208
G1 X97.993 Y98.823 E68.98731
G1 X97.85 Y98.594 E68.99629
G1 X97.819 Y98.35 E69.00447
G1 X97.898 Y98.097 E69.01329
G1 X97.993 Y97.973 E69.01848
G1 X104.815 Y91.151 E69.33937
G1 X61.824 Y48.16 E71.36153
G1 X54.932 Y55.053 E71.68573
G1 X54.695 Y55.199 E71.69499
G1 X54.394 Y55.218 E71.70502
G1 X54.162 Y55.12 E71.7134
G1 X54.082 Y55.053 E71.71687
G1 X52.597 Y53.568 E71.78672
G1 X52.453 Y53.336 E71.7958
G1 X52.424 Y53.092 E71.80397
G1 X52.508 Y52.833 E71.81303
G1 X52.597 Y52.718 E71.81787
G1 X54.293 Y51.023 E71.89762
G1 X48.143 Y44.872 E72.18692
G1 X46.61 Y46.407 E72.25907
G1 X46.622 Y46.497 E72.26209
G1 X46.518 Y46.638 E72.26792
G1 X39.758 Y53.398 E72.58589
G1 X90.472 Y104.112 E74.97132
G1 X135.728 Y149.367 E77.1
G1 X174.531 Y188.171 E78.9252
G1 X181.462 Y181.242 E79.25117
G1 X181.626 Y181.141 E79.25757
G1 X181.808 Y181.176 E79.26374
G1 X183.553 Y179.432 E79.34579
G1 X183.749 Y179.302 E79.35361
G1 X183.947 Y179.257 E79.36037
G1 X184.183 Y179.292 E79.3683
G1 X184.403 Y179.432 E79.37698
G1 X190.978 Y186.007 E79.68624
G1 X193.15 Y183.834 E79.78843
G1 X195.325 Y181.661 E79.89069
G1 X152.333 Y138.67 E81.91288
G1 X145.512 Y145.492 E82.23374
G1 X145.275 Y145.638 E82.243
G1 X144.974 Y145.657 E82.25303
G1 X144.742 Y145.559 E82.26141
G1 F2700 E77.26141
G0 F6000 X145.087 Y144.143
G0 X151.844 Y136.406
G0 X107.08 Y91.641
G0 X99.342 Y98.398
G0 X97.497 Y98.131
;TYPE:SKIN
G1 F2700 E82.26141
G1 F900 X97.663 Y97.808 E82.27349
G1 X97.739 Y97.722 E82.2773
G1 X104.305 Y91.152 E82.58624
G1 X61.824 Y48.67 E84.58444
G1 X55.175 Y55.319 E84.89719
G1 X54.935 Y55.485 E84.9069
G1 X54.614 Y55.58 E84.91803
G1 X54.233 Y55.545 E84.93076
G1 X53.861 Y55.334 E84.94498
G1 X53.825 Y55.306 E84.9465
G1 X52.342 Y53.821 E85.0163
G1 X52.186 Y53.614 E85.02492
G1 X52.068 Y53.227 E85.03838
G1 X52.11 Y52.85 E85.05099
G1 X52.323 Y52.488 E85.06496
G1 X52.35 Y52.455 E85.06638
G1 X53.783 Y51.023 E85.13376
G1 X48.143 Y45.382 E85.39907
G1 X46.952 Y46.574 E85.45512
G1 X46.917 Y46.704 E85.4596
G1 X46.769 Y46.895 E85.46763
G1 X40.268 Y53.397 E85.77344
G1 X174.531 Y187.661 E92.08879
G1 X181.189 Y181.004 E92.40194
G1 X181.442 Y180.83 E92.41215
G1 X181.707 Y180.766 E92.42122
G1 X183.296 Y179.181 E92.49586
G1 X183.582 Y178.986 E92.50738
G1 X183.899 Y178.901 E92.51829
G1 X184.266 Y178.944 E92.53058
G1 X184.623 Y179.149 E92.54427
G1 X184.658 Y179.177 E92.54577
G1 X190.978 Y185.497 E92.84304
G1 X192.895 Y183.579 E92.93323
G1 X194.815 Y181.661 E93.0235
G1 X152.333 Y139.18 E95.0217
G1 X145.743 Y145.769 E95.33165
G1 X145.499 Y145.936 E95.34148
G1 X145.194 Y146.019 E95.35199
G1 X144.813 Y145.984 E95.36472
G1 X144.441 Y145.773 E95.37894
G1 X144.405 Y145.745 E95.38046
G1 X142.993 Y144.331 E95.44692
G1 X142.838 Y144.126 E95.45547
G1 X142.72 Y143.745 E95.46874
G1 X142.752 Y143.386 E95.48072
G1 X142.918 Y143.063 E95.4928
G1 X142.994 Y142.977 E95.49662
G1 X149.56 Y136.407 E95.80556
G1 X107.078 Y93.925 E97.80378
G1 X100.497 Y100.504 E98.11329
G1 X100.264 Y100.668 E98.12276
G1 X99.939 Y100.764 E98.13403
G1 X99.558 Y100.729 E98.14676
G1 X99.186 Y100.518 E98.16098
G1 X99.15 Y100.49 E98.1625
G1 X97.738 Y99.076 E98.22896
G1 X97.583 Y98.871 E98.23751
G1 X97.465 Y98.49 E98.25078
G1 X97.497 Y98.131 E98.26276
G1 F2700 E93.26276
G0 F6000 X99.342 Y98.398
G0 X105.575 Y93.13
G0 X106.865 Y94.419
G1 F2700 E98.26276
G1 F900 X149.065 Y136.62 E100.24775
G0 F6000 X148.782 Y136.902
G1 F900 X106.582 Y94.702 E102.23271
G0 F6000 X106.299 Y94.985
G1 F900 X148.499 Y137.185 E104.21766
G0 F6000 X148.216 Y137.468
G1 F900 X106.016 Y95.268 E106.20262
G0 F6000 X105.733 Y95.551
G1 F900 X147.933 Y137.751 E108.18758
G0 F6000 X147.651 Y138.035
G1 F900 X105.45 Y95.834 E110.17259
G0 F6000 X105.167 Y96.117
G1 F900 X147.368 Y138.317 E112.15757
G0 F6000 X147.085 Y138.6
G1 F900 X104.885 Y96.399 E114.14255
G0 F6000 X104.602 Y96.682
G1 F900 X146.803 Y138.883 E116.12756
