;FLAVOR:Marlin
;TIME:2683
;Filament used: 1.88184m
;Layer height: 0.2
;MINX:73.502
;MINY:102.765
;MINZ:0.2
;MAXX:161.498
;MAXY:125.715
;MAXZ:15
;Generated with Cura_SteamEngine 5.0.0
M140 S70
M105
M190 S70
M104 S200
M105
M109 S200
M82 ;absolute extrusion mode
; Ender 3 Custom Start G-code
G28 ; Home all axes
M420 S1; Bed Leveling On
G92 E0 ; Reset Extruder
G1 Z2.0 F3000 ; Move Z Axis up little to prevent scratching of Heat Bed
G1 X0.1 Y20 Z0.3 F5000.0 ; Move to start position
G1 X0.1 Y200.0 Z0.3 F1500.0 E15 ; Draw the first line
G1 X0.4 Y200.0 Z0.3 F5000.0 ; Move to side a little
G1 X0.4 Y20 Z0.3 F1500.0 E30 ; Draw the second line
G92 E0 ; Reset Extruder
G1 Z2.0 F3000 ; Move Z Axis up little to prevent scratching of Heat Bed
G1 X5 Y20 Z0.3 F5000.0 ; Move over to prevent blob squish
G92 E0
G92 E0
G1 F2700 E-5
;LAYER_COUNT:75
;LAYER:0
M107
G0 F6000 X78.132 Y104.813 Z0.2
G0 X73.502 Y114.257
;TYPE:SKIRT
G1 F2700 E0
G1 F900 X73.511 Y113.62 E0.02119
G1 X73.564 Y112.683 E0.0524
G1 X73.697 Y111.755 E0.08358
G1 X73.908 Y110.841 E0.11478
G1 X74.197 Y109.949 E0.14597
G1 X74.56 Y109.084 E0.17717
G1 X74.996 Y108.254 E0.20835
G1 X75.501 Y107.463 E0.23957
G1 X76.071 Y106.719 E0.27074
G1 X76.703 Y106.026 E0.30193
G1 X77.392 Y105.389 E0.33314
G1 X78.132 Y104.813 E0.36433
G1 X78.919 Y104.302 E0.39554
G1 X79.746 Y103.86 E0.42673
G1 X80.608 Y103.49 E0.45793
G1 X81.498 Y103.195 E0.48912
G1 X82.41 Y102.977 E0.5203
G1 X83.337 Y102.838 E0.55148
G1 X84.201 Y102.779 E0.58028
G1 X84.83 Y102.766 E0.60121
G1 X149.792 Y102.765 E2.76185
G1 X150.648 Y102.776 E2.79033
G1 X151.585 Y102.83 E2.82154
G1 X152.513 Y102.962 E2.85272
G1 X153.427 Y103.174 E2.88393
G1 X154.319 Y103.463 E2.91511
G1 X155.184 Y103.826 E2.94631
G1 X156.014 Y104.262 E2.9775
G1 X156.804 Y104.767 E3.00868
G1 X157.549 Y105.338 E3.0399
G1 X158.242 Y105.97 E3.0711
G1 X158.879 Y106.658 E3.10228
G1 X159.454 Y107.399 E3.13348
G1 X159.965 Y108.185 E3.16466
G1 X160.407 Y109.013 E3.19588
G1 X160.776 Y109.874 E3.22703
G1 X161.071 Y110.765 E3.25825
G1 X161.289 Y111.677 E3.28944
G1 X161.429 Y112.604 E3.32062
G1 X161.486 Y113.455 E3.34899
G1 X161.498 Y114.184 E3.37324
G1 X161.49 Y114.84 E3.39506
G1 X161.439 Y115.777 E3.42627
G1 X161.308 Y116.705 E3.45744
G1 X161.098 Y117.619 E3.48863
G1 X160.811 Y118.512 E3.51983
G1 X160.45 Y119.378 E3.55103
G1 X160.016 Y120.209 E3.58222
G1 X159.512 Y121 E3.61341
G1 X158.943 Y121.746 E3.64462
G1 X158.313 Y122.44 E3.67579
G1 X157.626 Y123.078 E3.70698
G1 X156.886 Y123.656 E3.73821
G1 X156.101 Y124.168 E3.76938
G1 X155.274 Y124.612 E3.8006
G1 X154.413 Y124.983 E3.83178
G1 X153.524 Y125.28 E3.86295
G1 X152.612 Y125.5 E3.89416
G1 X151.685 Y125.641 E3.92534
G1 X150.817 Y125.701 E3.95428
G1 X150.187 Y125.715 E3.97524
G1 X85.051 Y125.715 E6.14167
G1 X84.352 Y125.705 E6.16493
G1 X83.415 Y125.651 E6.19614
G1 X82.487 Y125.519 E6.22732
G1 X81.573 Y125.307 E6.25853
G1 X80.681 Y125.018 E6.28971
G1 X79.816 Y124.655 E6.32091
G1 X78.986 Y124.219 E6.3521
G1 X78.196 Y123.714 E6.38328
G1 X77.451 Y123.143 E6.4145
G1 X76.758 Y122.511 E6.4457
G1 X76.121 Y121.823 E6.47688
G1 X75.546 Y121.082 E6.50808
G1 X75.035 Y120.296 E6.53926
G1 X74.593 Y119.468 E6.57047
G1 X74.224 Y118.607 E6.60163
G1 X73.929 Y117.716 E6.63285
G1 X73.711 Y116.804 E6.66404
G1 X73.571 Y115.877 E6.69522
G1 X73.513 Y115.005 E6.72428
G1 X73.502 Y114.257 E6.74917
G0 F6000 X73.902 Y114.262
G1 F900 X73.911 Y113.625 E6.77035
G1 X73.964 Y112.706 E6.80097
G1 X74.097 Y111.795 E6.83159
G1 X74.308 Y110.899 E6.86221
G1 X74.596 Y110.025 E6.89282
G1 X74.959 Y109.178 E6.92346
G1 X75.393 Y108.367 E6.95406
G1 X75.897 Y107.596 E6.98469
G1 X76.466 Y106.872 E7.01532
G1 X77.095 Y106.2 E7.04594
G1 X77.78 Y105.585 E7.07655
G1 X78.516 Y105.032 E7.10717
G1 X79.297 Y104.545 E7.13779
G1 X80.118 Y104.128 E7.16841
G1 X80.972 Y103.783 E7.19905
G1 X81.852 Y103.514 E7.22965
G1 X82.753 Y103.322 E7.26029
G1 X83.666 Y103.209 E7.29089
G1 X84.212 Y103.179 E7.30908
G1 X84.83 Y103.166 E7.32964
G1 X149.792 Y103.165 E9.49028
G1 X150.643 Y103.176 E9.51859
G1 X151.562 Y103.229 E9.54921
G1 X152.473 Y103.362 E9.57983
G1 X153.369 Y103.573 E9.61044
G1 X154.243 Y103.861 E9.64105
G1 X155.089 Y104.224 E9.67167
G1 X155.901 Y104.659 E9.70231
G1 X156.671 Y105.163 E9.73292
G1 X157.395 Y105.732 E9.76354
G1 X158.067 Y106.361 E9.79416
G1 X158.682 Y107.047 E9.8248
G1 X159.235 Y107.783 E9.85542
G1 X159.722 Y108.564 E9.88603
G1 X160.139 Y109.385 E9.91666
G1 X160.484 Y110.239 E9.9473
G1 X160.753 Y111.119 E9.9779
G1 X160.945 Y112.019 E10.00851
G1 X161.058 Y112.933 E10.03914
G1 X161.095 Y113.742 E10.06608
G1 X161.09 Y114.835 E10.10243
G1 X161.039 Y115.754 E10.13304
G1 X160.908 Y116.666 E10.16369
G1 X160.699 Y117.562 E10.19429
G1 X160.413 Y118.437 E10.22491
G1 X160.051 Y119.284 E10.25554
G1 X159.618 Y120.096 E10.28615
G1 X159.116 Y120.868 E10.31678
G1 X158.549 Y121.593 E10.34739
G1 X157.921 Y122.266 E10.37801
G1 X157.237 Y122.883 E10.40864
G1 X156.502 Y123.437 E10.43926
G1 X155.721 Y123.926 E10.4699
G1 X154.902 Y124.345 E10.5005
G1 X154.049 Y124.691 E10.53112
G1 X153.169 Y124.962 E10.56174
G1 X152.269 Y125.156 E10.59237
G1 X151.355 Y125.271 E10.623
G1 X150.501 Y125.31 E10.65144
G1 X85.208 Y125.316 E12.82309
G1 X84.357 Y125.305 E12.8514
G1 X83.438 Y125.252 E12.88202
G1 X82.527 Y125.119 E12.91264
G1 X81.631 Y124.908 E12.94325
G1 X80.757 Y124.62 E12.97386
G1 X79.911 Y124.257 E13.00448
G1 X79.099 Y123.822 E13.03512
G1 X78.329 Y123.318 E13.06573
G1 X77.605 Y122.749 E13.09635
G1 X76.933 Y122.12 E13.12697
G1 X76.318 Y121.434 E13.15761
G1 X75.765 Y120.698 E13.18823
G1 X75.278 Y119.917 E13.21884
G1 X74.861 Y119.096 E13.24947
G1 X74.516 Y118.242 E13.2801
G1 X74.247 Y117.362 E13.31071
G1 X74.055 Y116.462 E13.34132
G1 X73.942 Y115.548 E13.37195
G1 X73.905 Y114.7 E13.40018
G1 X73.902 Y114.262 E13.41475
G0 F6000 X74.302 Y114.268
G1 F900 X74.311 Y113.631 E13.43594
G1 X74.364 Y112.729 E13.46599
G1 X74.496 Y111.836 E13.49601
G1 X74.707 Y110.958 E13.52605
G1 X74.994 Y110.102 E13.55608
G1 X75.357 Y109.274 E13.58615
G1 X75.791 Y108.482 E13.61618
G1 X76.293 Y107.732 E13.6462
G1 X76.86 Y107.029 E13.67624
G1 X77.486 Y106.379 E13.70625
G1 X78.168 Y105.786 E13.73631
G1 X78.9 Y105.257 E13.76635
G1 X79.675 Y104.794 E13.79638
G1 X80.488 Y104.401 E13.82641
G1 X81.333 Y104.082 E13.85645
G1 X82.203 Y103.839 E13.8865
G1 X83.091 Y103.674 E13.91654
G1 X84.223 Y103.579 E13.95432
G1 X84.83 Y103.566 E13.97451
G1 X149.792 Y103.565 E16.13516
G1 X150.637 Y103.576 E16.16327
G1 X151.538 Y103.629 E16.19329
G1 X152.432 Y103.761 E16.22334
G1 X153.31 Y103.972 E16.25338
G1 X154.166 Y104.26 E16.28341
G1 X154.993 Y104.622 E16.31344
G1 X155.785 Y105.056 E16.34348
G1 X156.536 Y105.559 E16.37354
G1 X157.239 Y106.126 E16.40358
G1 X157.889 Y106.753 E16.43362
G1 X158.481 Y107.435 E16.46366
G1 X159.01 Y108.166 E16.49367
G1 X159.473 Y108.942 E16.52372
G1 X159.865 Y109.755 E16.55374
G1 X160.184 Y110.6 E16.58378
G1 X160.427 Y111.47 E16.61383
G1 X160.592 Y112.358 E16.64387
G1 X160.687 Y113.478 E16.68125
G1 X160.698 Y114.174 E16.7044
G1 X160.69 Y114.83 E16.72622
G1 X160.639 Y115.732 E16.75627
G1 X160.509 Y116.626 E16.78632
G1 X160.3 Y117.504 E16.81634
G1 X160.014 Y118.361 E16.84639
G1 X159.653 Y119.189 E16.87643
G1 X159.221 Y119.982 E16.90647
G1 X158.72 Y120.733 E16.93649
G1 X158.154 Y121.437 E16.96654
G1 X157.529 Y122.089 E16.99658
G1 X156.848 Y122.682 E17.02661
G1 X156.118 Y123.214 E17.05665
G1 X155.343 Y123.678 E17.0867
G1 X154.531 Y124.072 E17.11672
G1 X153.686 Y124.393 E17.14678
G1 X152.817 Y124.637 E17.1768
G1 X151.93 Y124.804 E17.20682
G1 X150.793 Y124.902 E17.24478
G1 X150.187 Y124.915 E17.26494
G1 X85.062 Y124.915 E19.43101
G1 X84.363 Y124.905 E19.45426
G1 X83.462 Y124.852 E19.48428
G1 X82.568 Y124.72 E19.51433
G1 X81.69 Y124.509 E19.54437
G1 X80.834 Y124.221 E19.57441
G1 X80.007 Y123.859 E19.60443
G1 X79.215 Y123.425 E19.63447
G1 X78.464 Y122.922 E19.66453
G1 X77.761 Y122.355 E19.69457
G1 X77.111 Y121.728 E19.72461
G1 X76.519 Y121.046 E19.75465
G1 X75.99 Y120.315 E19.78466
G1 X75.527 Y119.539 E19.81471
G1 X75.135 Y118.726 E19.84473
G1 X74.816 Y117.881 E19.87477
G1 X74.573 Y117.011 E19.90482
G1 X74.408 Y116.123 E19.93486
G1 X74.313 Y114.983 E19.97291
G1 X74.302 Y114.268 E19.99669
G1 F2700 E14.99669
;MESH:LE_Start.stl
G0 F6000 X83.847 Y113.113
G0 X150.262 Y113.101
G0 X150.263 Y114.24
;TYPE:WALL-OUTER
G1 F2700 E19.99669
G1 F757.9 X150.263 Y114.002 E20.00609
G1 X84.737 Y114.003 E22.59413
G1 X84.737 Y114.479 E22.61293
G1 X150.263 Y114.478 E25.20097
G1 X150.263 Y114.24 E25.21037
G1 F2700 E20.21037
;MESH:NONMESH
G0 F300 X150.263 Y114.24 Z0.4
G0 F6000 X150.3 Y114.306
;TIME_ELAPSED:56.986212
;LAYER:1
M140 S60
M106 S85
;TYPE:WALL-OUTER
;MESH:LE_Start.stl
G1 F2700 E25.21037
G1 F1200 X150.3 Y113.648 E25.23226
G1 X84.7 Y113.649 E27.41412
G1 X84.7 Y114.965 E27.45789
G1 X150.3 Y114.964 E29.63976
G1 X150.3 Y114.306 E29.66164
G0 F7500 X149.871 Y114.535
;TYPE:WALL-INNER
G1 F1048 X149.871 Y114.306 E29.67037
G1 X149.871 Y114.077 E29.67909
G1 X85.129 Y114.078 E32.14465
G1 X85.129 Y114.536 E32.16209
G1 X149.871 Y114.535 E34.62765
G1 F2700 E29.62765
;MESH:NONMESH
G0 F300 X149.871 Y114.535 Z0.6
G0 F7500 X150.3 Y114.375
;TIME_ELAPSED:71.834989
;LAYER:2
M106 S170
;TYPE:WALL-OUTER
;MESH:LE_Start.stl
G1 F2700 E34.62765
G1 F1500 X150.3 Y113.438 E34.65881
G1 X84.7 Y113.438 E36.84068
G1 X84.7 Y115.313 E36.90304
G1 X150.3 Y115.312 E39.08491
G1 X150.3 Y114.375 E39.11607
G0 F9000 X149.9 Y114.912
;TYPE:WALL-INNER
G1 F1500 X149.9 Y114.375 E39.13393
G1 X149.9 Y113.838 E39.15179
G1 X85.1 Y113.838 E41.30705
G1 X85.1 Y114.913 E41.3428
G1 X149.9 Y114.912 E43.49806
G0 F9000 X149.552 Y114.564
;TYPE:SKIN
G1 F1591.5 X149.552 Y114.375 E43.50398
G1 X149.552 Y114.186 E43.50991
G1 X142.429 Y114.186 E43.7332
G1 X135.306 Y114.186 E43.95649
G1 X128.183 Y114.186 E44.17978
G1 X121.06 Y114.186 E44.40307
G1 X113.937 Y114.186 E44.62636
G1 X106.814 Y114.186 E44.84965
G1 X99.691 Y114.186 E45.07294
G1 X92.568 Y114.186 E45.29623
G1 X85.445 Y114.187 E45.51951
G1 F1587.3 X85.449 Y114.564 E45.53137
G1 F1591.5 X92.572 Y114.564 E45.75465
G1 X99.695 Y114.564 E45.97794
G1 X106.818 Y114.564 E46.20123
G1 X113.941 Y114.564 E46.42452
G1 X121.064 Y114.564 E46.64781
G1 X128.187 Y114.564 E46.8711
G1 X135.31 Y114.564 E47.09439
G1 X142.433 Y114.564 E47.31768
G1 X149.556 Y114.564 E47.54097
G1 F2700 E42.54097
;MESH:NONMESH
G0 F300 X149.556 Y114.564 Z0.8
G0 F9000 X150.3 Y114.447
;TIME_ELAPSED:88.327497
;LAYER:3
M106 S255
;TYPE:WALL-OUTER
;MESH:LE_Start.stl
G1 F2700 E47.54097
G1 F1500 X150.3 Y113.267 E47.58022
G1 X84.7 Y113.267 E49.76208
G1 X84.7 Y115.628 E49.84061
G1 X150.3 Y115.627 E52.02247
G1 X150.3 Y114.447 E52.06172
G0 F9000 X149.9 Y115.227
;TYPE:WALL-INNER
G1 F1500 X149.9 Y114.447 E52.08766
G1 X149.9 Y113.667 E52.11361
G1 X85.1 Y113.667 E54.26886
G1 X85.1 Y115.228 E54.32078
G1 X149.9 Y115.227 E56.47604
G0 F9000 X149.54 Y114.867
;TYPE:SKIN
G1 F1500 X149.54 Y114.447 E56.49001
G1 X149.54 Y114.027 E56.50398
G1 X85.46 Y114.027 E58.63529
G1 X85.46 Y114.868 E58.66326
G1 X149.54 Y114.867 E60.79457
G0 F9000 X148.942 Y114.667
G1 F1500 X149.339 Y114.269 E60.81327
G0 F9000 X148.816 Y114.226
G1 F1500 X148.376 Y114.667 E60.83399
G0 F9000 X148.251 Y114.226
G1 F1500 X147.81 Y114.667 E60.85473
G0 F9000 X147.685 Y114.226
G1 F1500 X147.245 Y114.667 E60.87545
G0 F9000 X147.119 Y114.226
G1 F1500 X146.679 Y114.667 E60.89617
G0 F9000 X146.554 Y114.226
G1 F1500 X146.113 Y114.667 E60.91691
G0 F9000 X145.988 Y114.226
G1 F1500 X145.548 Y114.667 E60.93763
G0 F9000 X145.422 Y114.226
G1 F1500 X144.982 Y114.667 E60.95835
G0 F9000 X144.857 Y114.226
G1 F1500 X144.416 Y114.667 E60.97909
G0 F9000 X144.291 Y114.226
G1 F1500 X143.85 Y114.667 E60.99984
G0 F9000 X143.725 Y114.226
G1 F1500 X143.285 Y114.667 E61.02056
G0 F9000 X143.16 Y114.226
G1 F1500 X142.719 Y114.667 E61.0413
G0 F9000 X142.594 Y114.226
G1 F1500 X142.153 Y114.667 E61.06204
G0 F9000 X142.028 Y114.226
G1 F1500 X141.588 Y114.667 E61.08276
G0 F9000 X141.463 Y114.226
G1 F1500 X141.022 Y114.667 E61.10351
G0 F9000 X140.897 Y114.226
G1 F1500 X140.456 Y114.667 E61.12425
G0 F9000 X140.331 Y114.226
G1 F1500 X139.891 Y114.667 E61.14497
G0 F9000 X139.766 Y114.226
G1 F1500 X139.325 Y114.667 E61.16571
G0 F9000 X139.2 Y114.226
G1 F1500 X138.759 Y114.667 E61.18646
G0 F9000 X138.634 Y114.226
G1 F1500 X138.194 Y114.667 E61.20718
G0 F9000 X138.068 Y114.226
G1 F1500 X137.628 Y114.667 E61.2279
G0 F9000 X137.503 Y114.226
G1 F1500 X137.062 Y114.667 E61.24864
G0 F9000 X136.937 Y114.226
G1 F1500 X136.497 Y114.667 E61.26936
G0 F9000 X136.371 Y114.226
G1 F1500 X135.931 Y114.667 E61.29008
G0 F9000 X135.806 Y114.226
G1 F1500 X135.365 Y114.667 E61.31082
G0 F9000 X135.24 Y114.226
G1 F1500 X134.8 Y114.667 E61.33154
G0 F9000 X134.674 Y114.226
G1 F1500 X134.234 Y114.667 E61.35226
G0 F9000 X134.109 Y114.226
G1 F1500 X133.668 Y114.667 E61.37301
G0 F9000 X133.543 Y114.226
G1 F1500 X133.102 Y114.667 E61.39375
G0 F9000 X132.977 Y114.226
G1 F1500 X132.537 Y114.667 E61.41447
G0 F9000 X132.412 Y114.226
G1 F1500 X131.971 Y114.667 E61.43521
G0 F9000 X131.846 Y114.226
G1 F1500 X131.405 Y114.667 E61.45596
G0 F9000 X131.28 Y114.226
G1 F1500 X130.84 Y114.667 E61.47668
G0 F9000 X130.715 Y114.226
G1 F1500 X130.274 Y114.667 E61.49742
G0 F9000 X130.149 Y114.226
G1 F1500 X129.708 Y114.667 E61.51816
G0 F9000 X129.583 Y114.226
G1 F1500 X129.143 Y114.667 E61.53888
G0 F9000 X129.017 Y114.226
G1 F1500 X128.577 Y114.667 E61.5596
G0 F9000 X128.452 Y114.226
G1 F1500 X128.011 Y114.667 E61.58034
G0 F9000 X127.886 Y114.226
G1 F1500 X127.446 Y114.667 E61.60106
G0 F9000 X127.32 Y114.226
G1 F1500 X126.88 Y114.667 E61.62178
G0 F9000 X126.755 Y114.226
G1 F1500 X126.314 Y114.667 E61.64253
G0 F9000 X126.189 Y114.226
G1 F1500 X125.749 Y114.667 E61.66325
G0 F9000 X125.623 Y114.226
G1 F1500 X125.183 Y114.667 E61.68397
G0 F9000 X125.058 Y114.226
G1 F1500 X124.617 Y114.667 E61.70471
G0 F9000 X124.492 Y114.226
G1 F1500 X124.051 Y114.667 E61.72545
G0 F9000 X123.926 Y114.226
G1 F1500 X123.486 Y114.667 E61.74617
G0 F9000 X123.361 Y114.226
G1 F1500 X122.92 Y114.667 E61.76692
G0 F9000 X122.795 Y114.226
G1 F1500 X122.354 Y114.667 E61.78766
G0 F9000 X122.229 Y114.226
G1 F1500 X121.789 Y114.667 E61.80838
G0 F9000 X121.664 Y114.226
G1 F1500 X121.223 Y114.667 E61.82912
G0 F9000 X121.098 Y114.226
G1 F1500 X120.657 Y114.667 E61.84987
G0 F9000 X120.532 Y114.226
G1 F1500 X120.092 Y114.667 E61.87059
G0 F9000 X119.967 Y114.226
G1 F1500 X119.526 Y114.667 E61.89133
G0 F9000 X119.401 Y114.226
G1 F1500 X118.96 Y114.667 E61.91207
G0 F9000 X118.835 Y114.226
G1 F1500 X118.395 Y114.667 E61.93279
G0 F9000 X118.269 Y114.226
G1 F1500 X117.829 Y114.667 E61.95351
G0 F9000 X117.704 Y114.226
G1 F1500 X117.263 Y114.667 E61.97426
G0 F9000 X117.139 Y114.226
G1 F1500 X116.698 Y114.667 E61.995
G0 F9000 X116.573 Y114.226
G1 F1500 X116.132 Y114.667 E62.01574
G0 F9000 X116.007 Y114.226
G1 F1500 X115.566 Y114.667 E62.03649
G0 F9000 X115.442 Y114.226
G1 F1500 X115.001 Y114.667 E62.05723
G0 F9000 X114.876 Y114.226
G1 F1500 X114.435 Y114.667 E62.07797
G0 F9000 X114.31 Y114.226
G1 F1500 X113.869 Y114.667 E62.09872
G0 F9000 X113.745 Y114.226
G1 F1500 X113.303 Y114.667 E62.11948
G0 F9000 X113.179 Y114.226
G1 F1500 X112.738 Y114.667 E62.14023
G0 F9000 X112.613 Y114.226
G1 F1500 X112.172 Y114.667 E62.16097
G0 F9000 X112.048 Y114.226
G1 F1500 X111.606 Y114.667 E62.18174
G0 F9000 X111.482 Y114.226
G1 F1500 X111.041 Y114.667 E62.20248
G0 F9000 X110.916 Y114.226
G1 F1500 X110.475 Y114.667 E62.22322
G0 F9000 X110.351 Y114.226
G1 F1500 X109.909 Y114.667 E62.24399
G0 F9000 X109.785 Y114.226
G1 F1500 X109.344 Y114.667 E62.26473
G0 F9000 X109.219 Y114.226
G1 F1500 X108.778 Y114.667 E62.28548
G0 F9000 X108.654 Y114.226
G1 F1500 X108.212 Y114.667 E62.30624
G0 F9000 X108.088 Y114.226
G1 F1500 X107.647 Y114.667 E62.32699
G0 F9000 X107.522 Y114.226
G1 F1500 X107.081 Y114.667 E62.34773
G0 F9000 X106.956 Y114.226
G1 F1500 X106.515 Y114.667 E62.36847
G0 F9000 X106.391 Y114.226
G1 F1500 X105.95 Y114.667 E62.38922
G0 F9000 X105.825 Y114.226
G1 F1500 X105.384 Y114.667 E62.40996
G0 F9000 X105.259 Y114.226
G1 F1500 X104.818 Y114.667 E62.4307
G0 F9000 X104.694 Y114.226
