;FLAVOR:Marlin
;TIME:2335
;Filament used: 1.45976m
;Layer height: 0.2
;MINX:50.233
;MINY:48.538
;MINZ:0.2
;MAXX:184.782
;MAXY:186.488
;MAXZ:2
;Generated with Cura_SteamEngine 5.0.0
M140 S70
M105
M190 S70
M104 S200
M105
M109 S200
M82 ;absolute extrusion mode
; Ender 3 Custom Start G-code
G28 ; Home all axes
M420 S1; Bed Leveling On
G92 E0 ; Reset Extruder
G1 Z2.0 F3000 ; Move Z Axis up little to prevent scratching of Heat Bed
G1 X0.1 Y20 Z0.3 F5000.0 ; Move to start position
G1 X0.1 Y200.0 Z0.3 F1500.0 E15 ; Draw the first line
G1 X0.4 Y200.0 Z0.3 F5000.0 ; Move to side a little
G1 X0.4 Y20 Z0.3 F1500.0 E30 ; Draw the second line
G92 E0 ; Reset Extruder
G1 Z2.0 F3000 ; Move Z Axis up little to prevent scratching of Heat Bed
G1 X5 Y20 Z0.3 F5000.0 ; Move over to prevent blob squish
G92 E0
G92 E0
G1 F2700 E-3
;LAYER_COUNT:10
;LAYER:0
M107
G0 F6000 X54.617 Y56.557 Z0.2
G0 X50.233 Y65.291
;TYPE:SKIRT
G1 F2700 E0
G1 F1200 X50.292 Y64.355 E0.03119
G1 X50.43 Y63.428 E0.06237
G1 X50.647 Y62.515 E0.09358
G1 X50.941 Y61.625 E0.12475
G1 X51.31 Y60.762 E0.15597
G1 X51.75 Y59.934 E0.18716
G1 X52.26 Y59.147 E0.21835
G1 X52.835 Y58.406 E0.24954
G1 X53.268 Y57.924 E0.27109
G1 X53.758 Y57.415 E0.29459
G1 X54.617 Y56.557 E0.33497
G1 X55.472 Y55.726 E0.37463
G1 X57.317 Y53.881 E0.46141
G1 X58.099 Y53.073 E0.49881
G1 X59.046 Y52.129 E0.54329
G1 X59.54 Y51.649 E0.5662
G1 X60.24 Y51.025 E0.59738
G1 X60.991 Y50.462 E0.6286
G1 X61.787 Y49.966 E0.6598
G1 X62.622 Y49.539 E0.69099
G1 X63.49 Y49.185 E0.72217
G1 X64.386 Y48.906 E0.75338
G1 X65.301 Y48.704 E0.78455
G1 X66.231 Y48.581 E0.81575
G1 X67.168 Y48.538 E0.84695
G1 X68.105 Y48.575 E0.87813
G1 X69.036 Y48.691 E0.90934
G1 X69.953 Y48.887 E0.94053
G1 X70.851 Y49.159 E0.97174
G1 X71.721 Y49.507 E1.0029
G1 X72.559 Y49.929 E1.03411
G1 X73.231 Y50.335 E1.06022
G1 X73.913 Y50.783 E1.08736
G1 X77.118 Y52.958 E1.21619
G1 X80.618 Y55.358 E1.35734
G1 X84.316 Y57.924 E1.50704
G1 X88.128 Y60.607 E1.66209
G1 X92.141 Y63.475 E1.82614
G1 X96.116 Y66.364 E1.98958
G1 X99.999 Y69.233 E2.15016
G1 X104.327 Y72.494 E2.3304
G1 X108.331 Y75.57 E2.49833
G1 X112.495 Y78.834 E2.6743
G1 X116.509 Y82.053 E2.84544
G1 X120.666 Y85.464 E3.02429
G1 X124.43 Y88.623 E3.18773
G1 X126.479 Y90.376 E3.27741
G1 X128.549 Y92.174 E3.36861
G1 X130.301 Y93.712 E3.44615
G1 X132.485 Y95.658 E3.54344
G1 X134.283 Y97.284 E3.62407
G1 X136.3 Y99.131 E3.71503
G1 X138.242 Y100.937 E3.80324
G1 X139.97 Y102.568 E3.88227
G1 X141.702 Y104.222 E3.96192
G1 X143.608 Y106.076 E4.05036
G1 X145.296 Y107.741 E4.12922
G1 X147.053 Y109.502 E4.21196
G1 X148.794 Y111.275 E4.29461
G1 X150.642 Y113.192 E4.38317
G1 X152.355 Y115.003 E4.46608
G1 X154.007 Y116.779 E4.54675
G1 X155.657 Y118.586 E4.62814
G1 X157.313 Y120.437 E4.71075
G1 X158.769 Y122.093 E4.78409
G1 X160.258 Y123.822 E4.85998
G1 X161.937 Y125.817 E4.94671
G1 X163.296 Y127.466 E5.01778
G1 X164.677 Y129.176 E5.09088
G1 X166.102 Y130.982 E5.1674
G1 X167.487 Y132.783 E5.24296
G1 X168.792 Y134.524 E5.31533
G1 X170.099 Y136.311 E5.38897
G1 X171.314 Y138.018 E5.45866
G1 X172.577 Y139.845 E5.53253
G1 X173.806 Y141.678 E5.60593
G1 X175.039 Y143.58 E5.68132
G1 X176.189 Y145.422 E5.75354
G1 X177.279 Y147.233 E5.82385
G1 X178.305 Y149.005 E5.89195
G1 X179.258 Y150.724 E5.95732
G1 X180.224 Y152.549 E6.026
G1 X181.099 Y154.287 E6.09072
G1 X181.61 Y155.357 E6.13016
G1 X181.978 Y156.219 E6.16133
G1 X182.271 Y157.11 E6.19253
G1 X182.487 Y158.023 E6.22373
G1 X182.629 Y159.001 E6.2566
G1 X182.777 Y160.539 E6.30799
G1 X183.059 Y163.058 E6.3923
G1 X183.408 Y165.53 E6.47533
G1 X183.832 Y168.023 E6.55944
G1 X184.152 Y169.673 E6.61534
G1 X184.483 Y171.322 E6.67128
G1 X184.559 Y171.764 E6.6862
G1 X184.653 Y172.437 E6.7088
G1 X184.714 Y172.997 E6.72754
G1 X184.778 Y174.034 E6.76209
G1 X184.782 Y174.32 E6.77161
G1 X184.759 Y175.194 E6.80069
G1 X184.743 Y175.438 E6.80882
G1 X184.642 Y176.37 E6.84
G1 X184.493 Y177.173 E6.86716
G1 X184.269 Y178.084 E6.89837
G1 X183.968 Y178.972 E6.92955
G1 X183.632 Y179.757 E6.95795
G1 X183.209 Y180.594 E6.98914
G1 X182.717 Y181.392 E7.02032
G1 X182.158 Y182.145 E7.05152
G1 X181.637 Y182.746 E7.07797
G1 X180.979 Y183.415 E7.10918
G1 X180.267 Y184.025 E7.14036
G1 X179.506 Y184.573 E7.17156
G1 X178.474 Y185.172 E7.21124
G1 X178.288 Y185.267 E7.21819
G1 X177.436 Y185.658 E7.24937
G1 X176.553 Y185.974 E7.28056
G1 X175.646 Y186.215 E7.31177
G1 X174.723 Y186.377 E7.34294
G1 X173.986 Y186.449 E7.36757
G1 X173.673 Y186.469 E7.378
G1 X172.736 Y186.488 E7.40918
G1 X171.8 Y186.428 E7.44037
G1 X170.642 Y186.241 E7.47939
G1 X170.356 Y186.179 E7.48912
G1 X169.448 Y185.942 E7.52033
G1 X168.898 Y185.756 E7.53964
G1 X168.609 Y185.65 E7.54988
G1 X167.554 Y185.2 E7.58803
G1 X167.244 Y185.048 E7.59951
G1 X166.617 Y184.714 E7.62314
G1 X163.611 Y182.991 E7.73838
G1 X161.409 Y181.816 E7.82139
G1 X159.158 Y180.696 E7.90502
G1 X158.164 Y180.237 E7.94143
G1 X157.199 Y179.776 E7.977
G1 X156.371 Y179.336 E8.00819
G1 X155.583 Y178.827 E8.03939
G1 X154.626 Y178.066 E8.08006
G1 X153.937 Y177.45 E8.1108
G1 X152.821 Y176.42 E8.16131
G1 X150.355 Y174.102 E8.27387
G1 X146.918 Y170.798 E8.43244
G1 X145.415 Y169.33 E8.50232
G1 X142.605 Y166.56 E8.63356
G1 X139.67 Y163.631 E8.77147
G1 X136.773 Y160.713 E8.90823
G1 X132.146 Y155.994 E9.12804
G1 X131.786 Y155.614 E9.14545
G1 X129.772 Y153.55 E9.24137
G1 X126.571 Y150.231 E9.39473
G1 X120.648 Y144.034 E9.67985
G1 X107.069 Y129.763 E10.33504
G1 X69.596 Y90.302 E12.14502
G1 X69.338 Y90.022 E12.15768
G1 X67.776 Y88.388 E12.23286
G1 X53.657 Y73.523 E12.91475
G1 X53.163 Y72.99 E12.93892
G1 X52.556 Y72.276 E12.97009
G1 X52.011 Y71.512 E13.0013
G1 X51.534 Y70.705 E13.03248
G1 X51.126 Y69.86 E13.06369
G1 X50.793 Y68.984 E13.09486
G1 X50.535 Y68.082 E13.12607
G1 X50.355 Y67.162 E13.15725
G1 X50.254 Y66.229 E13.18846
G1 X50.233 Y65.291 E13.21966
G0 F6000 X50.637 Y65.147
G1 F1200 X50.709 Y64.23 E13.25026
G1 X50.86 Y63.321 E13.28091
G1 X51.089 Y62.43 E13.3115
G1 X51.395 Y61.561 E13.34215
G1 X51.775 Y60.723 E13.37275
G1 X52.226 Y59.92 E13.40338
G1 X52.746 Y59.16 E13.43401
G1 X53.558 Y58.2 E13.47583
G1 X54.041 Y57.698 E13.499
G1 X54.896 Y56.844 E13.53919
G1 X55.751 Y56.013 E13.57885
G1 X57.605 Y54.159 E13.66606
G1 X58.382 Y53.356 E13.70322
G1 X59.325 Y52.416 E13.7475
G1 X59.819 Y51.936 E13.77041
G1 X60.507 Y51.323 E13.80106
G1 X61.245 Y50.773 E13.83168
G1 X62.028 Y50.289 E13.86229
G1 X62.85 Y49.874 E13.89292
G1 X63.705 Y49.533 E13.92353
G1 X64.586 Y49.267 E13.95414
G1 X65.487 Y49.078 E13.98476
G1 X66.401 Y48.969 E14.01538
G1 X67.322 Y48.939 E14.04603
G1 X68.241 Y48.989 E14.07664
G1 X69.152 Y49.118 E14.10724
G1 X70.049 Y49.326 E14.13787
G1 X70.925 Y49.612 E14.16852
G1 X71.772 Y49.972 E14.19913
G1 X72.585 Y50.404 E14.22975
G1 X73.012 Y50.67 E14.24648
G1 X73.689 Y51.114 E14.27341
G1 X76.891 Y53.288 E14.40213
G1 X80.39 Y55.687 E14.54324
G1 X84.086 Y58.251 E14.69285
G1 X87.895 Y60.932 E14.84777
G1 X91.906 Y63.799 E15.01175
G1 X95.878 Y66.685 E15.17505
G1 X99.758 Y69.553 E15.33553
G1 X104.084 Y72.811 E15.51566
G1 X108.085 Y75.885 E15.68347
G1 X112.245 Y79.146 E15.85928
G1 X116.255 Y82.362 E16.03024
G1 X120.409 Y85.77 E16.20895
G1 X124.17 Y88.927 E16.37227
G1 X126.217 Y90.679 E16.46189
G1 X128.285 Y92.474 E16.55297
G1 X130.035 Y94.011 E16.63044
G1 X132.216 Y95.955 E16.72761
G1 X134.013 Y97.579 E16.80817
G1 X136.027 Y99.424 E16.89901
G1 X137.967 Y101.228 E16.98713
G1 X139.694 Y102.857 E17.06609
G1 X141.423 Y104.509 E17.14562
G1 X143.327 Y106.36 E17.23394
G1 X145.013 Y108.023 E17.31271
G1 X146.768 Y109.783 E17.39538
G1 X148.506 Y111.552 E17.47786
G1 X150.351 Y113.467 E17.5663
G1 X152.062 Y115.276 E17.64912
G1 X153.712 Y117.049 E17.72968
G1 X155.359 Y118.853 E17.81092
G1 X157.013 Y120.701 E17.89341
G1 X158.466 Y122.354 E17.96661
G1 X159.952 Y124.079 E18.04234
G1 X161.628 Y126.071 E18.12892
G1 X162.985 Y127.717 E18.19987
G1 X164.364 Y129.424 E18.27286
G1 X165.785 Y131.226 E18.34919
G1 X167.167 Y133.024 E18.42462
G1 X168.47 Y134.76 E18.49681
G1 X169.773 Y136.543 E18.57026
G1 X170.986 Y138.245 E18.63977
G1 X172.245 Y140.068 E18.71346
G1 X173.471 Y141.896 E18.78667
G1 X174.7 Y143.792 E18.86182
G1 X175.846 Y145.628 E18.93381
G1 X176.933 Y147.434 E19.00391
G1 X177.955 Y149.199 E19.07175
G1 X178.904 Y150.911 E19.13685
G1 X179.867 Y152.729 E19.20528
G1 X180.738 Y154.459 E19.2697
G1 X181.249 Y155.529 E19.30914
G1 X181.609 Y156.376 E19.33975
G1 X181.895 Y157.251 E19.37037
G1 X182.103 Y158.148 E19.40099
G1 X182.231 Y159.041 E19.431
G1 X182.353 Y160.273 E19.47218
G1 X182.378 Y160.58 E19.48242
G1 X182.66 Y163.091 E19.56646
G1 X183.011 Y165.582 E19.65013
G1 X183.443 Y168.121 E19.73579
G1 X183.76 Y169.753 E19.79109
G1 X184.089 Y171.39 E19.84662
G1 X184.165 Y171.832 E19.86154
G1 X184.256 Y172.48 E19.8833
G1 X184.317 Y173.04 E19.90204
G1 X184.378 Y174.04 E19.93536
G1 X184.382 Y174.326 E19.94487
G1 X184.36 Y175.168 E19.97289
G1 X184.344 Y175.412 E19.98102
G1 X184.244 Y176.327 E20.01164
G1 X184.101 Y177.094 E20.03759
G1 X183.881 Y177.988 E20.06821
G1 X183.583 Y178.859 E20.09883
G1 X183.267 Y179.592 E20.12537
G1 X182.852 Y180.413 E20.15597
G1 X182.366 Y181.196 E20.18662
G1 X181.815 Y181.933 E20.21723
G1 X181.34 Y182.478 E20.24127
G1 X180.694 Y183.134 E20.2719
G1 X179.993 Y183.732 E20.30254
G1 X179.244 Y184.266 E20.33314
G1 X178.292 Y184.816 E20.36971
G1 X178.106 Y184.911 E20.37665
G1 X177.269 Y185.294 E20.40727
G1 X176.402 Y185.602 E20.43787
G1 X175.511 Y185.835 E20.4685
G1 X174.603 Y185.989 E20.49913
G1 X173.961 Y186.049 E20.52058
G1 X173.648 Y186.069 E20.53101
G1 X172.727 Y186.088 E20.56165
G1 X171.809 Y186.027 E20.59225
G1 X170.726 Y185.85 E20.62875
G1 X170.44 Y185.788 E20.63848
G1 X169.55 Y185.554 E20.66909
G1 X169.036 Y185.381 E20.68713
G1 X168.747 Y185.275 E20.69736
G1 X167.73 Y184.84 E20.73415
G1 X167.42 Y184.688 E20.74564
G1 X166.816 Y184.367 E20.76839
G1 X163.807 Y182.642 E20.88375
G1 X161.596 Y181.463 E20.96709
G1 X159.338 Y180.339 E21.05098
G1 X158.337 Y179.876 E21.08766
G1 X157.372 Y179.415 E21.12323
G1 X156.559 Y178.982 E21.15387
G1 X155.787 Y178.481 E21.18448
G1 X154.892 Y177.767 E21.22256
G1 X154.208 Y177.156 E21.25306
G1 X153.095 Y176.128 E21.30346
G1 X150.632 Y173.813 E21.41588
G1 X147.198 Y170.511 E21.57433
G1 X145.696 Y169.045 E21.64414
G1 X142.888 Y166.276 E21.7753
G1 X139.953 Y163.349 E21.91317
G1 X137.058 Y160.433 E22.04984
G1 X132.436 Y155.719 E22.26942
G1 X132.079 Y155.343 E22.28666
G1 X130.06 Y153.272 E22.38286
G1 X126.86 Y149.954 E22.53618
G1 X120.938 Y143.758 E22.82125
G1 X107.359 Y129.487 E23.47644
G1 X69.89 Y90.031 E25.2862
G1 X69.638 Y89.758 E25.29856
G1 X68.066 Y88.112 E25.37426
G1 X53.951 Y73.252 E26.05593
G1 X53.457 Y72.719 E26.0801
G1 X52.861 Y72.017 E26.11073
G1 X52.328 Y71.266 E26.14136
G1 X51.862 Y70.472 E26.17198
G1 X51.467 Y69.64 E26.20262
G1 X51.146 Y68.777 E26.23324
G1 X50.901 Y67.89 E26.26385
G1 X50.734 Y66.985 E26.29446
G1 X50.646 Y66.068 E26.3251
G1 X50.637 Y65.147 E26.35573
G0 F6000 X51.039 Y65.91
G1 F1200 X51.044 Y65.007 E26.38576
G1 X51.128 Y64.107 E26.41583
G1 X51.292 Y63.219 E26.44586
G1 X51.534 Y62.349 E26.4759
G1 X51.852 Y61.504 E26.50593
G1 X52.243 Y60.69 E26.53596
G1 X52.705 Y59.914 E26.566
G1 X53.234 Y59.182 E26.59604
G1 X53.848 Y58.476 E26.62716
G1 X54.324 Y57.981 E26.65
G1 X55.175 Y57.131 E26.69
G1 X56.03 Y56.3 E26.72966
G1 X57.865 Y54.465 E26.81597
G1 X58.665 Y53.639 E26.85422
G1 X59.604 Y52.703 E26.89832
G1 X60.098 Y52.223 E26.92122
G1 X60.773 Y51.623 E26.95126
G1 X61.498 Y51.085 E26.98129
G1 X62.268 Y50.613 E27.01133
G1 X63.077 Y50.211 E27.04138
G1 X63.918 Y49.882 E27.07141
G1 X64.785 Y49.629 E27.10145
G1 X65.671 Y49.454 E27.13149
G1 X66.569 Y49.358 E27.16153
G1 X67.472 Y49.341 E27.19157
G1 X68.373 Y49.405 E27.22161
G1 X69.265 Y49.548 E27.25166
G1 X70.14 Y49.769 E27.28167
G1 X70.993 Y50.067 E27.31172
G1 X71.816 Y50.439 E27.34176
G1 X72.793 Y51.004 E27.3793
G1 X73.464 Y51.445 E27.40601
G1 X76.665 Y53.618 E27.53469
G1 X80.162 Y56.015 E27.6757
G1 X83.856 Y58.578 E27.82524
G1 X87.663 Y61.257 E27.98007
G1 X91.671 Y64.123 E28.14395
G1 X95.64 Y67.007 E28.30713
G1 X99.518 Y69.872 E28.46749
G1 X103.84 Y73.129 E28.64749
G1 X107.838 Y76.2 E28.81517
G1 X111.995 Y79.458 E28.99083
G1 X116.001 Y82.671 E29.16164
G1 X120.152 Y86.077 E29.34023
G1 X123.91 Y89.231 E29.50341
G1 X125.955 Y90.981 E29.59293
G1 X128.021 Y92.775 E29.68393
G1 X129.769 Y94.31 E29.76131
G1 X131.948 Y96.252 E29.85839
G1 X133.743 Y97.874 E29.93885
G1 X135.755 Y99.717 E30.0296
G1 X137.693 Y101.519 E30.11762
G1 X139.418 Y103.147 E30.19651
G1 X141.144 Y104.796 E30.27591
G1 X143.046 Y106.645 E30.36413
G1 X144.73 Y108.306 E30.4428
G1 X146.482 Y110.063 E30.52533
G1 X148.218 Y111.83 E30.60772
G1 X150.061 Y113.742 E30.69605
G1 X151.77 Y115.548 E30.77874
G1 X153.416 Y117.319 E30.85916
G1 X155.061 Y119.12 E30.94029
G1 X156.712 Y120.965 E31.02264
G1 X158.163 Y122.615 E31.09572
G1 X159.646 Y124.337 E31.1713
G1 X161.32 Y126.326 E31.25777
G1 X162.674 Y127.969 E31.32858
G1 X164.05 Y129.672 E31.4014
G1 X165.468 Y131.47 E31.47756
G1 X166.847 Y133.264 E31.55282
G1 X168.147 Y134.997 E31.62488
G1 X169.448 Y136.775 E31.69815
G1 X170.657 Y138.473 E31.76748
G1 X171.913 Y140.291 E31.84098
G1 X173.135 Y142.114 E31.91397
G1 X174.36 Y144.004 E31.98888
G1 X175.504 Y145.835 E32.06069
G1 X176.587 Y147.634 E32.13053
G1 X177.605 Y149.393 E32.19813
G1 X178.551 Y151.099 E32.26301
G1 X179.51 Y152.91 E32.33117
G1 X180.377 Y154.631 E32.39526
G1 X180.888 Y155.701 E32.4347
G1 X181.241 Y156.533 E32.46476
G1 X181.519 Y157.392 E32.49479
G1 X181.72 Y158.273 E32.52484
G1 X181.833 Y159.081 E32.55198
G1 X181.954 Y160.306 E32.59292
G1 X181.977 Y160.59 E32.6024
G1 X182.265 Y163.155 E32.68825
G1 X182.615 Y165.634 E32.77152
G1 X183.047 Y168.177 E32.85731
G1 X183.383 Y169.908 E32.91596
G1 X183.694 Y171.458 E32.96854
G1 X183.77 Y171.9 E32.98345
G1 X183.858 Y172.523 E33.00438
G1 X183.919 Y173.083 E33.02312
G1 X183.978 Y174.045 E33.05517
G1 X183.982 Y174.331 E33.06469
G1 X183.961 Y175.141 E33.09164
G1 X183.945 Y175.385 E33.09977
G1 X183.846 Y176.283 E33.12982
G1 X183.709 Y177.015 E33.15459
G1 X183.492 Y177.892 E33.18464
G1 X183.198 Y178.745 E33.21464
G1 X182.903 Y179.427 E33.23936
G1 X182.495 Y180.232 E33.26938
G1 X182.017 Y180.999 E33.29944
G1 X181.182 Y182.056 E33.34424
G1 X181.043 Y182.21 E33.35114
G1 X180.409 Y182.853 E33.38117
G1 X179.72 Y183.438 E33.41123
G1 X178.982 Y183.959 E33.44128
G1 X178.111 Y184.46 E33.4747
G1 X177.925 Y184.555 E33.48165
G1 X177.103 Y184.93 E33.5117
G1 X176.251 Y185.23 E33.54174
G1 X175.376 Y185.454 E33.57178
G1 X174.485 Y185.6 E33.60181
G1 X173.935 Y185.65 E33.62018
G1 X173.622 Y185.67 E33.63061
G1 X172.719 Y185.688 E33.66065
G1 X171.819 Y185.626 E33.69066
G1 X170.811 Y185.459 E33.72464
G1 X170.525 Y185.397 E33.73437
G1 X169.652 Y185.167 E33.7644
G1 X168.885 Y184.899 E33.79142
G1 X167.906 Y184.481 E33.82683
G1 X167.596 Y184.329 E33.83831
G1 X167.015 Y184.02 E33.8602
G1 X164.028 Y182.308 E33.97471
G1 X161.756 Y181.096 E34.06035
G1 X159.505 Y179.975 E34.14399
G1 X158.509 Y179.515 E34.18048
G1 X157.544 Y179.054 E34.21605
G1 X156.747 Y178.629 E34.24609
G1 X155.991 Y178.135 E34.27613
G1 X155.158 Y177.468 E34.31162
G1 X154.479 Y176.862 E34.34189
G1 X153.369 Y175.837 E34.39215
G1 X150.91 Y173.525 E34.50441
G1 X147.477 Y170.225 E34.66279
G1 X145.977 Y168.761 E34.7325
G1 X143.17 Y165.993 E34.86362
G1 X140.237 Y163.067 E35.00141
G1 X137.344 Y160.153 E35.13799
G1 X132.726 Y155.443 E35.35738
G1 X132.372 Y155.07 E35.37448
G1 X130.348 Y152.995 E35.47089
G1 X127.149 Y149.678 E35.62416
G1 X121.228 Y143.482 E35.90921
G1 X107.649 Y129.212 E36.56438
G1 X70.184 Y89.76 E38.37395
G1 X69.912 Y89.465 E38.3873
G1 X68.356 Y87.837 E38.4622
G1 X54.244 Y72.98 E39.14373
G1 X53.75 Y72.447 E39.1679
G1 X53.166 Y71.758 E39.19794
G1 X52.645 Y71.02 E39.22799
G1 X52.192 Y70.239 E39.25802
G1 X51.809 Y69.421 E39.28806
G1 X51.501 Y68.572 E39.3181
G1 X51.268 Y67.699 E39.34815
G1 X51.114 Y66.81 E39.37816
G1 X51.039 Y65.91 E39.4082
G1 F2700 E36.4082
;MESH:L_Rib_2.stl
G0 F6000 X75.012 Y73.653
;TYPE:WALL-OUTER
G1 F2700 E39.4082
G1 F1200 X74.764 Y73.453 E39.41879
G1 X74.555 Y73.212 E39.4294
G1 X74.393 Y72.944 E39.43982
G1 X74.277 Y72.644 E39.45052
