;FLAVOR:Marlin
;TIME:24131
;Filament used: 14.4939m
;Layer height: 0.2
;MINX:17.385
;MINY:17.676
;MINZ:0.2
;MAXX:217.325
;MAXY:217.616
;MAXZ:58.4
;Generated with Cura_SteamEngine 5.0.0
M140 S70
M105
M190 S70
M104 S200
M105
M109 S200
M82 ;absolute extrusion mode
; Ender 3 Custom Start G-code
G28 ; Home all axes
M420 S1; Bed Leveling On
G92 E0 ; Reset Extruder
G1 Z2.0 F3000 ; Move Z Axis up little to prevent scratching of Heat Bed
G1 X0.1 Y20 Z0.3 F5000.0 ; Move to start position
G1 X0.1 Y200.0 Z0.3 F1500.0 E15 ; Draw the first line
G1 X0.4 Y200.0 Z0.3 F5000.0 ; Move to side a little
G1 X0.4 Y20 Z0.3 F1500.0 E30 ; Draw the second line
G92 E0 ; Reset Extruder
G1 Z2.0 F3000 ; Move Z Axis up little to prevent scratching of Heat Bed
G1 X5 Y20 Z0.3 F5000.0 ; Move over to prevent blob squish
G92 E0
G92 E0
G1 F2700 E-5
;LAYER_COUNT:297
;LAYER:0
M107
G0 F6000 X20.868 Y21.799 Z0.2
G0 X17.385 Y29.85
;TYPE:SKIRT
G1 F2700 E0
G1 F900 X17.425 Y28.913 E0.03119
G1 X17.545 Y27.983 E0.06238
G1 X17.743 Y27.066 E0.09358
G1 X18.019 Y26.17 E0.12477
G1 X18.371 Y25.3 E0.15598
G1 X18.795 Y24.464 E0.18716
G1 X19.288 Y23.666 E0.21836
G1 X19.848 Y22.914 E0.24954
G1 X20.375 Y22.312 E0.27615
G1 X20.868 Y21.799 E0.29982
G1 X21.836 Y20.844 E0.34504
G1 X22.531 Y20.215 E0.37622
G1 X23.277 Y19.647 E0.40741
G1 X24.069 Y19.144 E0.43861
G1 X24.901 Y18.711 E0.46981
G1 X25.766 Y18.35 E0.50098
G1 X26.66 Y18.065 E0.53219
G1 X27.574 Y17.856 E0.56338
G1 X28.503 Y17.726 E0.59458
G1 X29.439 Y17.676 E0.62575
G1 X30.377 Y17.705 E0.65697
G1 X31.308 Y17.815 E0.68815
G1 X32.227 Y18.003 E0.71934
G1 X33.126 Y18.269 E0.75053
G1 X34 Y18.61 E0.78173
G1 X34.841 Y19.025 E0.81292
G1 X35.644 Y19.51 E0.84412
G1 X36.403 Y20.061 E0.87532
G1 X37.109 Y20.673 E0.9064
G1 X37.568 Y21.113 E0.92754
G1 X58.435 Y41.98 E1.90906
G1 X60.307 Y43.799 E1.99588
G1 X62.165 Y45.506 E2.0798
G1 X64.092 Y47.176 E2.16461
G1 X66.026 Y48.763 E2.24782
G1 X67.994 Y50.284 E2.33054
G1 X70.062 Y51.791 E2.41565
G1 X72.099 Y53.188 E2.49781
G1 X74.253 Y54.58 E2.58311
G1 X76.361 Y55.858 E2.6651
G1 X78.585 Y57.122 E2.75018
G1 X79.513 Y57.615 E2.78513
G1 X80.372 Y58.087 E2.81773
G1 X81.174 Y58.574 E2.84894
G1 X81.932 Y59.127 E2.88014
G1 X82.653 Y59.754 E2.91192
G1 X83.135 Y60.218 E2.93418
G1 X84.184 Y61.269 E2.98357
G1 X84.655 Y61.754 E3.00605
G1 X85.279 Y62.454 E3.03724
G1 X85.842 Y63.204 E3.06843
G1 X86.474 Y64.248 E3.10902
G1 X86.748 Y64.763 E3.12843
G1 X87.983 Y67.007 E3.21362
G1 X89.257 Y69.177 E3.29731
G1 X90.598 Y71.321 E3.38142
G1 X91.989 Y73.41 E3.4649
G1 X93.455 Y75.481 E3.54929
G1 X94.959 Y77.485 E3.63262
G1 X96.531 Y79.46 E3.71658
G1 X98.153 Y81.383 E3.80025
G1 X99.786 Y83.212 E3.88181
G1 X102.527 Y86.073 E4.01359
G1 X103.68 Y87.225 E4.0678
G1 X105.575 Y89.067 E4.15569
G1 X107.391 Y90.736 E4.23773
G1 X109.329 Y92.416 E4.32303
G1 X111.262 Y94.001 E4.40618
G1 X113.258 Y95.544 E4.49009
G1 X115.286 Y97.021 E4.57353
G1 X117.389 Y98.464 E4.65836
G1 X119.483 Y99.817 E4.74128
G1 X121.625 Y101.115 E4.82458
G1 X123.824 Y102.364 E4.9087
G1 X124.832 Y102.902 E4.9467
G1 X125.674 Y103.369 E4.97872
G1 X126.474 Y103.858 E5.00991
G1 X127.23 Y104.414 E5.04112
G1 X127.874 Y104.974 E5.06951
G1 X128.351 Y105.43 E5.09146
G1 X129.448 Y106.529 E5.1431
G1 X129.922 Y107.018 E5.16575
G1 X130.546 Y107.719 E5.19697
G1 X131.107 Y108.47 E5.22815
G1 X131.733 Y109.504 E5.26835
G1 X132.004 Y110.013 E5.28753
G1 X133.249 Y112.276 E5.37343
G1 X134.53 Y114.459 E5.45762
G1 X135.862 Y116.586 E5.54109
G1 X137.256 Y118.68 E5.62476
G1 X138.724 Y120.753 E5.70924
G1 X140.211 Y122.734 E5.79163
G1 X141.796 Y124.726 E5.8763
G1 X143.412 Y126.641 E5.95964
G1 X145.069 Y128.495 E6.04234
G1 X147.788 Y131.334 E6.17309
G1 X148.945 Y132.49 E6.22749
G1 X150.851 Y134.342 E6.31588
G1 X152.661 Y136.004 E6.39761
G1 X154.607 Y137.691 E6.48327
G1 X156.541 Y139.278 E6.56648
G1 X158.509 Y140.799 E6.6492
G1 X160.577 Y142.306 E6.73431
G1 X162.614 Y143.703 E6.81646
G1 X164.768 Y145.095 E6.90176
G1 X166.876 Y146.373 E6.98375
G1 X169.125 Y147.651 E7.06979
G1 X170.768 Y148.532 E7.1318
G1 X171.575 Y149.01 E7.16299
G1 X172.338 Y149.555 E7.19418
G1 X173.223 Y150.325 E7.2332
G1 X173.917 Y151 E7.2654
G1 X174.666 Y151.75 E7.30065
G1 X175.166 Y152.265 E7.32452
G1 X175.79 Y152.965 E7.35571
G1 X176.352 Y153.716 E7.38691
G1 X176.985 Y154.761 E7.42755
G1 X177.253 Y155.264 E7.44651
G1 X178.502 Y157.534 E7.53268
G1 X179.786 Y159.72 E7.617
G1 X181.119 Y161.848 E7.70052
G1 X182.513 Y163.941 E7.78416
G1 X183.982 Y166.015 E7.86869
G1 X185.481 Y168.012 E7.95174
G1 X187.039 Y169.968 E8.03491
G1 X188.674 Y171.906 E8.11925
G1 X190.338 Y173.767 E8.20228
G1 X193.012 Y176.558 E8.33084
G1 X213.741 Y197.287 E9.30586
G1 X214.209 Y197.768 E9.32819
G1 X214.834 Y198.468 E9.3594
G1 X215.397 Y199.218 E9.39059
G1 X215.894 Y200.013 E9.42177
G1 X216.321 Y200.848 E9.45297
G1 X216.676 Y201.716 E9.48416
G1 X216.955 Y202.611 E9.51534
G1 X217.158 Y203.527 E9.54654
G1 X217.281 Y204.457 E9.57774
G1 X217.325 Y205.394 E9.60894
G1 X217.289 Y206.331 E9.64013
G1 X217.173 Y207.262 E9.67134
G1 X216.978 Y208.179 E9.70252
G1 X216.706 Y209.077 E9.73372
G1 X216.359 Y209.948 E9.76491
G1 X215.938 Y210.786 E9.7961
G1 X215.448 Y211.585 E9.82727
G1 X214.891 Y212.34 E9.85848
G1 X214.335 Y212.978 E9.88663
G1 X213.843 Y213.49 E9.91024
G1 X212.873 Y214.447 E9.95557
G1 X212.177 Y215.077 E9.98679
G1 X211.431 Y215.645 E10.01798
G1 X210.639 Y216.148 E10.04918
G1 X209.807 Y216.581 E10.08038
G1 X208.942 Y216.942 E10.11155
G1 X208.049 Y217.227 E10.14273
G1 X207.134 Y217.436 E10.17395
G1 X206.205 Y217.566 E10.20515
G1 X205.269 Y217.616 E10.23632
G1 X204.331 Y217.587 E10.26753
G1 X203.4 Y217.477 E10.29871
G1 X202.481 Y217.289 E10.32991
G1 X201.582 Y217.023 E10.3611
G1 X200.708 Y216.682 E10.3923
G1 X199.867 Y216.267 E10.42349
G1 X199.064 Y215.782 E10.45469
G1 X198.306 Y215.231 E10.48586
G1 X197.574 Y214.595 E10.51811
G1 X197.133 Y214.171 E10.53846
G1 X175.255 Y192.293 E11.56754
G1 X173.383 Y190.474 E11.65435
G1 X171.508 Y188.752 E11.73902
G1 X169.627 Y187.12 E11.82185
G1 X167.657 Y185.506 E11.90656
G1 X165.696 Y183.99 E11.989
G1 X163.651 Y182.5 E12.07315
G1 X161.548 Y181.057 E12.15798
G1 X159.454 Y179.704 E12.2409
G1 X157.321 Y178.411 E12.32386
G1 X154.614 Y176.879 E12.42732
G1 X153.813 Y176.391 E12.45851
G1 X153.057 Y175.836 E12.48971
G1 X152.328 Y175.197 E12.52195
G1 X151.842 Y174.727 E12.54443
G1 X150.813 Y173.693 E12.59295
G1 X150.322 Y173.183 E12.6165
G1 X149.701 Y172.48 E12.6477
G1 X149.142 Y171.727 E12.67889
G1 X148.677 Y170.979 E12.70818
G1 X148.136 Y170.022 E12.74475
G1 X147.791 Y169.392 E12.76864
G1 X146.508 Y167.203 E12.85303
G1 X145.168 Y165.055 E12.93723
G1 X143.783 Y162.97 E13.02049
G1 X142.336 Y160.919 E13.10397
G1 X140.829 Y158.907 E13.18758
G1 X139.25 Y156.919 E13.27202
G1 X137.635 Y155.001 E13.35542
G1 X135.949 Y153.109 E13.4397
G1 X134.219 Y151.274 E13.52358
G1 X133.222 Y150.26 E13.57088
G1 X129.998 Y147.037 E13.72251
G1 X128.121 Y145.213 E13.80956
G1 X126.252 Y143.496 E13.89397
G1 X124.369 Y141.862 E13.97689
G1 X122.399 Y140.248 E14.0616
G1 X120.438 Y138.732 E14.14404
G1 X118.393 Y137.242 E14.22819
G1 X116.29 Y135.799 E14.31302
G1 X114.196 Y134.446 E14.39594
G1 X112.049 Y133.145 E14.47944
G1 X109.365 Y131.627 E14.582
G1 X108.565 Y131.138 E14.61318
G1 X107.808 Y130.584 E14.64438
G1 X107.158 Y130.02 E14.67301
G1 X106.664 Y129.548 E14.69573
G1 X105.571 Y128.453 E14.74719
G1 X105.097 Y127.964 E14.76984
G1 X104.473 Y127.263 E14.80105
G1 X103.912 Y126.512 E14.83223
G1 X103.43 Y125.741 E14.86247
G1 X102.907 Y124.818 E14.89776
G1 X102.469 Y124.022 E14.92798
G1 X101.207 Y121.871 E15.01092
G1 X99.869 Y119.734 E15.09478
G1 X98.475 Y117.638 E15.17851
G1 X97.014 Y115.574 E15.26261
G1 X95.492 Y113.546 E15.34695
G1 X93.957 Y111.617 E15.42894
G1 X92.304 Y109.658 E15.51419
G1 X90.662 Y107.819 E15.59619
G1 X87.959 Y104.998 E15.72614
G1 X84.745 Y101.784 E15.87732
G1 X82.841 Y99.934 E15.96561
G1 X81.031 Y98.272 E16.04734
G1 X79.085 Y96.585 E16.133
G1 X77.167 Y95.011 E16.21553
G1 X75.149 Y93.451 E16.30036
G1 X73.132 Y91.982 E16.38335
G1 X71.078 Y90.573 E16.4662
G1 X68.924 Y89.181 E16.5515
G1 X66.795 Y87.891 E16.6343
G1 X64.11 Y86.372 E16.7369
G1 X63.31 Y85.883 E16.76808
G1 X62.553 Y85.329 E16.79928
G1 X61.903 Y84.765 E16.82791
G1 X61.409 Y84.293 E16.85063
G1 X60.318 Y83.2 E16.902
G1 X59.844 Y82.711 E16.92465
G1 X59.22 Y82.01 E16.95586
G1 X58.659 Y81.259 E16.98704
G1 X58.177 Y80.488 E17.01728
G1 X57.654 Y79.565 E17.05257
G1 X57.216 Y78.769 E17.08279
G1 X55.954 Y76.618 E17.16573
G1 X54.616 Y74.481 E17.24959
G1 X53.222 Y72.385 E17.33332
G1 X51.761 Y70.321 E17.41742
G1 X50.239 Y68.293 E17.50176
G1 X48.704 Y66.364 E17.58375
G1 X47.051 Y64.405 E17.669
G1 X45.409 Y62.566 E17.751
G1 X42.706 Y59.745 E17.88095
G1 X20.935 Y37.972 E18.90504
G1 X20.469 Y37.489 E18.92736
G1 X19.847 Y36.787 E18.95855
G1 X19.287 Y36.034 E18.98977
G1 X18.794 Y35.237 E19.02093
G1 X18.37 Y34.4 E19.05214
G1 X18.019 Y33.53 E19.08334
G1 X17.743 Y32.634 E19.11453
G1 X17.544 Y31.717 E19.14574
G1 X17.425 Y30.787 E19.17692
G1 X17.385 Y29.85 E19.20811
G0 F6000 X17.786 Y29.698
G1 F900 X17.839 Y28.779 E19.23873
G1 X17.972 Y27.868 E19.26935
G1 X18.184 Y26.972 E19.29998
G1 X18.472 Y26.097 E19.33061
G1 X18.835 Y25.251 E19.36123
G1 X19.27 Y24.44 E19.39184
G1 X19.774 Y23.669 E19.42248
G1 X20.343 Y22.946 E19.45308
G1 X20.874 Y22.365 E19.47926
G1 X21.149 Y22.084 E19.49234
G1 X22.117 Y21.129 E19.53756
G1 X22.799 Y20.512 E19.56815
G1 X23.533 Y19.956 E19.59878
G1 X24.313 Y19.466 E19.62942
G1 X25.131 Y19.045 E19.66001
G1 X25.984 Y18.697 E19.69066
G1 X26.863 Y18.424 E19.72127
G1 X27.763 Y18.229 E19.7519
G1 X28.676 Y18.112 E19.78251
G1 X29.596 Y18.075 E19.81314
G1 X30.516 Y18.118 E19.84377
G1 X31.428 Y18.241 E19.87438
G1 X32.326 Y18.442 E19.90498
G1 X33.204 Y18.721 E19.93562
G1 X34.054 Y19.074 E19.96624
G1 X34.87 Y19.5 E19.99685
G1 X35.646 Y19.996 E20.02748
G1 X36.376 Y20.556 E20.05809
G1 X36.834 Y20.964 E20.07849
G1 X37.285 Y21.396 E20.09926
G1 X58.156 Y42.267 E21.08097
G1 X60.04 Y44.098 E21.16835
G1 X61.898 Y45.804 E21.25224
G1 X63.818 Y47.469 E21.33677
G1 X65.778 Y49.077 E21.42109
G1 X67.759 Y50.609 E21.50438
G1 X69.8 Y52.095 E21.58835
G1 X71.902 Y53.537 E21.67314
G1 X74.035 Y54.915 E21.7576
G1 X76.178 Y56.214 E21.84094
G1 X78.379 Y57.465 E21.92515
G1 X79.321 Y57.966 E21.96064
G1 X80.18 Y58.438 E21.99323
G1 X80.966 Y58.916 E22.02383
G1 X81.709 Y59.46 E22.05446
G1 X82.377 Y60.044 E22.08397
G1 X82.852 Y60.501 E22.10589
G1 X83.897 Y61.547 E22.15507
G1 X84.368 Y62.032 E22.17756
G1 X84.98 Y62.72 E22.20818
G1 X85.531 Y63.458 E22.23882
G1 X86.121 Y64.436 E22.27681
G1 X86.388 Y64.937 E22.29569
G1 X87.637 Y67.207 E22.38186
G1 X88.916 Y69.386 E22.4659
G1 X90.269 Y71.55 E22.55078
G1 X91.662 Y73.641 E22.63435
G1 X93.124 Y75.707 E22.71853
G1 X94.642 Y77.729 E22.80263
G1 X96.228 Y79.721 E22.88731
G1 X97.832 Y81.624 E22.97009
G1 X99.51 Y83.502 E23.05386
G1 X102.216 Y86.327 E23.18397
G1 X103.437 Y87.547 E23.24138
G1 X105.291 Y89.349 E23.32737
G1 X107.142 Y91.05 E23.41098
G1 X109.055 Y92.708 E23.49518
G1 X111.031 Y94.328 E23.58016
G1 X113.007 Y95.856 E23.66324
G1 X115.063 Y97.353 E23.74783
G1 X117.15 Y98.787 E23.83205
G1 X119.264 Y100.152 E23.91575
G1 X121.441 Y101.471 E24.00041
G1 X123.603 Y102.7 E24.08312
G1 X124.638 Y103.251 E24.12212
G1 X125.48 Y103.718 E24.15415
G1 X126.265 Y104.199 E24.18477
G1 X127.005 Y104.747 E24.21539
G1 X127.6 Y105.265 E24.24163
G1 X128.068 Y105.713 E24.26318
G1 X129.161 Y106.807 E24.31462
G1 X129.635 Y107.296 E24.33727
G1 X130.247 Y107.985 E24.36792
G1 X130.796 Y108.723 E24.39851
G1 X131.38 Y109.692 E24.43614
G1 X131.615 Y110.134 E24.45279
G1 X132.912 Y112.491 E24.54227
G1 X134.189 Y114.668 E24.62621
G1 X135.523 Y116.798 E24.70981
G1 X136.94 Y118.927 E24.79487
G1 X138.376 Y120.956 E24.87754
G1 X139.912 Y123 E24.96258
G1 X141.477 Y124.967 E25.04619
G1 X143.127 Y126.923 E25.1313
G1 X144.777 Y128.77 E25.21367
G1 X147.476 Y131.587 E25.34343
G1 X148.702 Y132.812 E25.40107
G1 X150.565 Y134.622 E25.48747
G1 X152.413 Y136.32 E25.57094
G1 X154.333 Y137.984 E25.65544
G1 X156.293 Y139.592 E25.73976
G1 X158.274 Y141.124 E25.82306
G1 X160.315 Y142.61 E25.90703
G1 X162.417 Y144.052 E25.99181
G1 X164.55 Y145.43 E26.07627
G1 X166.693 Y146.729 E26.15962
G1 X168.932 Y148.002 E26.24528
G1 X170.579 Y148.885 E26.30744
G1 X171.37 Y149.355 E26.33804
G1 X172.118 Y149.891 E26.36865
G1 X172.944 Y150.613 E26.40514
G1 X173.634 Y151.283 E26.43713
G1 X174.379 Y152.028 E26.47217
G1 X174.879 Y152.543 E26.49604
G1 X175.491 Y153.231 E26.52667
G1 X176.041 Y153.969 E26.55728
G1 X176.632 Y154.949 E26.59534
G1 X176.893 Y155.439 E26.61381
G1 X178.165 Y157.751 E26.70158
G1 X179.445 Y159.93 E26.78563
G1 X180.78 Y162.06 E26.86924
G1 X182.186 Y164.172 E26.95363
G1 X183.634 Y166.218 E27.03699
G1 X185.181 Y168.277 E27.12265
G1 X186.719 Y170.208 E27.20476
G1 X188.388 Y172.187 E27.29086
G1 X190.019 Y174.011 E27.37225
G1 X192.747 Y176.858 E27.50339
G1 X213.454 Y197.566 E28.47741
G1 X213.922 Y198.047 E28.49973
G1 X214.535 Y198.734 E28.53035
G1 X215.086 Y199.472 E28.56099
G1 X215.571 Y200.255 E28.59162
G1 X215.986 Y201.076 E28.62222
G1 X216.328 Y201.931 E28.65285
G1 X216.594 Y202.812 E28.68346
G1 X216.784 Y203.713 E28.71408
G1 X216.894 Y204.627 E28.7447
G1 X216.924 Y205.547 E28.77532
G1 X216.875 Y206.467 E28.80596
G1 X216.746 Y207.378 E28.83656
G1 X216.538 Y208.275 E28.86719
G1 X216.254 Y209.151 E28.89782
G1 X215.894 Y209.998 E28.92843
G1 X215.463 Y210.812 E28.95906
G1 X214.962 Y211.584 E28.98967
G1 X214.396 Y212.31 E29.02029
G1 X213.836 Y212.925 E29.04795
G1 X213.562 Y213.206 E29.06101
G1 X212.592 Y214.163 E29.10633
G1 X211.909 Y214.78 E29.13694
G1 X211.175 Y215.336 E29.16757
G1 X210.396 Y215.826 E29.19818
G1 X209.577 Y216.247 E29.22881
G1 X208.724 Y216.595 E29.25945
G1 X207.845 Y216.868 E29.29006
G1 X206.945 Y217.063 E29.32069
G1 X206.032 Y217.18 E29.3513
G1 X205.112 Y217.217 E29.38193
G1 X204.193 Y217.174 E29.41253
G1 X203.28 Y217.051 E29.44317
G1 X202.382 Y216.85 E29.47377
G1 X201.504 Y216.571 E29.50442
G1 X200.654 Y216.218 E29.53503
G1 X199.838 Y215.792 E29.56564
G1 X199.062 Y215.296 E29.59628
G1 X198.332 Y214.736 E29.62688
G1 X197.85 Y214.305 E29.64838
G1 X197.416 Y213.888 E29.6684
G1 X175.534 Y192.006 E30.69766
G1 X173.65 Y190.175 E30.78504
G1 X171.795 Y188.471 E30.86882
G1 X169.858 Y186.792 E30.95408
G1 X167.927 Y185.208 E31.03715
G1 X165.931 Y183.665 E31.12106
G1 X163.874 Y182.168 E31.20568
G1 X161.787 Y180.734 E31.2899
G1 X159.673 Y179.369 E31.37359
G1 X157.505 Y178.055 E31.45791
G1 X154.807 Y176.529 E31.561
G1 X154.022 Y176.049 E31.59161
G1 X153.281 Y175.502 E31.62224
G1 X152.605 Y174.908 E31.65217
G1 X152.125 Y174.445 E31.67435
G1 X151.101 Y173.416 E31.72264
G1 X150.61 Y172.906 E31.74618
G1 X150.001 Y172.215 E31.77682
G1 X149.454 Y171.475 E31.80743
G1 X149.025 Y170.781 E31.83456
G1 X148.486 Y169.83 E31.87092
G1 X148.115 Y169.152 E31.89662
G1 X146.85 Y166.995 E31.97979
G1 X145.524 Y164.868 E32.06316
G1 X144.099 Y162.723 E32.14881
G1 X142.667 Y160.694 E32.23141
G1 X141.13 Y158.642 E32.31668
G1 X139.571 Y156.68 E32.40003
G1 X137.939 Y154.74 E32.48435
G1 X136.256 Y152.852 E32.56847
G1 X134.495 Y150.984 E32.65386
G1 X133.507 Y149.979 E32.70073
G1 X130.277 Y146.75 E32.85264
G1 X128.388 Y144.914 E32.94026
G1 X126.539 Y143.215 E33.02377
G1 X124.6 Y141.534 E33.10913
G1 X122.669 Y139.95 E33.1922
G1 X120.673 Y138.407 E33.27611
G1 X118.616 Y136.91 E33.36072
G1 X116.529 Y135.476 E33.44494
G1 X114.415 Y134.111 E33.52864
G1 X112.247 Y132.797 E33.61296
G1 X109.559 Y131.277 E33.71566
G1 X108.773 Y130.797 E33.7463
G1 X108.032 Y130.25 E33.77693
G1 X107.432 Y129.728 E33.80338
G1 X106.947 Y129.265 E33.82568
G1 X105.858 Y128.175 E33.87693
G1 X105.384 Y127.686 E33.89958
G1 X104.772 Y126.997 E33.93023
G1 X104.223 Y126.259 E33.96082
G1 X103.778 Y125.543 E33.98886
G1 X103.258 Y124.625 E34.02395
G1 X102.831 Y123.848 E34.05344
G1 X101.548 Y121.663 E34.13772
G1 X100.198 Y119.505 E34.22238
G1 X98.802 Y117.408 E34.30617
G1 X97.345 Y115.349 E34.39006
G1 X95.809 Y113.303 E34.47516
G1 X94.26 Y111.356 E34.55791
G1 X92.625 Y109.418 E34.64224
G1 X90.965 Y107.559 E34.72513
G1 X88.201 Y104.674 E34.85802
G1 X85.024 Y101.497 E35.00746
