;FLAVOR:Marlin
;TIME:4643
;Filament used: 3.04628m
;Layer height: 0.2
;MINX:31.827
;MINY:30.466
;MINZ:0.2
;MAXX:203.148
;MAXY:204.523
;MAXZ:5.4
;Generated with Cura_SteamEngine 5.0.0
M140 S70
M105
M190 S70
M104 S200
M105
M109 S200
M82 ;absolute extrusion mode
; Ender 3 Custom Start G-code
G28 ; Home all axes
M420 S1; Bed Leveling On
G92 E0 ; Reset Extruder
G1 Z2.0 F3000 ; Move Z Axis up little to prevent scratching of Heat Bed
G1 X0.1 Y20 Z0.3 F5000.0 ; Move to start position
G1 X0.1 Y200.0 Z0.3 F1500.0 E15 ; Draw the first line
G1 X0.4 Y200.0 Z0.3 F5000.0 ; Move to side a little
G1 X0.4 Y20 Z0.3 F1500.0 E30 ; Draw the second line
G92 E0 ; Reset Extruder
G1 Z2.0 F3000 ; Move Z Axis up little to prevent scratching of Heat Bed
G1 X5 Y20 Z0.3 F5000.0 ; Move over to prevent blob squish
G92 E0
G92 E0
G1 F2700 E-5
;LAYER_COUNT:27
;LAYER:0
M107
G0 F6000 X35.277 Y40.052 Z0.2
G0 X31.827 Y48.123
;TYPE:SKIRT
G1 F2700 E0
G1 F900 X31.863 Y47.186 E0.03119
G1 X31.978 Y46.255 E0.06239
G1 X32.172 Y45.337 E0.0936
G1 X32.444 Y44.44 E0.12477
G1 X32.791 Y43.569 E0.15596
G1 X33.211 Y42.73 E0.18716
G1 X33.701 Y41.93 E0.21836
G1 X34.258 Y41.175 E0.24957
G1 X34.821 Y40.529 E0.27807
G1 X35.277 Y40.052 E0.30002
G1 X41.28 Y34.05 E0.58236
G1 X41.761 Y33.582 E0.60468
G1 X42.461 Y32.957 E0.63589
G1 X43.211 Y32.394 E0.66708
G1 X44.006 Y31.897 E0.69827
G1 X44.841 Y31.47 E0.72946
G1 X45.709 Y31.115 E0.76065
G1 X46.604 Y30.836 E0.79183
G1 X47.52 Y30.633 E0.82304
G1 X48.45 Y30.51 E0.85424
G1 X49.387 Y30.466 E0.88544
G1 X50.324 Y30.502 E0.91662
G1 X51.255 Y30.618 E0.94783
G1 X52.172 Y30.813 E0.97901
G1 X53.07 Y31.085 E1.01022
G1 X53.941 Y31.432 E1.0414
G1 X54.779 Y31.853 E1.07259
G1 X55.578 Y32.343 E1.10377
G1 X56.333 Y32.9 E1.13497
G1 X57.036 Y33.518 E1.16611
G1 X57.51 Y33.975 E1.188
G1 X192.411 Y168.875 E7.53331
G1 X193.744 Y170.244 E7.59686
G1 X193.987 Y170.477 E7.60806
G1 X195.033 Y171.566 E7.65828
G1 X199.555 Y176.091 E7.87105
G1 X200.043 Y176.594 E7.89436
G1 X200.667 Y177.295 E7.92558
G1 X201.229 Y178.046 E7.95678
G1 X201.724 Y178.842 E7.98795
G1 X202.151 Y179.677 E8.01915
G1 X202.504 Y180.546 E8.05034
G1 X202.782 Y181.442 E8.08155
G1 X202.983 Y182.358 E8.11274
G1 X203.105 Y183.288 E8.14393
G1 X203.148 Y184.224 E8.1751
G1 X203.11 Y185.162 E8.20632
G1 X202.993 Y186.092 E8.2375
G1 X202.797 Y187.009 E8.26869
G1 X202.524 Y187.906 E8.29987
G1 X202.175 Y188.777 E8.33108
G1 X201.753 Y189.615 E8.36229
G1 X201.262 Y190.413 E8.39345
G1 X200.704 Y191.167 E8.42465
G1 X200.141 Y191.811 E8.4531
G1 X199.701 Y192.27 E8.47425
G1 X191.006 Y200.963 E8.88319
G1 X190.515 Y201.437 E8.90588
G1 X189.813 Y202.059 E8.93708
G1 X189.061 Y202.619 E8.96826
G1 X188.263 Y203.113 E8.99948
G1 X187.427 Y203.537 E9.03066
G1 X186.557 Y203.888 E9.06186
G1 X185.661 Y204.164 E9.09304
G1 X184.744 Y204.363 E9.12425
G1 X183.814 Y204.483 E9.15544
G1 X182.877 Y204.523 E9.18663
G1 X181.94 Y204.483 E9.21783
G1 X181.01 Y204.364 E9.24901
G1 X180.093 Y204.165 E9.28022
G1 X179.197 Y203.89 E9.31139
G1 X178.327 Y203.539 E9.3426
G1 X177.49 Y203.115 E9.3738
G1 X176.693 Y202.621 E9.40499
G1 X175.94 Y202.062 E9.43618
G1 X175.285 Y201.484 E9.46524
G1 X174.818 Y201.035 E9.48678
G1 X131.666 Y157.883 E11.51652
G1 X130.203 Y156.41 E11.58557
G1 X129.533 Y155.75 E11.61685
G1 X86.432 Y112.647 E13.64424
G1 X85.02 Y111.226 E13.71087
G1 X84.378 Y110.594 E13.74083
G1 X41.095 Y67.309 E15.77678
G1 X40.619 Y66.816 E15.79957
G1 X39.996 Y66.114 E15.83079
G1 X39.436 Y65.361 E15.862
G1 X38.943 Y64.564 E15.89317
G1 X38.542 Y63.78 E15.92246
G1 X38.125 Y62.871 E15.95572
G1 X37.726 Y61.973 E15.9884
G1 X36.64 Y59.703 E16.0721
G1 X35.468 Y57.423 E16.15736
G1 X34.276 Y55.256 E16.23962
G1 X33.634 Y54.16 E16.28187
G1 X33.261 Y53.503 E16.307
G1 X32.833 Y52.668 E16.33821
G1 X32.478 Y51.8 E16.3694
G1 X32.198 Y50.905 E16.40059
G1 X31.995 Y49.989 E16.43179
G1 X31.871 Y49.06 E16.46297
G1 X31.827 Y48.123 E16.49417
G0 F6000 X32.227 Y48.02
G1 F900 X32.272 Y47.1 E16.5248
G1 X32.396 Y46.188 E16.55541
G1 X32.599 Y45.29 E16.58603
G1 X32.879 Y44.413 E16.61665
G1 X33.234 Y43.563 E16.64729
G1 X33.661 Y42.748 E16.67789
G1 X34.158 Y41.973 E16.70852
G1 X34.72 Y41.243 E16.73916
G1 X35.112 Y40.803 E16.75876
G1 X35.56 Y40.335 E16.78031
G1 X41.559 Y34.337 E17.06246
G1 X42.04 Y33.869 E17.08478
G1 X42.727 Y33.256 E17.1154
G1 X43.465 Y32.705 E17.14603
G1 X44.248 Y32.22 E17.17667
G1 X45.069 Y31.805 E17.20726
G1 X45.924 Y31.463 E17.23789
G1 X46.805 Y31.197 E17.2685
G1 X47.706 Y31.007 E17.29913
G1 X48.62 Y30.897 E17.32975
G1 X49.54 Y30.867 E17.36036
G1 X50.46 Y30.916 E17.39101
G1 X51.371 Y31.045 E17.42161
G1 X52.268 Y31.253 E17.45223
G1 X53.144 Y31.537 E17.48286
G1 X53.991 Y31.897 E17.51347
G1 X54.805 Y32.328 E17.54411
G1 X55.577 Y32.829 E17.57472
G1 X56.303 Y33.395 E17.60534
G1 X56.76 Y33.807 E17.6258
G1 X57.227 Y34.258 E17.64739
G1 X192.125 Y169.154 E23.99253
G1 X193.321 Y170.382 E24.04955
G1 X193.699 Y170.754 E24.06719
G1 X194.745 Y171.843 E24.11741
G1 X199.268 Y176.37 E24.33025
G1 X199.756 Y176.873 E24.35356
G1 X200.368 Y177.561 E24.38419
G1 X200.917 Y178.299 E24.41478
G1 X201.401 Y179.083 E24.44543
G1 X201.815 Y179.905 E24.47604
G1 X202.156 Y180.76 E24.50665
G1 X202.421 Y181.642 E24.53728
G1 X202.609 Y182.543 E24.5679
G1 X202.718 Y183.457 E24.59851
G1 X202.747 Y184.378 E24.62916
G1 X202.697 Y185.297 E24.65977
G1 X202.566 Y186.208 E24.69038
G1 X202.357 Y187.105 E24.72102
G1 X202.072 Y187.98 E24.75162
G1 X201.711 Y188.827 E24.78225
G1 X201.278 Y189.64 E24.81288
G1 X200.776 Y190.412 E24.84351
G1 X200.209 Y191.137 E24.87412
G1 X199.851 Y191.536 E24.89195
G1 X199.418 Y191.987 E24.91275
G1 X190.728 Y200.675 E25.32145
G1 X190.237 Y201.149 E25.34415
G1 X189.548 Y201.759 E25.37476
G1 X188.808 Y202.307 E25.40538
G1 X188.023 Y202.789 E25.43602
G1 X187.2 Y203.201 E25.46663
G1 X186.344 Y203.539 E25.49724
G1 X185.461 Y203.803 E25.5279
G1 X184.56 Y203.988 E25.55849
G1 X183.645 Y204.095 E25.58913
G1 X182.725 Y204.122 E25.61974
G1 X181.806 Y204.069 E25.65036
G1 X180.895 Y203.936 E25.68098
G1 X179.999 Y203.725 E25.7116
G1 X179.124 Y203.437 E25.74223
G1 X178.278 Y203.074 E25.77285
G1 X177.467 Y202.639 E25.80346
G1 X176.696 Y202.136 E25.83408
G1 X175.972 Y201.567 E25.86471
G1 X175.561 Y201.195 E25.88315
G1 X175.101 Y200.752 E25.90439
G1 X131.95 Y157.601 E27.93408
G1 X130.487 Y156.128 E28.00313
G1 X129.815 Y155.467 E28.03448
G1 X86.716 Y112.365 E30.06179
G1 X85.325 Y110.965 E30.12744
G1 X84.659 Y110.309 E30.15853
G1 X41.382 Y67.031 E32.19417
G1 X40.906 Y66.538 E32.21696
G1 X40.296 Y65.848 E32.24759
G1 X39.748 Y65.108 E32.27822
G1 X39.267 Y64.324 E32.30881
G1 X38.905 Y63.612 E32.33538
G1 X38.49 Y62.709 E32.36843
G1 X38.075 Y61.775 E32.40243
G1 X36.999 Y59.526 E32.48535
G1 X35.831 Y57.253 E32.57035
G1 X34.622 Y55.056 E32.65375
G1 X33.982 Y53.962 E32.69591
G1 X33.609 Y53.305 E32.72104
G1 X33.19 Y52.486 E32.75163
G1 X32.843 Y51.633 E32.78226
G1 X32.572 Y50.753 E32.81289
G1 X32.378 Y49.853 E32.84351
G1 X32.263 Y48.94 E32.87411
G1 X32.227 Y48.02 E32.90474
G0 F6000 X32.628 Y47.918
G1 F900 X32.682 Y47.017 E32.93476
G1 X32.815 Y46.124 E32.96479
G1 X33.026 Y45.246 E32.99482
G1 X33.315 Y44.39 E33.02487
G1 X33.678 Y43.563 E33.05491
G1 X34.112 Y42.771 E33.08495
G1 X34.616 Y42.021 E33.115
G1 X35.403 Y41.077 E33.15588
G1 X35.843 Y40.618 E33.17703
G1 X41.838 Y34.623 E33.45901
G1 X42.319 Y34.155 E33.48134
G1 X42.994 Y33.555 E33.51137
G1 X43.719 Y33.016 E33.54142
G1 X44.488 Y32.544 E33.57143
G1 X45.297 Y32.142 E33.60148
G1 X46.138 Y31.813 E33.63151
G1 X47.005 Y31.559 E33.66156
G1 X47.89 Y31.383 E33.69157
G1 X48.788 Y31.286 E33.72162
G1 X49.691 Y31.269 E33.75165
G1 X50.592 Y31.332 E33.78169
G1 X51.484 Y31.475 E33.81174
G1 X52.36 Y31.695 E33.84178
G1 X53.212 Y31.992 E33.87179
G1 X54.036 Y32.364 E33.90186
G1 X54.823 Y32.807 E33.9319
G1 X55.567 Y33.318 E33.96192
G1 X56.483 Y34.096 E34.00189
G1 X56.944 Y34.54 E34.02318
G1 X191.838 Y169.433 E40.36816
G1 X193.243 Y170.876 E40.43514
G1 X193.41 Y171.031 E40.44272
G1 X194.456 Y172.12 E40.49294
G1 X198.981 Y176.648 E40.70586
G1 X199.469 Y177.151 E40.72917
G1 X200.068 Y177.827 E40.75921
G1 X200.606 Y178.553 E40.78926
G1 X201.077 Y179.323 E40.81928
G1 X201.478 Y180.132 E40.84931
G1 X201.806 Y180.974 E40.87937
G1 X202.058 Y181.841 E40.9094
G1 X202.233 Y182.727 E40.93944
G1 X202.329 Y183.625 E40.96947
G1 X202.344 Y184.528 E40.99951
G1 X202.28 Y185.429 E41.02956
G1 X202.137 Y186.32 E41.05957
G1 X201.915 Y187.196 E41.08963
G1 X201.616 Y188.048 E41.11966
G1 X201.243 Y188.871 E41.14971
G1 X200.799 Y189.657 E41.17974
G1 X200.288 Y190.401 E41.20976
G1 X199.56 Y191.261 E41.24723
G1 X199.135 Y191.704 E41.26765
G1 X190.45 Y200.387 E41.67612
G1 X189.959 Y200.861 E41.69882
G1 X189.282 Y201.459 E41.72886
G1 X188.555 Y201.995 E41.7589
G1 X187.784 Y202.464 E41.78892
G1 X186.974 Y202.863 E41.81895
G1 X186.131 Y203.189 E41.84901
G1 X185.264 Y203.439 E41.87902
G1 X184.377 Y203.612 E41.90908
G1 X183.479 Y203.705 E41.93911
G1 X182.576 Y203.719 E41.96915
G1 X181.675 Y203.652 E41.9992
G1 X180.784 Y203.506 E42.02923
G1 X179.909 Y203.282 E42.05927
G1 X179.057 Y202.982 E42.08931
G1 X178.236 Y202.607 E42.11933
G1 X177.45 Y202.161 E42.14939
G1 X176.708 Y201.647 E42.17941
G1 X175.837 Y200.905 E42.21747
G1 X175.383 Y200.469 E42.2384
G1 X132.234 Y157.319 E44.26802
G1 X130.828 Y155.904 E44.33437
G1 X130.098 Y155.184 E44.36847
G1 X87 Y112.083 E46.39574
G1 X85.605 Y110.68 E46.46155
G1 X84.885 Y109.969 E46.4952
G1 X41.67 Y66.753 E48.52793
G1 X41.194 Y66.26 E48.55072
G1 X40.596 Y65.583 E48.58076
G1 X40.06 Y64.856 E48.6108
G1 X39.591 Y64.084 E48.64085
G1 X39.269 Y63.445 E48.66465
G1 X38.856 Y62.546 E48.69755
G1 X38.45 Y61.632 E48.73082
G1 X37.351 Y59.336 E48.81548
G1 X36.18 Y57.057 E48.9007
G1 X34.975 Y54.866 E48.98387
G1 X34.33 Y53.765 E49.02631
G1 X33.957 Y53.108 E49.05143
G1 X33.546 Y52.304 E49.08147
G1 X33.208 Y51.466 E49.11152
G1 X32.946 Y50.602 E49.14155
G1 X32.761 Y49.718 E49.17159
G1 X32.655 Y48.821 E49.20163
G1 X32.628 Y47.918 E49.23168
G1 F2700 E44.23168
G0 F6000 X182.877 Y194.462
G0 X186.503 Y190.836
G0 X182.973 Y182.811
G0 X184.89 Y183.371
G0 X185.078 Y183.558
G0 X184.985 Y183.736
G1 F2700 E49.23168
G1 F900 X185.078 Y183.558 E49.23836
G1 X185.586 Y183.051 E49.26223
G1 X186.788 Y184.253 E49.31877
G1 X186.145 Y184.896 E49.34901
G1 X184.985 Y183.736 E49.40357
G0 F6000 X184.476 Y183.793
G1 F900 X184.706 Y183.422 E49.41809
G1 X184.748 Y183.323 E49.42167
G1 X185.585 Y182.485 E49.46106
G1 X187.353 Y184.254 E49.54425
G1 X186.145 Y185.462 E49.60107
G1 X184.476 Y183.793 E49.67957
G0 F6000 X183.94 Y183.823
G1 F900 X184.126 Y183.605 E49.6891
G1 X184.378 Y183.185 E49.7054
G1 X184.415 Y183.09 E49.70879
G1 X185.586 Y181.92 E49.76384
G1 X187.919 Y184.254 E49.8736
G1 X186.145 Y186.028 E49.95705
G1 X183.94 Y183.823 E50.06076
G0 F6000 X183.387 Y183.836
G1 F900 X183.819 Y183.346 E50.08249
G1 X184.046 Y182.951 E50.09764
G1 X184.078 Y182.861 E50.10082
G1 X185.586 Y181.354 E50.17173
G1 X188.485 Y184.254 E50.30811
G1 X186.145 Y186.594 E50.41818
G1 X183.387 Y183.836 E50.54791
G0 F6000 X182.822 Y183.835
G1 F900 X183.243 Y183.413 E50.56773
G1 X183.51 Y183.09 E50.58167
G1 X183.71 Y182.722 E50.5956
G1 X183.737 Y182.637 E50.59857
G1 X185.586 Y180.788 E50.68554
G1 X189.05 Y184.253 E50.8485
G1 X186.145 Y187.158 E50.98514
G1 X182.822 Y183.835 E51.14144
G0 F6000 X182.256 Y183.835
G1 F900 X182.96 Y183.13 E51.17458
G1 X183.199 Y182.835 E51.18721
G1 X183.37 Y182.497 E51.19981
G1 X183.391 Y182.418 E51.20253
G1 X185.586 Y180.222 E51.3058
G1 X189.615 Y184.254 E51.49538
G1 X186.145 Y187.724 E51.6586
G1 X182.256 Y183.835 E51.84152
G0 F6000 X181.69 Y183.835
G1 F900 X182.677 Y182.847 E51.88797
G1 X182.884 Y182.585 E51.89908
G1 X183.022 Y182.28 E51.91021
G1 X183.036 Y182.207 E51.91269
G1 X185.586 Y179.656 E52.03265
G1 X190.181 Y184.254 E52.24886
G1 X186.145 Y188.29 E52.4387
G1 X181.69 Y183.835 E52.64825
G0 F6000 X181.125 Y183.836
G1 F900 X182.394 Y182.565 E52.70799
G1 X182.564 Y182.339 E52.71739
G1 X182.663 Y182.075 E52.72677
G1 X182.668 Y182.009 E52.72897
G1 X185.586 Y179.09 E52.86625
G1 X190.747 Y184.254 E53.10908
G1 X186.145 Y188.856 E53.32554
G1 X181.125 Y183.836 E53.56167
G0 F6000 X180.559 Y183.836
G1 F900 X182.111 Y182.282 E53.63471
G1 X182.235 Y182.102 E53.64198
G1 X182.279 Y181.832 E53.65108
G1 X185.586 Y178.524 E53.80666
G1 X191.313 Y184.254 E54.07611
G1 X186.145 Y189.422 E54.3192
G1 X180.559 Y183.836 E54.58194
G0 F6000 X179.993 Y183.836
G1 F900 X181.828 Y181.999 E54.6683
G1 X181.885 Y181.888 E54.67245
G1 X181.828 Y181.717 E54.67845
G1 X185.586 Y177.958 E54.85524
G1 X191.879 Y184.254 E55.15131
G1 X186.145 Y189.988 E55.42102
G1 X179.993 Y183.836 E55.71039
G1 F2700 E50.71039
G0 F6000 X184.944 Y183.317
G0 X185.462 Y183.835
;TYPE:SUPPORT
G1 F2700 E55.71039
G1 F962.6 X186.145 Y184.518 E55.74043
G1 X186.277 Y184.386 E55.74624
G1 X186.409 Y184.254 E55.75204
G1 X185.726 Y183.571 E55.78208
G1 X185.462 Y183.835 E55.79369
G1 F2700 E50.79369
;MESH:Rear_Spar_Middle.stl
G0 F6000 X184.944 Y184.353
G0 X186.503 Y190.836
G0 X184.698 Y192.657
G0 X184.085 Y192.045
;TYPE:WALL-OUTER
G1 F2700 E55.79369
G1 F900 X185.295 Y190.836 E55.85058
G1 X178.437 Y183.978 E56.17316
G1 X178.379 Y183.842 E56.17808
G1 X178.437 Y183.694 E56.18336
G1 X180.274 Y181.855 E56.26982
G1 X180.242 Y181.616 E56.27784
G1 X180.275 Y181.572 E56.27967
G1 X184.772 Y177.076 E56.49117
G1 X49.432 Y41.737 E62.85712
G1 X43.098 Y48.071 E63.15506
G1 X49.815 Y54.788 E63.471
G1 X51.794 Y52.808 E63.56411
G1 X51.937 Y52.75 E63.56925
G1 X52.078 Y52.808 E63.57432
G1 X53.492 Y54.222 E63.64083
G1 X53.55 Y54.35 E63.6455
G1 X53.492 Y54.506 E63.65104
G1 X48.811 Y59.187 E63.87122
G1 X92.368 Y102.744 E65.92
G1 X96.978 Y98.134 E66.13684
G1 X97.134 Y98.076 E66.14238
G1 X97.262 Y98.134 E66.14705
G1 X98.676 Y99.548 E66.21356
G1 X98.734 Y99.676 E66.21824
G1 X98.676 Y99.832 E66.22377
G1 X94.066 Y104.442 E66.44061
G1 X137.623 Y147.999 E68.4894
G1 X142.233 Y143.389 E68.70624
G1 X142.389 Y143.331 E68.71178
G1 X142.517 Y143.389 E68.71645
G1 X143.931 Y144.803 E68.78296
G1 X143.989 Y144.931 E68.78764
G1 X143.931 Y145.087 E68.79317
G1 X139.321 Y149.697 E69.01001
G1 X181.668 Y192.044 E71.00188
G1 X182.877 Y193.254 E71.05878
G1 X184.085 Y192.045 E71.11562
G1 F2700 E66.11562
G0 F6000 X184.698 Y192.657
G0 X182.877 Y194.462
G0 X47.603 Y59.187
G0 X51.936 Y53.874
G0 X51.939 Y52.35
;TYPE:WALL-INNER
G1 F2700 E71.11562
G1 F900 X52.231 Y52.427 E71.12566
G1 X52.361 Y52.525 E71.13108
G1 X53.775 Y53.939 E71.19759
G1 X53.925 Y54.189 E71.20729
G1 X53.945 Y54.449 E71.21596
G1 X53.828 Y54.728 E71.22602
G1 X53.612 Y54.952 E71.23637
G1 X49.377 Y59.187 E71.43557
G1 X92.368 Y102.178 E73.45774
G1 X96.695 Y97.851 E73.66127
G1 X96.924 Y97.708 E73.67025
G1 X97.161 Y97.677 E73.6782
G1 X97.427 Y97.76 E73.68746
G1 X97.545 Y97.851 E73.69242
G1 X98.959 Y99.265 E73.75893
G1 X99.108 Y99.515 E73.76861
G1 X99.129 Y99.775 E73.77729
G1 X99.012 Y100.055 E73.78738
G1 X98.867 Y100.207 E73.79437
G1 X94.632 Y104.442 E73.99357
G1 X137.623 Y147.433 E76.01573
G1 X141.95 Y143.106 E76.21926
G1 X142.179 Y142.963 E76.22824
G1 X142.416 Y142.932 E76.23619
G1 X142.682 Y143.015 E76.24546
G1 X142.8 Y143.106 E76.25041
G1 X144.214 Y144.52 E76.31692
G1 X144.363 Y144.77 E76.3266
G1 X144.384 Y145.03 E76.33528
G1 X144.266 Y145.31 E76.34539
G1 X144.123 Y145.461 E76.3523
G1 X139.887 Y149.697 E76.55155
G1 X173.602 Y183.412 E78.1374
G1 X175.761 Y185.573 E78.239
G1 X181.951 Y191.761 E78.53011
G1 X182.877 Y192.688 E78.57369
G1 X183.802 Y191.762 E78.61723
G1 X184.729 Y190.836 E78.66081
G1 X178.154 Y184.261 E78.97007
G1 X178.024 Y184.065 E78.9779
G1 X177.979 Y183.852 E78.98514
G1 X178.004 Y183.661 E78.99154
G1 X178.154 Y183.411 E79.00124
G1 X179.88 Y181.68 E79.08254
G1 X179.845 Y181.53 E79.08767
G1 X179.99 Y181.291 E79.09696
G1 X184.206 Y177.076 E79.29525
G1 X49.432 Y42.303 E85.63458
G1 X43.664 Y48.071 E85.90589
G1 X49.815 Y54.222 E86.19521
G1 X51.511 Y52.525 E86.27501
G1 X51.692 Y52.401 E86.28231
G1 X51.939 Y52.35 E86.2907
G1 F2700 E81.2907
G0 F6000 X51.936 Y53.874
G0 X47.603 Y59.187
G0 X137.622 Y149.207
G0 X142.865 Y144.945
G0 X144.498 Y145.589
;TYPE:SKIN
G1 F2700 E86.2907
G1 F900 X144.377 Y145.717 E86.29656
G1 X140.397 Y149.697 E86.48376
