;FLAVOR:Marlin
;TIME:2223
;Filament used: 1.37989m
;Layer height: 0.2
;MINX:52.508
;MINY:55.351
;MINZ:0.2
;MAXX:182.497
;MAXY:179.724
;MAXZ:2
;Generated with Cura_SteamEngine 5.0.0
M140 S70
M105
M190 S70
M104 S200
M105
M109 S200
M82 ;absolute extrusion mode
; Ender 3 Custom Start G-code
G28 ; Home all axes
M420 S1; Bed Leveling On
G92 E0 ; Reset Extruder
G1 Z2.0 F3000 ; Move Z Axis up little to prevent scratching of Heat Bed
G1 X0.1 Y20 Z0.3 F5000.0 ; Move to start position
G1 X0.1 Y200.0 Z0.3 F1500.0 E15 ; Draw the first line
G1 X0.4 Y200.0 Z0.3 F5000.0 ; Move to side a little
G1 X0.4 Y20 Z0.3 F1500.0 E30 ; Draw the second line
G92 E0 ; Reset Extruder
G1 Z2.0 F3000 ; Move Z Axis up little to prevent scratching of Heat Bed
G1 X5 Y20 Z0.3 F5000.0 ; Move over to prevent blob squish
G92 E0
G92 E0
G1 F2700 E-3
;LAYER_COUNT:10
;LAYER:0
M107
G0 F6000 X56.231 Y59.304 Z0.2
G0 X52.508 Y68.846
;TYPE:SKIRT
G1 F2700 E0
G1 F1200 X52.536 Y67.971 E0.02912
G1 X52.564 Y67.582 E0.04209
G1 X52.65 Y66.791 E0.06855
G1 X52.702 Y66.433 E0.08059
G1 X52.984 Y65.09 E0.12623
G1 X53.059 Y64.818 E0.13561
G1 X53.462 Y63.627 E0.17743
G1 X53.581 Y63.332 E0.18801
G1 X53.968 Y62.478 E0.2192
G1 X54.368 Y61.751 E0.24679
G1 X54.869 Y60.958 E0.27799
G1 X55.409 Y60.243 E0.30779
G1 X55.606 Y60.003 E0.31812
G1 X56.231 Y59.304 E0.34931
G1 X57.159 Y58.455 E0.39114
G1 X57.467 Y58.204 E0.40436
G1 X58.219 Y57.643 E0.43556
G1 X58.974 Y57.172 E0.46516
G1 X59.176 Y57.057 E0.47289
G1 X60.01 Y56.628 E0.50408
G1 X60.743 Y56.321 E0.53051
G1 X61.099 Y56.187 E0.54317
G1 X62.334 Y55.804 E0.58617
G1 X62.605 Y55.737 E0.59546
G1 X63.524 Y55.55 E0.62665
G1 X64.101 Y55.475 E0.646
G1 X64.713 Y55.411 E0.66647
G1 X65.857 Y55.351 E0.70457
G1 X66.182 Y55.351 E0.71538
G1 X66.888 Y55.374 E0.73887
G1 X67.261 Y55.398 E0.75131
G1 X68.097 Y55.484 E0.77926
G1 X68.966 Y55.607 E0.80845
G1 X69.77 Y55.751 E0.83562
G1 X70.612 Y55.94 E0.86432
G1 X71.273 Y56.11 E0.88702
G1 X71.828 Y56.266 E0.90619
G1 X72.33 Y56.42 E0.92366
G1 X73.503 Y56.811 E0.96478
G1 X74.75 Y57.27 E1.00898
G1 X75.967 Y57.761 E1.05263
G1 X77.167 Y58.282 E1.09614
G1 X78.746 Y59.016 E1.15405
G1 X80.269 Y59.768 E1.21055
G1 X81.105 Y60.205 E1.24192
G1 X81.917 Y60.674 E1.27311
G1 X82.686 Y61.211 E1.3043
G1 X83.465 Y61.865 E1.33813
G1 X84.096 Y62.449 E1.36673
G1 X85.69 Y63.973 E1.44008
G1 X86.228 Y64.474 E1.46453
G1 X132.165 Y108.11 E3.57185
G1 X142.805 Y118.247 E4.06063
G1 X148.525 Y123.729 E4.32415
G1 X149.741 Y124.908 E4.38048
G1 X150.116 Y125.281 E4.39807
G1 X152.22 Y127.317 E4.49545
G1 X154.422 Y129.469 E4.59786
G1 X158.816 Y133.809 E4.80327
G1 X162.914 Y137.914 E4.99619
G1 X166.248 Y141.307 E5.15441
G1 X169.112 Y144.27 E5.29147
G1 X171.694 Y146.996 E5.41635
G1 X173.634 Y149.089 E5.51127
G1 X174.09 Y149.604 E5.53415
G1 X174.681 Y150.332 E5.56534
G1 X175.208 Y151.108 E5.59654
G1 X175.787 Y152.17 E5.63677
G1 X176.301 Y153.252 E5.67661
G1 X176.574 Y153.845 E5.69832
G1 X177.695 Y156.115 E5.78253
G1 X178.863 Y158.32 E5.86552
G1 X180.692 Y161.528 E5.98834
G1 X181.046 Y162.192 E6.01337
G1 X181.358 Y162.849 E6.03756
G1 X181.463 Y163.09 E6.0463
G1 X181.907 Y164.295 E6.08901
G1 X181.99 Y164.569 E6.09854
G1 X182.223 Y165.477 E6.12971
G1 X182.353 Y166.197 E6.15405
G1 X182.465 Y167.128 E6.18524
G1 X182.497 Y168.065 E6.21642
G1 X182.469 Y168.793 E6.24065
G1 X182.377 Y169.726 E6.27183
G1 X182.207 Y170.649 E6.30305
G1 X181.959 Y171.553 E6.33423
G1 X181.65 Y172.394 E6.36403
G1 X181.564 Y172.602 E6.37151
G1 X181.169 Y173.453 E6.40272
G1 X180.703 Y174.267 E6.43391
G1 X180.17 Y175.038 E6.46509
G1 X179.572 Y175.761 E6.4963
G1 X178.898 Y176.447 E6.52828
G1 X178.722 Y176.611 E6.53628
G1 X178.009 Y177.22 E6.56747
G1 X177.247 Y177.767 E6.59867
G1 X176.441 Y178.247 E6.62987
G1 X175.59 Y178.659 E6.66132
G1 X175.338 Y178.768 E6.67045
G1 X174.462 Y179.103 E6.70164
G1 X173.149 Y179.454 E6.74685
G1 X172.951 Y179.494 E6.75357
G1 X172.025 Y179.641 E6.78475
G1 X171.272 Y179.701 E6.80987
G1 X170.765 Y179.724 E6.82676
G1 X169.53 Y179.71 E6.86783
G1 X169.202 Y179.688 E6.87877
G1 X168.525 Y179.622 E6.90139
G1 X167.736 Y179.506 E6.92792
G1 X166.949 Y179.36 E6.95454
G1 X164.651 Y178.887 E7.03257
G1 X162.175 Y178.451 E7.11619
G1 X159.669 Y178.082 E7.20044
G1 X157.136 Y177.782 E7.28528
G1 X155.258 Y177.609 E7.348
G1 X154.819 Y177.558 E7.3627
G1 X153.892 Y177.41 E7.39393
G1 X152.982 Y177.183 E7.42512
G1 X152.095 Y176.881 E7.45628
G1 X151.443 Y176.602 E7.47987
G1 X150.709 Y176.257 E7.50685
G1 X149.283 Y175.552 E7.55976
G1 X147.782 Y174.777 E7.61594
G1 X146.408 Y174.038 E7.66783
G1 X144.933 Y173.217 E7.72398
G1 X143.394 Y172.327 E7.78311
G1 X142.025 Y171.509 E7.83615
G1 X140.586 Y170.623 E7.89236
G1 X139.161 Y169.721 E7.94845
G1 X137.777 Y168.821 E8.00336
G1 X136.382 Y167.89 E8.05914
G1 X134.947 Y166.909 E8.11696
G1 X133.453 Y165.862 E8.17763
G1 X132.1 Y164.895 E8.23295
G1 X130.691 Y163.866 E8.29098
G1 X129.345 Y162.862 E8.34683
G1 X127.888 Y161.755 E8.40769
G1 X126.4 Y160.598 E8.47038
G1 X125.1 Y159.57 E8.5255
G1 X123.775 Y158.503 E8.58208
G1 X122.469 Y157.436 E8.63818
G1 X120.955 Y156.174 E8.70373
G1 X119.586 Y155.014 E8.76341
G1 X118.252 Y153.865 E8.82197
G1 X116.663 Y152.473 E8.89223
G1 X115.343 Y151.299 E8.95099
G1 X113.808 Y149.912 E9.0198
G1 X112.266 Y148.493 E9.0895
G1 X110.931 Y147.25 E9.15016
G1 X109.345 Y145.747 E9.22284
G1 X107.854 Y144.314 E9.29162
G1 X106.484 Y142.979 E9.35524
G1 X105.163 Y141.675 E9.41698
G1 X103.683 Y140.195 E9.4866
G1 X101.989 Y138.476 E9.56687
G1 X100.482 Y136.923 E9.63884
G1 X99.163 Y135.548 E9.70221
G1 X97.487 Y133.777 E9.78331
G1 X96.018 Y132.206 E9.85485
G1 X94.535 Y130.6 E9.92756
G1 X92.992 Y128.908 E10.00372
G1 X91.48 Y127.229 E10.07887
G1 X89.981 Y125.546 E10.15383
G1 X88.453 Y123.811 E10.23072
G1 X85.615 Y120.531 E10.37498
G1 X83.773 Y118.364 E10.46958
G1 X82.129 Y116.408 E10.55456
G1 X79.232 Y112.904 E10.70578
G1 X77.471 Y110.736 E10.79868
G1 X75.945 Y108.837 E10.87971
G1 X74.504 Y107.027 E10.95666
G1 X71.669 Y103.409 E11.10953
G1 X68.543 Y99.341 E11.28017
G1 X65.804 Y95.712 E11.43139
G1 X63.12 Y92.094 E11.58122
G1 X60.444 Y88.43 E11.73213
G1 X58.508 Y85.739 E11.84239
G1 X58.143 Y85.216 E11.8636
G1 X57.461 Y84.105 E11.90696
G1 X56.823 Y82.901 E11.95228
G1 X56.304 Y81.854 E11.99115
G1 X55.747 Y80.679 E12.0344
G1 X55.172 Y79.397 E12.08113
G1 X54.667 Y78.191 E12.12462
G1 X54.198 Y76.977 E12.1679
G1 X53.907 Y76.157 E12.19684
G1 X53.775 Y75.761 E12.21072
G1 X53.436 Y74.677 E12.2485
G1 X53.163 Y73.698 E12.2823
G1 X53.018 Y73.111 E12.30241
G1 X52.913 Y72.624 E12.31898
G1 X52.827 Y72.176 E12.33416
G1 X52.725 Y71.546 E12.35538
G1 X52.624 Y70.783 E12.38098
G1 X52.548 Y69.993 E12.40738
G1 X52.529 Y69.674 E12.41801
G1 X52.508 Y68.846 E12.44556
G0 F6000 X52.908 Y68.843
G1 F1200 X52.935 Y68 E12.47361
G1 X52.963 Y67.611 E12.48658
G1 X53.046 Y66.848 E12.51211
G1 X53.098 Y66.49 E12.52414
G1 X53.369 Y65.196 E12.56811
G1 X53.444 Y64.924 E12.5775
G1 X53.833 Y63.777 E12.61778
G1 X53.952 Y63.482 E12.62836
G1 X54.333 Y62.644 E12.65898
G1 X54.715 Y61.95 E12.68533
G1 X55.207 Y61.172 E12.71594
G1 X55.718 Y60.497 E12.7441
G1 X55.915 Y60.257 E12.75443
G1 X56.529 Y59.571 E12.78505
G1 X57.412 Y58.765 E12.82481
G1 X57.72 Y58.514 E12.83803
G1 X58.458 Y57.964 E12.86864
G1 X59.172 Y57.519 E12.89662
G1 X59.374 Y57.404 E12.90435
G1 X60.193 Y56.984 E12.93497
G1 X60.884 Y56.695 E12.95988
G1 X61.24 Y56.561 E12.97253
G1 X62.43 Y56.192 E13.01397
G1 X62.701 Y56.125 E13.02325
G1 X63.603 Y55.943 E13.05386
G1 X64.143 Y55.872 E13.07198
G1 X64.755 Y55.808 E13.09244
G1 X65.857 Y55.751 E13.12914
G1 X66.182 Y55.751 E13.13995
G1 X66.863 Y55.773 E13.16261
G1 X67.236 Y55.797 E13.17505
G1 X68.041 Y55.88 E13.20196
G1 X68.91 Y56.003 E13.23115
G1 X69.685 Y56.142 E13.25734
G1 X70.515 Y56.328 E13.28563
G1 X71.164 Y56.495 E13.30792
G1 X71.719 Y56.651 E13.3271
G1 X72.203 Y56.8 E13.34394
G1 X73.376 Y57.191 E13.38506
G1 X74.61 Y57.645 E13.4288
G1 X75.816 Y58.131 E13.47204
G1 X77.007 Y58.648 E13.51523
G1 X78.57 Y59.375 E13.57256
G1 X80.083 Y60.122 E13.62868
G1 X80.919 Y60.559 E13.66006
G1 X81.716 Y61.021 E13.6907
G1 X82.47 Y61.549 E13.72131
G1 X83.193 Y62.159 E13.75278
G1 X83.819 Y62.738 E13.78114
G1 X85.347 Y64.198 E13.85143
G1 X85.952 Y64.764 E13.87898
G1 X131.889 Y108.399 E15.98628
G1 X142.528 Y118.536 E16.47504
G1 X148.247 Y124.016 E16.73848
G1 X149.459 Y125.191 E16.79463
G1 X149.874 Y125.605 E16.81412
G1 X151.941 Y127.603 E16.90974
G1 X154.141 Y129.754 E17.01207
G1 X158.533 Y134.091 E17.21737
G1 X162.629 Y138.195 E17.41022
G1 X165.96 Y141.585 E17.5683
G1 X168.821 Y144.545 E17.70522
G1 X171.401 Y147.268 E17.82998
G1 X173.334 Y149.354 E17.92457
G1 X173.79 Y149.869 E17.94745
G1 X174.37 Y150.584 E17.97807
G1 X174.886 Y151.347 E18.00871
G1 X175.426 Y152.341 E18.04633
G1 X175.937 Y153.419 E18.08601
G1 X176.216 Y154.025 E18.1082
G1 X177.333 Y156.287 E18.19211
G1 X178.5 Y158.489 E18.27499
G1 X180.345 Y161.726 E18.39892
G1 X180.691 Y162.376 E18.42341
G1 X180.992 Y163.009 E18.44672
G1 X181.097 Y163.25 E18.45547
G1 X181.524 Y164.411 E18.49661
G1 X181.607 Y164.685 E18.50613
G1 X181.835 Y165.577 E18.53675
G1 X181.958 Y166.261 E18.55987
G1 X182.067 Y167.175 E18.59048
G1 X182.081 Y168.552 E18.63628
G1 X182.069 Y168.771 E18.64358
G1 X181.979 Y169.687 E18.67419
G1 X181.809 Y170.592 E18.70482
G1 X181.562 Y171.479 E18.73544
G1 X181.281 Y172.241 E18.76246
G1 X181.195 Y172.449 E18.76994
G1 X180.806 Y173.284 E18.80058
G1 X180.347 Y174.082 E18.8312
G1 X179.82 Y174.837 E18.86182
G1 X179.23 Y175.543 E18.89243
G1 X178.625 Y176.154 E18.92102
G1 X178.449 Y176.318 E18.92903
G1 X177.749 Y176.916 E18.95965
G1 X177 Y177.451 E18.99026
G1 X176.207 Y177.918 E19.02087
G1 X175.431 Y178.292 E19.04952
G1 X175.179 Y178.401 E19.05865
G1 X174.319 Y178.729 E19.08927
G1 X173.07 Y179.062 E19.13226
G1 X172.872 Y179.102 E19.13898
G1 X171.963 Y179.245 E19.16958
G1 X171.253 Y179.301 E19.19327
G1 X170.746 Y179.324 E19.21015
G1 X169.557 Y179.311 E19.2497
G1 X169.229 Y179.289 E19.26063
G1 X168.576 Y179.225 E19.28246
G1 X167.807 Y179.112 E19.30831
G1 X167.029 Y178.969 E19.33462
G1 X164.689 Y178.488 E19.41407
G1 X162.237 Y178.056 E19.49688
G1 X159.699 Y177.682 E19.58221
G1 X157.222 Y177.388 E19.66517
G1 X155.304 Y177.211 E19.72924
G1 X154.865 Y177.16 E19.74394
G1 X153.956 Y177.014 E19.77456
G1 X153.063 Y176.79 E19.80518
G1 X152.193 Y176.489 E19.8358
G1 X151.612 Y176.239 E19.85684
G1 X150.886 Y175.899 E19.8835
G1 X149.466 Y175.197 E19.93619
G1 X147.971 Y174.424 E19.99216
G1 X146.602 Y173.688 E20.04386
G1 X145.133 Y172.87 E20.09978
G1 X143.599 Y171.984 E20.1587
G1 X142.235 Y171.169 E20.21155
G1 X140.799 Y170.284 E20.26765
G1 X139.379 Y169.386 E20.32353
G1 X137.999 Y168.488 E20.3783
G1 X136.608 Y167.559 E20.43393
G1 X135.176 Y166.581 E20.49161
G1 X133.685 Y165.537 E20.55215
G1 X132.336 Y164.572 E20.60731
G1 X130.931 Y163.546 E20.66518
G1 X129.587 Y162.543 E20.72095
G1 X128.133 Y161.439 E20.78167
G1 X126.648 Y160.285 E20.84423
G1 X125.351 Y159.258 E20.89925
G1 X124.028 Y158.194 E20.95572
G1 X122.725 Y157.129 E21.01169
G1 X121.213 Y155.869 E21.07715
G1 X119.847 Y154.711 E21.13671
G1 X118.516 Y153.564 E21.19515
G1 X116.929 Y152.174 E21.26532
G1 X115.611 Y151.002 E21.32398
G1 X114.079 Y149.618 E21.39265
G1 X112.538 Y148.201 E21.46228
G1 X111.206 Y146.96 E21.52283
G1 X109.622 Y145.459 E21.59541
G1 X108.133 Y144.028 E21.6641
G1 X106.765 Y142.695 E21.72763
G1 X105.396 Y141.342 E21.79165
G1 X103.968 Y139.915 E21.85879
G1 X102.276 Y138.197 E21.93899
G1 X100.77 Y136.646 E22.01089
G1 X99.454 Y135.273 E22.07415
G1 X97.779 Y133.504 E22.15518
G1 X96.312 Y131.935 E22.22662
G1 X94.831 Y130.331 E22.29923
G1 X93.289 Y128.64 E22.37535
G1 X91.779 Y126.963 E22.4504
G1 X90.281 Y125.282 E22.52529
G1 X88.755 Y123.549 E22.60209
G1 X85.92 Y120.272 E22.74621
G1 X84.079 Y118.107 E22.84074
G1 X82.437 Y116.153 E22.92563
G1 X79.542 Y112.651 E23.07675
G1 X77.782 Y110.485 E23.16958
G1 X76.258 Y108.588 E23.25051
G1 X74.819 Y106.78 E23.32737
G1 X71.986 Y103.166 E23.4801
G1 X68.862 Y99.1 E23.65064
G1 X66.125 Y95.474 E23.80174
G1 X63.443 Y91.858 E23.95148
G1 X60.768 Y88.196 E24.10232
G1 X58.836 Y85.51 E24.21236
G1 X58.471 Y84.987 E24.23357
G1 X57.814 Y83.917 E24.27534
G1 X57.181 Y82.723 E24.32028
G1 X56.666 Y81.682 E24.35891
G1 X56.111 Y80.514 E24.40192
G1 X55.54 Y79.241 E24.44833
G1 X55.039 Y78.045 E24.49146
G1 X54.575 Y76.843 E24.53431
G1 X54.284 Y76.023 E24.56325
G1 X54.157 Y75.642 E24.57661
G1 X53.818 Y74.558 E24.61438
G1 X53.55 Y73.594 E24.64766
G1 X53.407 Y73.018 E24.6674
G1 X53.306 Y72.548 E24.68339
G1 X53.22 Y72.1 E24.69856
G1 X53.122 Y71.493 E24.71901
G1 X53.021 Y70.73 E24.74461
G1 X52.948 Y69.969 E24.77004
G1 X52.91 Y69.102 E24.7989
G1 X52.908 Y68.843 E24.80752
G0 F6000 X53.308 Y68.84
G1 F1200 X53.334 Y68.029 E24.83451
G1 X53.362 Y67.64 E24.84748
G1 X53.442 Y66.906 E24.87204
G1 X53.494 Y66.548 E24.88407
G1 X53.755 Y65.303 E24.92638
G1 X53.83 Y65.031 E24.93576
G1 X54.204 Y63.926 E24.97456
G1 X54.323 Y63.631 E24.98514
G1 X54.697 Y62.809 E25.01518
G1 X55.062 Y62.149 E25.04026
G1 X55.546 Y61.386 E25.07032
G1 X56.027 Y60.75 E25.09684
G1 X56.224 Y60.51 E25.10717
G1 X56.827 Y59.838 E25.1372
G1 X57.664 Y59.075 E25.17486
G1 X57.972 Y58.824 E25.18808
G1 X58.697 Y58.285 E25.21813
G1 X59.37 Y57.867 E25.24448
G1 X59.572 Y57.752 E25.25221
G1 X60.375 Y57.34 E25.28223
G1 X61.025 Y57.07 E25.30564
G1 X61.381 Y56.936 E25.31829
G1 X62.526 Y56.58 E25.35817
G1 X62.797 Y56.513 E25.36745
G1 X63.682 Y56.335 E25.39748
G1 X64.184 Y56.27 E25.41432
G1 X64.796 Y56.206 E25.43478
G1 X65.857 Y56.151 E25.47012
G1 X66.182 Y56.151 E25.48093
G1 X66.837 Y56.172 E25.50272
G1 X67.21 Y56.196 E25.51516
G1 X67.984 Y56.276 E25.54104
G1 X68.853 Y56.399 E25.57023
G1 X69.6 Y56.533 E25.59547
G1 X70.417 Y56.716 E25.62332
G1 X71.056 Y56.881 E25.64527
G1 X71.611 Y57.037 E25.66444
G1 X72.077 Y57.179 E25.68064
G1 X73.25 Y57.57 E25.72177
G1 X74.47 Y58.019 E25.76501
G1 X75.665 Y58.502 E25.80788
G1 X77.058 Y59.11 E25.85843
G1 X78.393 Y59.734 E25.90744
G1 X79.898 Y60.477 E25.96327
G1 X80.734 Y60.914 E25.99464
G1 X81.515 Y61.367 E26.02467
G1 X82.253 Y61.888 E26.05472
G1 X82.922 Y62.453 E26.08384
G1 X83.543 Y63.027 E26.11197
G1 X85.119 Y64.533 E26.18447
G1 X85.677 Y65.054 E26.20986
G1 X131.613 Y108.689 E28.31713
G1 X142.251 Y118.824 E28.80582
G1 X147.969 Y124.304 E29.06924
G1 X149.177 Y125.475 E29.1252
G1 X149.561 Y125.858 E29.14324
G1 X151.661 Y127.889 E29.24041
G1 X153.86 Y130.038 E29.34267
G1 X158.25 Y134.374 E29.5479
G1 X162.344 Y138.475 E29.74063
G1 X165.672 Y141.863 E29.89859
G1 X168.531 Y144.82 E30.03539
G1 X171.108 Y147.54 E30.16001
G1 X173.035 Y149.619 E30.25429
G1 X173.491 Y150.134 E30.27717
G1 X174.059 Y150.836 E30.30721
G1 X174.563 Y151.586 E30.33726
G1 X175.064 Y152.513 E30.37231
G1 X175.574 Y153.586 E30.41182
G1 X175.852 Y154.19 E30.43394
G1 X176.979 Y156.472 E30.51859
G1 X178.163 Y158.707 E30.60271
G1 X179.997 Y161.924 E30.72588
G1 X180.335 Y162.56 E30.74983
G1 X180.625 Y163.169 E30.77227
G1 X180.73 Y163.41 E30.78101
G1 X181.141 Y164.527 E30.8206
G1 X181.224 Y164.801 E30.83012
G1 X181.528 Y166.112 E30.87488
G1 X181.563 Y166.326 E30.88209
G1 X181.669 Y167.222 E30.9121
G1 X181.682 Y168.53 E30.95561
G1 X181.67 Y168.749 E30.9629
G1 X181.58 Y169.648 E30.99295
G1 X181.412 Y170.535 E31.02298
G1 X181.166 Y171.404 E31.05302
G1 X180.911 Y172.088 E31.0773
G1 X180.825 Y172.296 E31.08478
G1 X180.443 Y173.115 E31.11484
G1 X179.991 Y173.896 E31.14485
G1 X179.471 Y174.635 E31.17491
G1 X178.888 Y175.324 E31.20493
G1 X178.353 Y175.861 E31.23014
G1 X178.177 Y176.025 E31.23814
G1 X177.489 Y176.611 E31.2682
G1 X176.753 Y177.134 E31.29823
G1 X175.973 Y177.589 E31.32826
G1 X175.272 Y177.925 E31.35412
G1 X175.02 Y178.034 E31.36325
G1 X174.176 Y178.355 E31.39328
G1 X172.991 Y178.67 E31.43407
G1 X172.793 Y178.71 E31.44078
G1 X171.901 Y178.849 E31.47081
G1 X171.235 Y178.902 E31.49303
G1 X170.728 Y178.925 E31.50991
G1 X169.583 Y178.912 E31.548
G1 X169.255 Y178.89 E31.55893
G1 X168.627 Y178.828 E31.57992
G1 X167.878 Y178.719 E31.60509
G1 X167.11 Y178.577 E31.63107
G1 X164.773 Y178.096 E31.71043
G1 X162.287 Y177.658 E31.79439
G1 X159.773 Y177.288 E31.8789
G1 X157.233 Y176.987 E31.96398
G1 X155.35 Y176.814 E32.02687
