;FLAVOR:Marlin
;TIME:2860
;Filament used: 1.96062m
;Layer height: 0.2
;MINX:69.502
;MINY:102.765
;MINZ:0.2
;MAXX:165.491
;MAXY:125.967
;MAXZ:15
;Generated with Cura_SteamEngine 5.0.0
M140 S70
M105
M190 S70
M104 S200
M105
M109 S200
M82 ;absolute extrusion mode
; Ender 3 Custom Start G-code
G28 ; Home all axes
M420 S1; Bed Leveling On
G92 E0 ; Reset Extruder
G1 Z2.0 F3000 ; Move Z Axis up little to prevent scratching of Heat Bed
G1 X0.1 Y20 Z0.3 F5000.0 ; Move to start position
G1 X0.1 Y200.0 Z0.3 F1500.0 E15 ; Draw the first line
G1 X0.4 Y200.0 Z0.3 F5000.0 ; Move to side a little
G1 X0.4 Y20 Z0.3 F1500.0 E30 ; Draw the second line
G92 E0 ; Reset Extruder
G1 Z2.0 F3000 ; Move Z Axis up little to prevent scratching of Heat Bed
G1 X5 Y20 Z0.3 F5000.0 ; Move over to prevent blob squish
G92 E0
G92 E0
G1 F2700 E-5
;LAYER_COUNT:75
;LAYER:0
M107
G0 F6000 X74.117 Y104.823 Z0.2
G0 X69.502 Y114.276
;TYPE:SKIRT
G1 F2700 E0
G1 F900 X69.51 Y113.637 E0.02125
G1 X69.562 Y112.701 E0.05243
G1 X69.693 Y111.772 E0.08364
G1 X69.903 Y110.858 E0.11483
G1 X70.19 Y109.965 E0.14603
G1 X70.552 Y109.1 E0.17722
G1 X70.986 Y108.269 E0.2084
G1 X71.49 Y107.478 E0.23959
G1 X72.059 Y106.732 E0.2708
G1 X72.69 Y106.038 E0.302
G1 X73.377 Y105.4 E0.33318
G1 X74.117 Y104.823 E0.36439
G1 X74.902 Y104.311 E0.39556
G1 X75.729 Y103.868 E0.42676
G1 X76.59 Y103.497 E0.45795
G1 X77.48 Y103.2 E0.48915
G1 X78.392 Y102.981 E0.52035
G1 X79.319 Y102.84 E0.55154
G1 X80.201 Y102.779 E0.58094
G1 X80.83 Y102.766 E0.60187
G1 X143.792 Y102.765 E2.69599
G1 X144.702 Y102.778 E2.72626
G1 X145.607 Y102.831 E2.75641
G1 X146.677 Y102.937 E2.79218
G1 X149.229 Y103.154 E2.87736
G1 X151.775 Y103.298 E2.96218
G1 X154.783 Y103.378 E3.06226
G1 X155.719 Y103.443 E3.09347
G1 X156.646 Y103.587 E3.12467
G1 X157.557 Y103.81 E3.15586
G1 X158.445 Y104.11 E3.18704
G1 X159.305 Y104.484 E3.21823
G1 X160.13 Y104.93 E3.24942
G1 X160.914 Y105.445 E3.28062
G1 X161.651 Y106.025 E3.31181
G1 X162.337 Y106.665 E3.34302
G1 X162.965 Y107.361 E3.3742
G1 X163.531 Y108.109 E3.40539
G1 X164.032 Y108.902 E3.43659
G1 X164.464 Y109.734 E3.46777
G1 X164.823 Y110.601 E3.49898
G1 X165.107 Y111.495 E3.53018
G1 X165.313 Y112.41 E3.56138
G1 X165.441 Y113.339 E3.59257
G1 X165.49 Y114.354 E3.62637
G1 X165.491 Y114.917 E3.64509
G1 X165.453 Y115.855 E3.67632
G1 X165.335 Y116.785 E3.7075
G1 X165.138 Y117.702 E3.73869
G1 X164.864 Y118.599 E3.76989
G1 X164.514 Y119.469 E3.80108
G1 X164.091 Y120.306 E3.83227
G1 X163.599 Y121.105 E3.86348
G1 X163.041 Y121.858 E3.89465
G1 X162.42 Y122.561 E3.92585
G1 X161.742 Y123.209 E3.95704
G1 X161.011 Y123.797 E3.98824
G1 X160.232 Y124.32 E4.01945
G1 X159.412 Y124.775 E4.05064
G1 X158.556 Y125.158 E4.08183
G1 X157.671 Y125.467 E4.11301
G1 X156.762 Y125.7 E4.14422
G1 X155.837 Y125.854 E4.17541
G1 X154.737 Y125.934 E4.21209
G1 X153.476 Y125.96 E4.25404
G1 X145.811 Y125.967 E4.50898
G1 X145.133 Y125.957 E4.53153
G1 X144.685 Y125.941 E4.54644
G1 X142.063 Y125.795 E4.63379
G1 X138.191 Y125.715 E4.7626
G1 X81.051 Y125.715 E6.66308
G1 X80.352 Y125.705 E6.68633
G1 X79.415 Y125.651 E6.71755
G1 X78.487 Y125.519 E6.74873
G1 X77.573 Y125.307 E6.77993
G1 X76.681 Y125.018 E6.81112
G1 X75.816 Y124.655 E6.84232
G1 X74.986 Y124.219 E6.8735
G1 X74.196 Y123.714 E6.90469
G1 X73.451 Y123.143 E6.93591
G1 X72.758 Y122.511 E6.9671
G1 X72.121 Y121.823 E6.99829
G1 X71.546 Y121.082 E7.02948
G1 X71.035 Y120.296 E7.06067
G1 X70.593 Y119.468 E7.09188
G1 X70.224 Y118.607 E7.12304
G1 X69.929 Y117.716 E7.15426
G1 X69.711 Y116.804 E7.18544
G1 X69.571 Y115.877 E7.21663
G1 X69.513 Y115.007 E7.24563
G1 X69.502 Y114.276 E7.26994
G0 F6000 X69.905 Y114.704
G1 F900 X69.91 Y113.642 E7.30526
G1 X69.961 Y112.723 E7.33588
G1 X70.092 Y111.812 E7.36649
G1 X70.302 Y110.915 E7.39713
G1 X70.589 Y110.04 E7.42776
G1 X70.95 Y109.194 E7.45835
G1 X71.384 Y108.382 E7.48897
G1 X71.886 Y107.61 E7.5196
G1 X72.454 Y106.885 E7.55023
G1 X73.082 Y106.212 E7.58085
G1 X73.766 Y105.596 E7.61147
G1 X74.501 Y105.042 E7.64208
G1 X75.282 Y104.554 E7.67271
G1 X76.102 Y104.135 E7.70334
G1 X76.955 Y103.789 E7.73395
G1 X77.835 Y103.518 E7.76458
G1 X78.735 Y103.325 E7.79519
G1 X79.648 Y103.21 E7.8258
G1 X80.212 Y103.179 E7.84459
G1 X80.83 Y103.166 E7.86515
G1 X143.792 Y103.165 E9.95927
G1 X144.695 Y103.178 E9.98931
G1 X145.567 Y103.229 E10.01836
G1 X146.595 Y103.331 E10.05272
G1 X149.243 Y103.557 E10.14111
G1 X151.742 Y103.697 E10.22436
G1 X154.773 Y103.778 E10.32521
G1 X155.691 Y103.842 E10.35581
G1 X156.6 Y103.986 E10.38642
G1 X157.494 Y104.208 E10.41706
G1 X158.364 Y104.507 E10.44766
G1 X159.206 Y104.881 E10.4783
G1 X160.012 Y105.326 E10.50892
G1 X160.776 Y105.839 E10.53953
G1 X161.493 Y106.417 E10.57016
G1 X162.157 Y107.055 E10.60079
G1 X162.763 Y107.747 E10.63138
G1 X163.307 Y108.49 E10.66201
G1 X163.784 Y109.278 E10.69265
G1 X164.192 Y110.103 E10.72326
G1 X164.526 Y110.961 E10.75388
G1 X164.784 Y111.845 E10.78451
G1 X164.965 Y112.748 E10.81514
G1 X165.066 Y113.663 E10.84576
G1 X165.09 Y114.355 E10.86879
G1 X165.091 Y114.918 E10.88752
G1 X165.053 Y115.838 E10.91814
G1 X164.935 Y116.751 E10.94876
G1 X164.738 Y117.65 E10.97937
G1 X164.464 Y118.529 E11.01
G1 X164.114 Y119.381 E11.04063
G1 X163.692 Y120.199 E11.07124
G1 X163.201 Y120.978 E11.10187
G1 X162.644 Y121.711 E11.13249
G1 X162.026 Y122.393 E11.1631
G1 X161.35 Y123.019 E11.19375
G1 X160.623 Y123.583 E11.22435
G1 X159.85 Y124.083 E11.25497
G1 X159.036 Y124.513 E11.28559
G1 X158.188 Y124.871 E11.3162
G1 X157.312 Y125.155 E11.34683
G1 X156.414 Y125.361 E11.37748
G1 X155.503 Y125.489 E11.40807
G1 X154.728 Y125.534 E11.43389
G1 X153.475 Y125.56 E11.47558
G1 X145.817 Y125.567 E11.73028
G1 X145.139 Y125.557 E11.75284
G1 X144.707 Y125.542 E11.76721
G1 X142.065 Y125.395 E11.85522
G1 X138.199 Y125.315 E11.98383
G1 X81.056 Y125.315 E13.88442
G1 X80.357 Y125.305 E13.90767
G1 X79.438 Y125.252 E13.93829
G1 X78.527 Y125.119 E13.96891
G1 X77.631 Y124.908 E13.99952
G1 X76.757 Y124.62 E14.03013
G1 X75.911 Y124.257 E14.06075
G1 X75.099 Y123.822 E14.09139
G1 X74.329 Y123.318 E14.122
G1 X73.605 Y122.749 E14.15262
G1 X72.933 Y122.12 E14.18324
G1 X72.318 Y121.434 E14.21388
G1 X71.765 Y120.698 E14.2445
G1 X71.278 Y119.917 E14.27511
G1 X70.861 Y119.096 E14.30574
G1 X70.516 Y118.242 E14.33637
G1 X70.247 Y117.362 E14.36698
G1 X70.055 Y116.462 E14.39759
G1 X69.942 Y115.548 E14.42822
G1 X69.905 Y114.704 E14.45632
G0 F6000 X70.302 Y114.286
G1 F900 X70.31 Y113.647 E14.47757
G1 X70.361 Y112.746 E14.50759
G1 X70.492 Y111.852 E14.53764
G1 X70.701 Y110.974 E14.56766
G1 X70.987 Y110.117 E14.59771
G1 X71.348 Y109.289 E14.62775
G1 X71.781 Y108.496 E14.6578
G1 X72.282 Y107.745 E14.68783
G1 X72.848 Y107.041 E14.71787
G1 X73.473 Y106.39 E14.74789
G1 X74.154 Y105.796 E14.77794
G1 X74.885 Y105.266 E14.80797
G1 X75.66 Y104.802 E14.83802
G1 X76.472 Y104.408 E14.86804
G1 X77.317 Y104.087 E14.8981
G1 X78.186 Y103.843 E14.92812
G1 X79.074 Y103.676 E14.95817
G1 X80.223 Y103.579 E14.99653
G1 X80.83 Y103.566 E15.01672
G1 X143.792 Y103.565 E17.11084
G1 X144.689 Y103.578 E17.14068
G1 X145.528 Y103.627 E17.16863
G1 X146.596 Y103.733 E17.20433
G1 X149.188 Y103.954 E17.29085
G1 X151.742 Y104.097 E17.37593
G1 X154.762 Y104.178 E17.47642
G1 X155.663 Y104.242 E17.50646
G1 X156.554 Y104.385 E17.53647
G1 X157.43 Y104.607 E17.56653
G1 X158.282 Y104.905 E17.59655
G1 X159.105 Y105.278 E17.6266
G1 X159.891 Y105.722 E17.65663
G1 X160.636 Y106.233 E17.68668
G1 X161.332 Y106.809 E17.71672
G1 X161.974 Y107.444 E17.74676
G1 X162.558 Y108.133 E17.7768
G1 X163.078 Y108.871 E17.80683
G1 X163.531 Y109.652 E17.83686
G1 X163.913 Y110.47 E17.86688
G1 X164.222 Y111.319 E17.89693
G1 X164.454 Y112.192 E17.92698
G1 X164.608 Y113.082 E17.95702
G1 X164.69 Y114.356 E17.99948
G1 X164.691 Y114.919 E18.0182
G1 X164.653 Y115.821 E18.04823
G1 X164.535 Y116.717 E18.07829
G1 X164.338 Y117.598 E18.10832
G1 X164.064 Y118.458 E18.13834
G1 X163.715 Y119.291 E18.16838
G1 X163.294 Y120.09 E18.19841
G1 X162.803 Y120.849 E18.22848
G1 X162.248 Y121.561 E18.25851
G1 X161.631 Y122.221 E18.28856
G1 X160.959 Y122.824 E18.31859
G1 X160.236 Y123.365 E18.34862
G1 X159.468 Y123.84 E18.37865
G1 X158.661 Y124.246 E18.4087
G1 X157.821 Y124.578 E18.43874
G1 X156.956 Y124.835 E18.46875
G1 X156.07 Y125.014 E18.49882
G1 X155.173 Y125.114 E18.52884
G1 X154.719 Y125.134 E18.54395
G1 X153.475 Y125.16 E18.58534
G1 X145.823 Y125.167 E18.83984
G1 X145.145 Y125.157 E18.8624
G1 X144.729 Y125.142 E18.87624
G1 X142.095 Y124.996 E18.96398
G1 X138.208 Y124.915 E19.09329
G1 X81.062 Y124.915 E20.99398
G1 X80.363 Y124.905 E21.01723
G1 X79.462 Y124.852 E21.04725
G1 X78.568 Y124.72 E21.0773
G1 X77.69 Y124.509 E21.10734
G1 X76.834 Y124.221 E21.13738
G1 X76.007 Y123.859 E21.1674
G1 X75.215 Y123.425 E21.19744
G1 X74.464 Y122.922 E21.2275
G1 X73.761 Y122.355 E21.25754
G1 X73.111 Y121.728 E21.28758
G1 X72.519 Y121.046 E21.31762
G1 X71.99 Y120.315 E21.34763
G1 X71.527 Y119.539 E21.37769
G1 X71.135 Y118.726 E21.40771
G1 X70.816 Y117.881 E21.43775
G1 X70.573 Y117.011 E21.46779
G1 X70.408 Y116.123 E21.49783
G1 X70.313 Y114.985 E21.53581
G1 X70.302 Y114.286 E21.55906
G1 F2700 E16.55906
G0 F6000 X79.847 Y115.369
G0 X145.153 Y115.368
G0 X145.5 Y114.565
G1 F2700 E21.55906
G1 F900 X154.3 Y114.564 E21.85175
G1 X154.3 Y114.759 E21.85824
G1 X145.5 Y114.769 E22.15093
G1 X145.5 Y114.565 E22.15771
;MESH:LE_Mid.stl(4)
G0 F6000 X144.263 Y114.24
;TYPE:WALL-OUTER
G1 F757.9 X144.263 Y114.002 E22.16711
G1 X80.737 Y114.003 E24.67616
G1 X80.737 Y114.479 E24.69496
G1 X144.263 Y114.478 E27.20401
G1 X144.263 Y114.24 E27.21341
G1 F2700 E22.21341
;MESH:NONMESH
G0 F300 X144.263 Y114.24 Z0.4
G0 F6000 X145.391 Y114.456
;TIME_ELAPSED:61.176090
;LAYER:1
M140 S60
M106 S85
;TYPE:SUPPORT
G1 F2700 E27.21341
G1 F1137.4 X145.391 Y114.878 E27.22822
G1 F1140.1 X147.153 Y114.877 E27.2899
G1 F1142.9 X148.915 Y114.876 E27.35143
G1 X150.677 Y114.874 E27.41297
G1 F1145.6 X152.439 Y114.873 E27.47436
G1 F1148.3 X154.201 Y114.872 E27.5356
G1 X154.411 Y114.87 E27.5429
G1 X154.411 Y114.662 E27.55013
G1 X154.411 Y114.453 E27.55739
G1 X154.202 Y114.453 E27.56466
G1 X152.44 Y114.453 E27.6259
G1 F1145.6 X150.678 Y114.454 E27.68729
G1 F1142.9 X148.916 Y114.454 E27.74882
G1 X147.154 Y114.455 E27.81036
G1 F1140.1 X145.392 Y114.455 E27.87204
G1 F2700 E22.87204
;MESH:LE_Mid.stl(4)
G0 F7500 X145.153 Y113.712
G0 X145.153 Y112.795
G0 X80.699 Y112.784
G0 X80.7 Y113.649
;TYPE:WALL-OUTER
G1 F2700 E27.87204
G1 F1200 X80.7 Y114.965 E27.91581
G1 X144.3 Y114.964 E30.03115
G1 X144.3 Y113.648 E30.07492
G1 X80.7 Y113.649 E32.19027
G1 F2700 E27.19027
G0 F7500 X80.699 Y112.784
G0 X79.847 Y112.796
G0 X79.847 Y115.818
G0 X143.872 Y115.829
G0 X143.871 Y114.535
;TYPE:WALL-INNER
G1 F2700 E32.19027
G1 F1048 X143.871 Y114.077 E32.20771
G1 X81.129 Y114.078 E34.5971
G1 X81.129 Y114.536 E34.61454
G1 X143.871 Y114.535 E37.00394
G1 F2700 E32.00394
;MESH:NONMESH
G0 F300 X143.871 Y114.535 Z0.6
G0 F7500 X145.391 Y114.456
;TIME_ELAPSED:79.325599
;LAYER:2
M106 S170
;TYPE:SUPPORT
G1 F2700 E37.00394
G1 F1421.8 X145.391 Y114.878 E37.01875
G1 F1425.2 X147.153 Y114.877 E37.08043
G1 F1428.6 X148.915 Y114.876 E37.14196
G1 X150.677 Y114.874 E37.2035
G1 F1432 X152.439 Y114.873 E37.26488
G1 F1435.4 X154.201 Y114.872 E37.32613
G1 X154.411 Y114.87 E37.33343
G1 X154.411 Y114.453 E37.34792
G1 X154.202 Y114.453 E37.35518
G1 X152.44 Y114.453 E37.41643
G1 F1432 X150.678 Y114.454 E37.47781
G1 F1428.6 X148.916 Y114.454 E37.53935
G1 X147.154 Y114.455 E37.60088
G1 F1425.2 X145.392 Y114.455 E37.66256
;MESH:LE_Mid.stl(4)
G0 F9000 X144.3 Y114.375
;TYPE:WALL-OUTER
G1 F1500 X144.3 Y113.438 E37.69373
G1 X80.7 Y113.438 E39.80907
G1 X80.7 Y115.313 E39.87144
G1 X144.3 Y115.312 E41.98678
G1 X144.3 Y114.375 E42.01794
G0 F9000 X143.9 Y114.912
;TYPE:WALL-INNER
G1 F1500 X143.9 Y114.375 E42.03581
G1 X143.9 Y113.838 E42.05367
G1 X81.1 Y113.838 E44.1424
G1 X81.1 Y114.913 E44.17816
G1 X143.9 Y114.912 E46.26689
G0 F9000 X143.552 Y114.564
;TYPE:SKIN
G1 F1591.5 X143.552 Y114.375 E46.27282
G1 X143.552 Y114.186 E46.27874
G1 X135.789 Y114.186 E46.5221
G1 X128.026 Y114.186 E46.76545
G1 X120.263 Y114.186 E47.0088
G1 X112.5 Y114.186 E47.25215
G1 X104.737 Y114.186 E47.4955
G1 X96.974 Y114.186 E47.73886
G1 X89.211 Y114.186 E47.98221
G1 X81.448 Y114.187 E48.22556
G1 F1587.3 X81.449 Y114.564 E48.23741
G1 F1591.5 X89.212 Y114.564 E48.48076
G1 X96.975 Y114.564 E48.72411
G1 X104.738 Y114.564 E48.96746
G1 X112.501 Y114.564 E49.21082
G1 X120.264 Y114.564 E49.45417
G1 X128.027 Y114.564 E49.69752
G1 X135.79 Y114.564 E49.94087
G1 X143.553 Y114.564 E50.18423
G1 F2700 E45.18423
;MESH:NONMESH
G0 F300 X143.553 Y114.564 Z0.8
G0 F9000 X145.391 Y114.456
;TIME_ELAPSED:96.341795
;LAYER:3
M106 S255
;TYPE:SUPPORT
G1 F2700 E50.18423
G1 F1421.8 X145.391 Y114.878 E50.19903
G1 X145.602 Y114.878 E50.20644
G1 F1425.2 X147.322 Y114.877 E50.26665
G1 F1428.6 X149.042 Y114.876 E50.32672
G1 X150.762 Y114.874 E50.38678
G1 F1432 X152.482 Y114.873 E50.44671
G1 F1435.4 X154.202 Y114.871 E50.50649
G1 X154.411 Y114.87 E50.51375
G1 X154.411 Y114.453 E50.52825
G1 X154.202 Y114.453 E50.53551
G1 X152.44 Y114.453 E50.59675
G1 F1432 X150.678 Y114.454 E50.65814
G1 F1428.6 X148.916 Y114.454 E50.71968
G1 X147.154 Y114.455 E50.78121
G1 F1425.2 X145.392 Y114.455 E50.84289
G1 F2700 E45.84289
;MESH:LE_Mid.stl(4)
G0 F9000 X145.153 Y113.712
G0 X145.153 Y112.413
G0 X81.879 Y112.402
G0 X81.88 Y113.266
;TYPE:WALL-OUTER
G1 F2700 E50.84289
G1 F1500 X80.7 Y113.267 E50.88214
G1 X80.7 Y115.628 E50.96067
G1 X144.3 Y115.627 E53.07601
G1 X144.3 Y113.267 E53.1545
G1 X81.88 Y113.266 E55.2306
G1 F2700 E50.2306
G0 F9000 X81.879 Y112.402
G0 X143.899 Y112.402
G0 X143.9 Y113.667
;TYPE:WALL-INNER
G1 F2700 E55.2306
G1 F1500 X81.88 Y113.666 E57.2934
G1 X81.1 Y113.667 E57.31934
G1 X81.1 Y115.228 E57.37126
G1 X143.9 Y115.227 E59.45999
G1 X143.9 Y113.667 E59.51188
G0 F9000 X143.54 Y114.867
;TYPE:SKIN
G1 F1500 X143.54 Y114.447 E59.52585
G1 X143.54 Y114.027 E59.53982
G1 X81.46 Y114.027 E61.60461
G1 X81.46 Y114.868 E61.63258
G1 X143.54 Y114.867 E63.69737
G0 F9000 X143.16 Y114.226
G1 F1500 X142.719 Y114.667 E63.71811
G0 F9000 X142.594 Y114.226
G1 F1500 X142.153 Y114.667 E63.73886
G0 F9000 X142.028 Y114.226
G1 F1500 X141.588 Y114.667 E63.75957
G0 F9000 X141.463 Y114.226
G1 F1500 X141.022 Y114.667 E63.78032
G0 F9000 X140.897 Y114.226
G1 F1500 X140.456 Y114.667 E63.80106
G0 F9000 X140.331 Y114.226
G1 F1500 X139.891 Y114.667 E63.82178
G0 F9000 X139.766 Y114.226
G1 F1500 X139.325 Y114.667 E63.84252
G0 F9000 X139.2 Y114.226
G1 F1500 X138.759 Y114.667 E63.86327
G0 F9000 X138.634 Y114.226
G1 F1500 X138.194 Y114.667 E63.88399
G0 F9000 X138.068 Y114.226
G1 F1500 X137.628 Y114.667 E63.90471
G0 F9000 X137.503 Y114.226
G1 F1500 X137.062 Y114.667 E63.92545
G0 F9000 X136.937 Y114.226
G1 F1500 X136.497 Y114.667 E63.94617
G0 F9000 X136.371 Y114.226
G1 F1500 X135.931 Y114.667 E63.96689
G0 F9000 X135.806 Y114.226
G1 F1500 X135.365 Y114.667 E63.98763
G0 F9000 X135.24 Y114.226
G1 F1500 X134.8 Y114.667 E64.00835
G0 F9000 X134.674 Y114.226
G1 F1500 X134.234 Y114.667 E64.02907
G0 F9000 X134.109 Y114.226
G1 F1500 X133.668 Y114.667 E64.04982
G0 F9000 X133.543 Y114.226
G1 F1500 X133.102 Y114.667 E64.07056
G0 F9000 X132.977 Y114.226
G1 F1500 X132.537 Y114.667 E64.09128
G0 F9000 X132.412 Y114.226
G1 F1500 X131.971 Y114.667 E64.11202
G0 F9000 X131.846 Y114.226
G1 F1500 X131.405 Y114.667 E64.13277
G0 F9000 X131.28 Y114.226
G1 F1500 X130.84 Y114.667 E64.15349
G0 F9000 X130.715 Y114.226
G1 F1500 X130.274 Y114.667 E64.17423
G0 F9000 X130.149 Y114.226
G1 F1500 X129.708 Y114.667 E64.19497
G0 F9000 X129.583 Y114.226
G1 F1500 X129.143 Y114.667 E64.21569
G0 F9000 X129.017 Y114.226
G1 F1500 X128.577 Y114.667 E64.23641
G0 F9000 X128.452 Y114.226
G1 F1500 X128.011 Y114.667 E64.25716
G0 F9000 X127.886 Y114.226
G1 F1500 X127.446 Y114.667 E64.27788
G0 F9000 X127.32 Y114.226
G1 F1500 X126.88 Y114.667 E64.29859
G0 F9000 X126.755 Y114.226
G1 F1500 X126.314 Y114.667 E64.31934
G0 F9000 X126.189 Y114.226
G1 F1500 X125.749 Y114.667 E64.34006
G0 F9000 X125.623 Y114.226
G1 F1500 X125.183 Y114.667 E64.36078
G0 F9000 X125.058 Y114.226
G1 F1500 X124.617 Y114.667 E64.38152
