;FLAVOR:Marlin
;TIME:6181
;Filament used: 3.84688m
;Layer height: 0.2
;MINX:35.551
;MINY:35.31
;MINZ:0.2
;MAXX:199.434
;MAXY:199.7
;MAXZ:17
;Generated with Cura_SteamEngine 5.0.0
M140 S70
M105
M190 S70
M104 S200
M105
M109 S200
M82 ;absolute extrusion mode
; Ender 3 Custom Start G-code
G28 ; Home all axes
M420 S1; Bed Leveling On
G92 E0 ; Reset Extruder
G1 Z2.0 F3000 ; Move Z Axis up little to prevent scratching of Heat Bed
G1 X0.1 Y20 Z0.3 F5000.0 ; Move to start position
G1 X0.1 Y200.0 Z0.3 F1500.0 E15 ; Draw the first line
G1 X0.4 Y200.0 Z0.3 F5000.0 ; Move to side a little
G1 X0.4 Y20 Z0.3 F1500.0 E30 ; Draw the second line
G92 E0 ; Reset Extruder
G1 Z2.0 F3000 ; Move Z Axis up little to prevent scratching of Heat Bed
G1 X5 Y20 Z0.3 F5000.0 ; Move over to prevent blob squish
G92 E0
G92 E0
G1 F2700 E-5
;LAYER_COUNT:85
;LAYER:0
M107
G0 F6000 X38.785 Y38.849 Z0.2
G0 X35.551 Y46.594
;TYPE:SKIRT
G1 F2700 E0
G1 F900 X35.595 Y45.657 E0.0312
G1 X35.718 Y44.727 E0.0624
G1 X35.921 Y43.812 E0.09357
G1 X36.2 Y42.916 E0.12479
G1 X36.555 Y42.048 E0.15598
G1 X36.982 Y41.213 E0.18717
G1 X37.479 Y40.418 E0.21835
G1 X38.042 Y39.668 E0.24954
G1 X38.785 Y38.849 E0.28632
G1 X39.116 Y38.519 E0.30187
G1 X39.807 Y37.886 E0.33304
G1 X40.551 Y37.314 E0.36425
G1 X41.34 Y36.807 E0.39544
G1 X42.169 Y36.37 E0.42661
G1 X43.033 Y36.004 E0.45782
G1 X43.925 Y35.714 E0.48902
G1 X44.838 Y35.501 E0.5202
G1 X45.766 Y35.366 E0.55139
G1 X46.703 Y35.31 E0.58261
G1 X47.64 Y35.335 E0.61379
G1 X48.572 Y35.44 E0.64498
G1 X49.492 Y35.623 E0.67618
G1 X50.393 Y35.884 E0.70738
G1 X51.268 Y36.221 E0.73857
G1 X52.111 Y36.632 E0.76976
G1 X52.917 Y37.112 E0.80096
G1 X53.678 Y37.66 E0.83215
G1 X54.39 Y38.27 E0.86334
G1 X54.927 Y38.807 E0.88859
G1 X55.374 Y39.286 E0.91039
G1 X57.141 Y41.129 E0.99531
G1 X59.666 Y43.593 E1.11265
G1 X63.331 Y47.089 E1.28111
G1 X98.218 Y80.225 E2.88144
G1 X99.854 Y81.787 E2.95667
G1 X100.431 Y82.327 E2.98295
G1 X146.337 Y125.933 E5.08883
G1 X156.42 Y135.54 E5.55205
G1 X162.095 Y140.973 E5.81335
G1 X163.939 Y142.756 E5.89867
G1 X164.426 Y143.24 E5.9215
G1 X166.433 Y145.18 E6.01434
G1 X170.141 Y148.812 E6.18698
G1 X174.515 Y153.152 E6.39192
G1 X177.383 Y156.033 E6.52713
G1 X180.344 Y159.048 E6.66768
G1 X183.105 Y161.902 E6.79975
G1 X185.764 Y164.702 E6.92819
G1 X187.725 Y166.817 E7.02411
G1 X189.468 Y168.738 E7.11039
G1 X190.434 Y169.829 E7.15885
G1 X191.847 Y171.472 E7.23093
G1 X192.707 Y172.502 E7.27556
G1 X193.637 Y173.652 E7.32475
G1 X194.381 Y174.611 E7.36512
G1 X195.341 Y175.915 E7.41898
G1 X195.822 Y176.612 E7.44714
G1 X196.395 Y177.493 E7.4821
G1 X196.847 Y178.248 E7.51137
G1 X197.249 Y178.965 E7.53871
G1 X197.698 Y179.86 E7.57201
G1 X198.111 Y180.785 E7.6057
G1 X198.508 Y181.809 E7.64223
G1 X198.688 Y182.352 E7.66126
G1 X198.913 Y183.124 E7.688
G1 X199.06 Y183.707 E7.708
G1 X199.304 Y184.994 E7.75157
G1 X199.336 Y185.243 E7.75992
G1 X199.424 Y186.432 E7.79957
G1 X199.434 Y186.948 E7.81674
G1 X199.412 Y187.885 E7.84791
G1 X199.311 Y188.818 E7.87913
G1 X199.157 Y189.64 E7.90694
G1 X198.931 Y190.55 E7.93813
G1 X198.605 Y191.496 E7.97141
G1 X198.525 Y191.698 E7.97863
G1 X198.143 Y192.555 E8.00984
G1 X197.689 Y193.376 E8.04104
G1 X197.291 Y193.983 E8.06519
G1 X197.148 Y194.186 E8.07345
G1 X196.575 Y194.929 E8.10465
G1 X195.942 Y195.62 E8.13582
G1 X195.108 Y196.375 E8.17324
G1 X194.891 Y196.552 E8.18255
G1 X194.139 Y197.113 E8.21376
G1 X193.515 Y197.509 E8.23834
G1 X193.243 Y197.669 E8.24883
G1 X191.999 Y198.299 E8.29521
G1 X191.032 Y198.672 E8.32968
G1 X190.538 Y198.837 E8.34701
G1 X189.706 Y199.079 E8.37583
G1 X189.191 Y199.207 E8.39348
G1 X188.46 Y199.363 E8.41834
G1 X188.026 Y199.44 E8.433
G1 X187.34 Y199.539 E8.45605
G1 X186.375 Y199.639 E8.48832
G1 X185.997 Y199.666 E8.50092
G1 X185.431 Y199.692 E8.51977
G1 X185.027 Y199.7 E8.53321
G1 X184.511 Y199.698 E8.55037
G1 X183.393 Y199.661 E8.58758
G1 X182.875 Y199.629 E8.60484
G1 X182.386 Y199.588 E8.62116
G1 X181.411 Y199.484 E8.65377
G1 X180.864 Y199.412 E8.67212
G1 X179.875 Y199.256 E8.70542
G1 X179.382 Y199.166 E8.72209
G1 X178.166 Y198.917 E8.76337
G1 X177.761 Y198.826 E8.77718
G1 X176.399 Y198.493 E8.82381
G1 X175.063 Y198.123 E8.86992
G1 X173.538 Y197.647 E8.92306
G1 X171.995 Y197.116 E8.97733
G1 X170.657 Y196.617 E9.02483
G1 X169.044 Y195.97 E9.08263
G1 X167.482 Y195.304 E9.13911
G1 X166.211 Y194.728 E9.18552
G1 X164.285 Y193.805 E9.25656
G1 X163.166 Y193.243 E9.2982
G1 X161.426 Y192.333 E9.36351
G1 X159.662 Y191.366 E9.43042
G1 X157.906 Y190.362 E9.4977
G1 X156.25 Y189.375 E9.56182
G1 X154.54 Y188.32 E9.62865
G1 X152.824 Y187.224 E9.69637
G1 X151.166 Y186.133 E9.76238
G1 X149.464 Y184.977 E9.83081
G1 X147.805 Y183.82 E9.89809
G1 X146.205 Y182.677 E9.96349
G1 X144.457 Y181.394 E10.03561
G1 X142.958 Y180.269 E10.09794
G1 X141.211 Y178.927 E10.17121
G1 X139.507 Y177.586 E10.24333
G1 X137.933 Y176.321 E10.3105
G1 X136.275 Y174.959 E10.38186
G1 X134.545 Y173.509 E10.45694
G1 X132.813 Y172.028 E10.53274
G1 X131.123 Y170.552 E10.60736
G1 X129.537 Y169.143 E10.67793
G1 X127.705 Y167.484 E10.76013
G1 X126.098 Y166.003 E10.83281
G1 X124.233 Y164.25 E10.91794
G1 X122.535 Y162.627 E10.99607
G1 X120.69 Y160.833 E11.08166
G1 X118.993 Y159.155 E11.16104
G1 X117.387 Y157.541 E11.23677
G1 X115.588 Y155.707 E11.32221
G1 X113.736 Y153.786 E11.41096
G1 X111.792 Y151.738 E11.50488
G1 X110.039 Y149.861 E11.5903
G1 X108.192 Y147.854 E11.68102
G1 X106.469 Y145.955 E11.76631
G1 X104.638 Y143.909 E11.85763
G1 X102.906 Y141.945 E11.94472
G1 X100.933 Y139.678 E12.04468
G1 X99.235 Y137.699 E12.13141
G1 X97.165 Y135.251 E12.23804
G1 X95.357 Y133.086 E12.33185
G1 X93.458 Y130.782 E12.43116
G1 X91.757 Y128.692 E12.52079
G1 X89.905 Y126.385 E12.61918
G1 X88.07 Y124.07 E12.71743
G1 X86.308 Y121.822 E12.81243
G1 X84.498 Y119.482 E12.91083
G1 X82.824 Y117.294 E13.00246
G1 X81.047 Y114.948 E13.10034
G1 X79.382 Y112.725 E13.19272
G1 X76.387 Y108.67 E13.36039
G1 X74.83 Y106.534 E13.4483
G1 X71.812 Y102.334 E13.62032
G1 X69.086 Y98.481 E13.7773
G1 X66.758 Y95.15 E13.91247
G1 X64.398 Y91.727 E14.05075
G1 X61.006 Y86.741 E14.25133
G1 X60.155 Y85.477 E14.30201
G1 X60.071 Y85.34 E14.30735
G1 X50.295 Y70.835 E14.88913
G1 X47.172 Y66.225 E15.07433
G1 X43.972 Y61.573 E15.26213
G1 X42.371 Y59.286 E15.35498
G1 X40.841 Y57.176 E15.44167
G1 X39.298 Y55.169 E15.52587
G1 X37.985 Y53.54 E15.59546
G1 X37.429 Y52.786 E15.62662
G1 X36.938 Y51.986 E15.65784
G1 X36.518 Y51.148 E15.68902
G1 X36.17 Y50.277 E15.72021
G1 X35.898 Y49.379 E15.75142
G1 X35.703 Y48.462 E15.7826
G1 X35.587 Y47.531 E15.81381
G1 X35.551 Y46.594 E15.84499
G0 F6000 X35.953 Y46.46
G1 F900 X36.008 Y45.541 E15.87562
G1 X36.143 Y44.631 E15.90621
G1 X36.356 Y43.735 E15.93685
G1 X36.647 Y42.862 E15.96745
G1 X37.012 Y42.016 E15.9981
G1 X37.449 Y41.206 E16.02871
G1 X37.955 Y40.437 E16.05933
G1 X38.525 Y39.714 E16.08995
G1 X39.067 Y39.132 E16.1164
G1 X39.398 Y38.802 E16.13194
G1 X40.078 Y38.181 E16.16257
G1 X40.809 Y37.621 E16.1932
G1 X41.585 Y37.127 E16.2238
G1 X42.402 Y36.702 E16.25443
G1 X43.252 Y36.35 E16.28503
G1 X44.13 Y36.072 E16.31566
G1 X45.029 Y35.872 E16.34629
G1 X45.942 Y35.751 E16.37692
G1 X46.861 Y35.709 E16.40752
G1 X47.781 Y35.747 E16.43815
G1 X48.694 Y35.865 E16.46876
G1 X49.594 Y36.062 E16.49941
G1 X50.473 Y36.336 E16.53003
G1 X51.324 Y36.685 E16.56062
G1 X52.143 Y37.107 E16.59127
G1 X52.921 Y37.598 E16.62186
G1 X53.655 Y38.155 E16.65251
G1 X54.634 Y39.08 E16.69731
G1 X55.075 Y39.553 E16.71882
G1 X56.87 Y41.425 E16.80508
G1 X59.308 Y43.804 E16.91838
G1 X63.056 Y47.379 E17.09065
G1 X97.942 Y80.515 E18.69095
G1 X99.528 Y82.03 E18.7639
G1 X100.155 Y82.617 E18.79247
G1 X146.061 Y126.223 E20.89835
G1 X156.143 Y135.829 E21.36152
G1 X161.817 Y141.26 E21.62275
G1 X163.658 Y143.04 E21.70792
G1 X164.149 Y143.528 E21.73095
G1 X166.153 Y145.465 E21.82365
G1 X169.86 Y149.096 E21.99623
G1 X174.232 Y153.434 E22.20108
G1 X177.098 Y156.313 E22.3362
G1 X180.057 Y159.326 E22.47665
G1 X182.815 Y162.177 E22.60859
G1 X185.471 Y164.974 E22.73688
G1 X187.429 Y167.086 E22.83267
G1 X189.168 Y169.003 E22.91875
G1 X190.131 Y170.09 E22.96705
G1 X191.54 Y171.729 E23.03894
G1 X192.396 Y172.754 E23.08336
G1 X193.321 Y173.899 E23.13231
G1 X194.06 Y174.849 E23.17234
G1 X195.013 Y176.144 E23.22582
G1 X195.488 Y176.832 E23.25363
G1 X196.053 Y177.701 E23.2881
G1 X196.498 Y178.444 E23.31691
G1 X196.9 Y179.161 E23.34425
G1 X197.333 Y180.023 E23.37633
G1 X197.746 Y180.948 E23.41003
G1 X198.129 Y181.935 E23.44524
G1 X198.309 Y182.478 E23.46427
G1 X198.525 Y183.221 E23.49
G1 X198.672 Y183.804 E23.51
G1 X198.908 Y185.045 E23.55202
G1 X198.94 Y185.294 E23.56037
G1 X199.024 Y186.44 E23.59858
G1 X199.034 Y186.956 E23.61575
G1 X199.012 Y187.876 E23.64636
G1 X198.91 Y188.791 E23.67698
G1 X198.765 Y189.56 E23.70301
G1 X198.542 Y190.453 E23.73362
G1 X198.233 Y191.349 E23.76514
G1 X198.153 Y191.551 E23.77237
G1 X197.777 Y192.392 E23.80301
G1 X197.33 Y193.196 E23.83361
G1 X196.964 Y193.752 E23.85575
G1 X196.821 Y193.955 E23.864
G1 X196.258 Y194.684 E23.89464
G1 X195.635 Y195.362 E23.92526
G1 X194.855 Y196.065 E23.96019
G1 X194.638 Y196.242 E23.9695
G1 X193.9 Y196.792 E24.00012
G1 X193.312 Y197.165 E24.02328
G1 X193.04 Y197.325 E24.03377
G1 X191.842 Y197.931 E24.07843
G1 X190.905 Y198.293 E24.11184
G1 X190.411 Y198.458 E24.12916
G1 X189.61 Y198.691 E24.1569
G1 X189.095 Y198.819 E24.17455
G1 X188.39 Y198.969 E24.19853
G1 X187.956 Y199.046 E24.21319
G1 X187.295 Y199.142 E24.2354
G1 X186.346 Y199.24 E24.26713
G1 X185.968 Y199.267 E24.27974
G1 X185.423 Y199.292 E24.29788
G1 X185.019 Y199.3 E24.31132
G1 X184.522 Y199.298 E24.32785
G1 X183.417 Y199.262 E24.36463
G1 X182.899 Y199.23 E24.38189
G1 X182.429 Y199.19 E24.39758
G1 X181.454 Y199.086 E24.43019
G1 X180.926 Y199.017 E24.4479
G1 X179.937 Y198.861 E24.4812
G1 X179.463 Y198.775 E24.49722
G1 X178.247 Y198.526 E24.53851
G1 X177.856 Y198.438 E24.55184
G1 X176.494 Y198.105 E24.59847
G1 X175.171 Y197.738 E24.64414
G1 X173.659 Y197.266 E24.69682
G1 X172.126 Y196.738 E24.75075
G1 X170.798 Y196.243 E24.79789
G1 X169.002 Y195.519 E24.86229
G1 X167.647 Y194.939 E24.91131
G1 X166.384 Y194.367 E24.95743
G1 X164.464 Y193.447 E25.02824
G1 X163.351 Y192.888 E25.06967
G1 X161.617 Y191.982 E25.13474
G1 X159.86 Y191.019 E25.20138
G1 X158.111 Y190.018 E25.2684
G1 X156.46 Y189.035 E25.33231
G1 X154.755 Y187.982 E25.39896
G1 X153.044 Y186.89 E25.46647
G1 X151.39 Y185.802 E25.53232
G1 X149.692 Y184.649 E25.60059
G1 X148.038 Y183.495 E25.66766
G1 X146.441 Y182.354 E25.73295
G1 X144.697 Y181.074 E25.8049
G1 X143.202 Y179.952 E25.86707
G1 X141.458 Y178.612 E25.94022
G1 X139.758 Y177.274 E26.01217
G1 X138.187 Y176.012 E26.0792
G1 X136.532 Y174.652 E26.15044
G1 X134.805 Y173.205 E26.22538
G1 X133.076 Y171.726 E26.30106
G1 X131.389 Y170.253 E26.37554
G1 X129.805 Y168.846 E26.44601
G1 X127.976 Y167.19 E26.52807
G1 X126.372 Y165.711 E26.60064
G1 X124.509 Y163.961 E26.68565
G1 X122.814 Y162.34 E26.76366
G1 X120.972 Y160.548 E26.84914
G1 X119.277 Y158.872 E26.92842
G1 X117.672 Y157.26 E27.00408
G1 X115.876 Y155.43 E27.08936
G1 X114.026 Y153.511 E27.17801
G1 X112.085 Y151.465 E27.27181
G1 X110.333 Y149.59 E27.35717
G1 X108.488 Y147.585 E27.44779
G1 X106.767 Y145.689 E27.53296
G1 X104.938 Y143.644 E27.62421
G1 X103.208 Y141.683 E27.71118
G1 X101.237 Y139.417 E27.81107
G1 X99.54 Y137.441 E27.89771
G1 X97.472 Y134.995 E28.00424
G1 X95.665 Y132.832 E28.09798
G1 X93.768 Y130.529 E28.19722
G1 X92.069 Y128.442 E28.28673
G1 X90.219 Y126.136 E28.38506
G1 X88.385 Y123.823 E28.48324
G1 X86.624 Y121.577 E28.57816
G1 X84.816 Y119.239 E28.67646
G1 X83.143 Y117.053 E28.76802
G1 X81.367 Y114.709 E28.86583
G1 X79.704 Y112.487 E28.95814
G1 X76.71 Y108.434 E29.12574
G1 X75.154 Y106.3 E29.21358
G1 X72.138 Y102.103 E29.38548
G1 X69.413 Y98.252 E29.54239
G1 X67.087 Y94.923 E29.67746
G1 X64.729 Y91.502 E29.81565
G1 X61.338 Y86.518 E30.01615
G1 X60.487 Y85.254 E30.06683
G1 X60.399 Y85.11 E30.07244
G1 X50.627 Y70.611 E30.65399
G1 X47.503 Y66 E30.83923
G1 X44.351 Y61.417 E31.02423
G1 X42.689 Y59.043 E31.12062
G1 X41.166 Y56.943 E31.2069
G1 X39.601 Y54.908 E31.29229
G1 X38.297 Y53.289 E31.36143
G1 X37.751 Y52.548 E31.39204
G1 X37.271 Y51.762 E31.42267
G1 X36.862 Y50.938 E31.45327
G1 X36.525 Y50.081 E31.4839
G1 X36.264 Y49.198 E31.51453
G1 X36.081 Y48.296 E31.54514
G1 X35.977 Y47.381 E31.57577
G1 X35.953 Y46.46 E31.60641
G0 F6000 X36.356 Y46.33
G1 F900 X36.423 Y45.429 E31.63646
G1 X36.57 Y44.538 E31.66649
G1 X36.795 Y43.663 E31.69654
G1 X37.096 Y42.812 E31.72657
G1 X37.472 Y41.991 E31.7566
G1 X37.919 Y41.206 E31.78665
G1 X38.433 Y40.463 E31.8167
G1 X39.011 Y39.77 E31.84671
G1 X39.349 Y39.416 E31.86299
G1 X39.68 Y39.086 E31.87853
G1 X40.348 Y38.477 E31.9086
G1 X41.066 Y37.93 E31.93862
G1 X41.83 Y37.448 E31.96867
G1 X42.634 Y37.036 E31.99871
G1 X43.47 Y36.696 E32.02873
G1 X44.334 Y36.432 E32.05878
G1 X45.218 Y36.246 E32.08882
G1 X46.114 Y36.138 E32.11884
G1 X47.017 Y36.11 E32.14889
G1 X47.919 Y36.162 E32.17894
G1 X48.812 Y36.293 E32.20896
G1 X49.69 Y36.503 E32.23899
G1 X50.547 Y36.79 E32.26905
G1 X51.374 Y37.152 E32.29907
G1 X52.167 Y37.585 E32.32912
G1 X52.918 Y38.086 E32.35915
G1 X53.621 Y38.653 E32.38919
G1 X54.342 Y39.352 E32.42259
G1 X54.84 Y39.886 E32.44687
G1 X56.57 Y41.69 E32.53001
G1 X59.076 Y44.136 E32.64648
G1 X62.78 Y47.669 E32.81673
G1 X97.666 Y80.804 E34.41701
G1 X99.255 Y82.322 E34.4901
G1 X99.88 Y82.907 E34.51857
G1 X145.785 Y126.512 E36.62441
G1 X155.866 Y136.118 E37.08755
G1 X161.539 Y141.548 E37.34874
G1 X163.376 Y143.324 E37.43372
G1 X163.872 Y143.817 E37.45698
G1 X165.873 Y145.751 E37.54954
G1 X169.578 Y149.38 E37.72203
G1 X173.948 Y153.716 E37.92679
G1 X176.812 Y156.594 E38.06183
G1 X179.769 Y159.604 E38.20217
G1 X182.525 Y162.453 E38.33401
G1 X185.178 Y165.246 E38.46213
G1 X187.133 Y167.355 E38.55778
G1 X188.869 Y169.268 E38.6437
G1 X189.828 Y170.352 E38.69184
G1 X191.233 Y171.985 E38.76349
G1 X192.085 Y173.006 E38.80772
G1 X193.006 Y174.145 E38.85644
G1 X193.738 Y175.087 E38.89611
G1 X194.685 Y176.373 E38.94923
G1 X195.154 Y177.052 E38.97668
G1 X195.712 Y177.909 E39.01069
G1 X196.149 Y178.64 E39.03902
G1 X196.551 Y179.357 E39.06636
G1 X196.968 Y180.187 E39.09725
G1 X197.381 Y181.112 E39.13095
G1 X197.749 Y182.061 E39.1648
G1 X197.929 Y182.604 E39.18383
G1 X198.137 Y183.319 E39.20859
G1 X198.284 Y183.902 E39.22859
G1 X198.511 Y185.096 E39.26902
G1 X198.543 Y185.345 E39.27737
G1 X198.624 Y186.447 E39.31412
G1 X198.634 Y186.963 E39.33128
G1 X198.612 Y187.866 E39.36133
G1 X198.431 Y189.195 E39.40594
G1 X198.373 Y189.48 E39.41561
G1 X198.154 Y190.356 E39.44564
G1 X197.861 Y191.202 E39.47542
G1 X197.781 Y191.404 E39.48265
G1 X197.412 Y192.228 E39.51268
G1 X196.971 Y193.016 E39.54271
G1 X196.637 Y193.522 E39.56288
G1 X196.494 Y193.725 E39.57113
G1 X195.941 Y194.44 E39.6012
G1 X195.328 Y195.103 E39.63123
G1 X194.602 Y195.755 E39.66369
G1 X194.385 Y195.932 E39.673
G1 X193.661 Y196.471 E39.70302
G1 X193.11 Y196.82 E39.72471
G1 X192.838 Y196.98 E39.73521
G1 X191.684 Y197.563 E39.77821
G1 X190.778 Y197.914 E39.81053
G1 X190.284 Y198.079 E39.82785
G1 X189.513 Y198.303 E39.85455
G1 X188.998 Y198.431 E39.8722
G1 X188.32 Y198.575 E39.89526
G1 X187.886 Y198.652 E39.90992
G1 X187.25 Y198.744 E39.93129
G1 X186.318 Y198.841 E39.96246
G1 X185.94 Y198.868 E39.97506
G1 X185.415 Y198.892 E39.99254
G1 X185.011 Y198.9 E40.00598
G1 X184.533 Y198.898 E40.02188
G1 X183.442 Y198.863 E40.05819
G1 X182.924 Y198.831 E40.07545
G1 X182.471 Y198.792 E40.09057
G1 X181.496 Y198.688 E40.12318
G1 X180.989 Y198.621 E40.14019
G1 X180 Y198.465 E40.17349
G1 X179.543 Y198.383 E40.18894
G1 X178.327 Y198.134 E40.23022
G1 X177.951 Y198.049 E40.24304
G1 X176.589 Y197.716 E40.28967
G1 X175.28 Y197.353 E40.33486
G1 X173.779 Y196.884 E40.38716
G1 X172.257 Y196.361 E40.44069
G1 X170.939 Y195.869 E40.48748
G1 X169.159 Y195.151 E40.55132
G1 X167.811 Y194.574 E40.60009
G1 X166.556 Y194.006 E40.6459
G1 X164.643 Y193.089 E40.71646
G1 X163.536 Y192.534 E40.75765
G1 X161.809 Y191.631 E40.82247
G1 X160.059 Y190.671 E40.88886
G1 X158.315 Y189.674 E40.95567
G1 X156.67 Y188.694 E41.01936
G1 X154.97 Y187.645 E41.0858
