;FLAVOR:Marlin
;TIME:2342
;Filament used: 1.46281m
;Layer height: 0.2
;MINX:48.542
;MINY:50.23
;MINZ:0.2
;MAXX:186.483
;MAXY:184.782
;MAXZ:2
;Generated with Cura_SteamEngine 5.0.0
M140 S70
M105
M190 S70
M104 S200
M105
M109 S200
M82 ;absolute extrusion mode
; Ender 3 Custom Start G-code
G28 ; Home all axes
M420 S1; Bed Leveling On
G92 E0 ; Reset Extruder
G1 Z2.0 F3000 ; Move Z Axis up little to prevent scratching of Heat Bed
G1 X0.1 Y20 Z0.3 F5000.0 ; Move to start position
G1 X0.1 Y200.0 Z0.3 F1500.0 E15 ; Draw the first line
G1 X0.4 Y200.0 Z0.3 F5000.0 ; Move to side a little
G1 X0.4 Y20 Z0.3 F1500.0 E30 ; Draw the second line
G92 E0 ; Reset Extruder
G1 Z2.0 F3000 ; Move Z Axis up little to prevent scratching of Heat Bed
G1 X5 Y20 Z0.3 F5000.0 ; Move over to prevent blob squish
G92 E0
G92 E0
G1 F2700 E-3
;LAYER_COUNT:10
;LAYER:0
M107
G0 F6000 X56.389 Y54.784 Z0.2
G0 X48.542 Y66.984
;TYPE:SKIRT
G1 F2700 E0
G1 F1200 X48.601 Y66.048 E0.03119
G1 X48.739 Y65.121 E0.06237
G1 X48.956 Y64.208 E0.09358
G1 X49.25 Y63.318 E0.12475
G1 X49.618 Y62.455 E0.15596
G1 X50.059 Y61.627 E0.18716
G1 X50.569 Y60.84 E0.21835
G1 X51.143 Y60.099 E0.24953
G1 X51.613 Y59.579 E0.27284
G1 X52.173 Y59 E0.29963
G1 X52.892 Y58.283 E0.3334
G1 X53.802 Y57.397 E0.37564
G1 X55.65 Y55.547 E0.46262
G1 X56.389 Y54.784 E0.49795
G1 X57.352 Y53.822 E0.54322
G1 X57.832 Y53.354 E0.56552
G1 X58.531 Y52.728 E0.59672
G1 X59.28 Y52.165 E0.62789
G1 X60.075 Y51.667 E0.65909
G1 X60.909 Y51.239 E0.69027
G1 X61.777 Y50.883 E0.72147
G1 X62.672 Y50.603 E0.75266
G1 X63.588 Y50.399 E0.78388
G1 X64.517 Y50.275 E0.81505
G1 X65.454 Y50.23 E0.84625
G1 X66.391 Y50.265 E0.87744
G1 X67.322 Y50.38 E0.90864
G1 X68.24 Y50.574 E0.93984
G1 X69.138 Y50.845 E0.97104
G1 X70.009 Y51.192 E1.00223
G1 X70.848 Y51.611 E1.03342
G1 X71.648 Y52.101 E1.06462
G1 X72.403 Y52.657 E1.09581
G1 X72.92 Y53.1 E1.11845
G1 X73.449 Y53.584 E1.1423
G1 X136.163 Y113.158 E4.01927
G1 X146.8 Y123.292 E4.50792
G1 X151.686 Y127.971 E4.73292
G1 X153.75 Y129.965 E4.82838
G1 X154.23 Y130.443 E4.85091
G1 X156.19 Y132.337 E4.94156
G1 X159.958 Y136.031 E5.11706
G1 X164.26 Y140.298 E5.3186
G1 X167.132 Y143.183 E5.45399
G1 X170.119 Y146.223 E5.59574
G1 X173.098 Y149.305 E5.73831
G1 X175.714 Y152.066 E5.86481
G1 X177.635 Y154.14 E5.95884
G1 X178.089 Y154.653 E5.98162
G1 X178.68 Y155.381 E6.01281
G1 X179.207 Y156.157 E6.04401
G1 X179.782 Y157.21 E6.08391
G1 X180.271 Y158.24 E6.12184
G1 X180.542 Y158.832 E6.14349
G1 X181.667 Y161.113 E6.22808
G1 X182.825 Y163.302 E6.31045
G1 X184.744 Y166.671 E6.43941
G1 X185.106 Y167.363 E6.46538
G1 X185.244 Y167.651 E6.476
G1 X185.746 Y168.886 E6.52034
G1 X185.88 Y169.283 E6.53428
G1 X186.142 Y170.184 E6.56549
G1 X186.311 Y171.008 E6.59347
G1 X186.348 Y171.232 E6.60102
G1 X186.461 Y172.163 E6.63221
G1 X186.483 Y173.548 E6.67828
G1 X186.473 Y173.758 E6.68527
G1 X186.388 Y174.692 E6.71647
G1 X186.224 Y175.616 E6.74768
G1 X185.982 Y176.522 E6.77887
G1 X185.564 Y177.642 E6.81863
G1 X185.463 Y177.873 E6.82702
G1 X185.051 Y178.715 E6.85819
G1 X184.568 Y179.52 E6.88942
G1 X184.019 Y180.28 E6.9206
G1 X183.408 Y180.991 E6.95178
G1 X182.737 Y181.647 E6.98299
G1 X182.294 Y182.025 E7.00236
G1 X182.076 Y182.201 E7.01168
G1 X181.322 Y182.758 E7.04286
G1 X180.523 Y183.25 E7.07407
G1 X179.685 Y183.671 E7.10526
G1 X179.042 Y183.939 E7.12843
G1 X178.156 Y184.248 E7.15964
G1 X177.248 Y184.481 E7.19082
G1 X176.429 Y184.622 E7.21846
G1 X175.934 Y184.688 E7.23507
G1 X175 Y184.772 E7.26626
G1 X174.293 Y184.782 E7.28977
G1 X173.999 Y184.777 E7.29955
G1 X173.339 Y184.746 E7.32153
G1 X172.531 Y184.67 E7.34852
G1 X171.831 Y184.567 E7.37206
G1 X170.864 Y184.392 E7.40474
G1 X168.585 Y183.925 E7.48212
G1 X166.095 Y183.487 E7.5662
G1 X163.623 Y183.124 E7.64931
G1 X161.108 Y182.826 E7.73354
G1 X159.095 Y182.639 E7.80078
G1 X158.165 Y182.512 E7.832
G1 X157.25 Y182.307 E7.86319
G1 X156.356 Y182.024 E7.89438
G1 X155.749 Y181.784 E7.91609
G1 X155.176 Y181.527 E7.93697
G1 X154.008 Y180.962 E7.98013
G1 X152.136 Y180.011 E8.04996
G1 X150.341 Y179.05 E8.11768
G1 X148.495 Y178.014 E8.18809
G1 X146.737 Y176.986 E8.25582
G1 X145.033 Y175.949 E8.32217
G1 X143.254 Y174.83 E8.39207
G1 X141.55 Y173.719 E8.45973
G1 X139.858 Y172.583 E8.52751
G1 X138.203 Y171.441 E8.59439
G1 X136.454 Y170.199 E8.66574
G1 X134.803 Y168.997 E8.73366
G1 X133.075 Y167.707 E8.80538
G1 X131.008 Y166.122 E8.89202
G1 X129.379 Y164.842 E8.96092
G1 X127.559 Y163.376 E9.03865
G1 X125.829 Y161.954 E9.11314
G1 X124.266 Y160.64 E9.18105
G1 X122.651 Y159.26 E9.25171
G1 X120.828 Y157.667 E9.33223
G1 X119.281 Y156.292 E9.40107
G1 X117.568 Y154.741 E9.47793
G1 X115.647 Y152.967 E9.5649
G1 X113.952 Y151.371 E9.64233
G1 X112.102 Y149.601 E9.72749
G1 X110.547 Y148.089 E9.79963
G1 X108.764 Y146.326 E9.88302
G1 X106.929 Y144.481 E9.96957
G1 X105.084 Y142.594 E10.05735
G1 X103.263 Y140.702 E10.14469
G1 X101.703 Y139.057 E10.22009
G1 X99.942 Y137.175 E10.30582
G1 X97.953 Y135.015 E10.40348
G1 X96.228 Y133.113 E10.48888
G1 X94.297 Y130.952 E10.58527
G1 X92.612 Y129.042 E10.66998
G1 X90.648 Y126.782 E10.76957
G1 X88.815 Y124.642 E10.86329
G1 X87.03 Y122.533 E10.95519
G1 X85.322 Y120.489 E11.04378
G1 X83.21 Y117.926 E11.15424
G1 X81.478 Y115.794 E11.2456
G1 X79.68 Y113.556 E11.34108
G1 X77.843 Y111.24 E11.4394
G1 X75.879 Y108.729 E11.54543
G1 X74.16 Y106.506 E11.6389
G1 X72.477 Y104.306 E11.73102
G1 X70.669 Y101.915 E11.83072
G1 X67.808 Y98.078 E11.98992
G1 X64.391 Y93.407 E12.18241
G1 X61.63 Y89.566 E12.33974
G1 X58.908 Y85.719 E12.49648
G1 X56.314 Y82.002 E12.64724
G1 X54.075 Y78.751 E12.77853
G1 X50.718 Y73.815 E12.97707
G1 X50.321 Y73.205 E13.00128
G1 X49.843 Y72.398 E13.03247
G1 X49.436 Y71.553 E13.06367
G1 X49.102 Y70.677 E13.09485
G1 X48.844 Y69.775 E13.12605
G1 X48.664 Y68.854 E13.15727
G1 X48.563 Y67.922 E13.18845
G1 X48.542 Y66.984 E13.21965
G0 F6000 X48.945 Y66.874
G1 F1200 X49.014 Y65.956 E13.25027
G1 X49.162 Y65.047 E13.2809
G1 X49.388 Y64.155 E13.31151
G1 X49.691 Y63.286 E13.34212
G1 X50.068 Y62.446 E13.37274
G1 X50.517 Y61.642 E13.40337
G1 X51.034 Y60.88 E13.434
G1 X51.901 Y59.856 E13.47862
G1 X52.456 Y59.283 E13.50516
G1 X53.171 Y58.57 E13.53874
G1 X54.045 Y57.719 E13.57931
G1 X55.966 Y55.796 E13.66972
G1 X56.672 Y55.067 E13.70347
G1 X57.631 Y54.108 E13.74858
G1 X58.111 Y53.64 E13.77088
G1 X58.798 Y53.027 E13.8015
G1 X59.535 Y52.475 E13.83213
G1 X60.317 Y51.99 E13.86273
G1 X61.138 Y51.574 E13.89334
G1 X61.993 Y51.231 E13.92398
G1 X62.874 Y50.963 E13.95461
G1 X63.774 Y50.773 E13.98521
G1 X64.688 Y50.662 E14.01583
G1 X65.608 Y50.63 E14.04645
G1 X66.528 Y50.679 E14.07709
G1 X67.44 Y50.807 E14.10772
G1 X68.337 Y51.014 E14.13834
G1 X69.213 Y51.297 E14.16896
G1 X70.06 Y51.656 E14.19955
G1 X70.874 Y52.087 E14.23019
G1 X71.647 Y52.587 E14.26081
G1 X72.651 Y53.395 E14.30367
G1 X73.173 Y53.874 E14.32724
G1 X89.301 Y69.204 E15.06732
G1 X89.878 Y69.744 E15.0936
G1 X135.887 Y113.447 E17.20419
G1 X146.523 Y123.581 E17.69281
G1 X151.408 Y128.259 E17.91777
G1 X153.468 Y130.248 E18.01301
G1 X153.952 Y130.731 E18.03575
G1 X155.91 Y132.623 E18.12631
G1 X159.676 Y136.315 E18.30172
G1 X163.976 Y140.581 E18.50318
G1 X166.847 Y143.464 E18.63851
G1 X169.831 Y146.501 E18.78012
G1 X172.807 Y149.58 E18.92254
G1 X175.421 Y152.338 E19.04893
G1 X177.336 Y154.405 E19.14265
G1 X177.79 Y154.918 E19.16543
G1 X178.37 Y155.633 E19.19605
G1 X178.885 Y156.396 E19.22667
G1 X179.421 Y157.382 E19.264
G1 X179.908 Y158.407 E19.30174
G1 X180.191 Y159.025 E19.32435
G1 X181.298 Y161.27 E19.4076
G1 X182.488 Y163.52 E19.49226
G1 X184.396 Y166.869 E19.62046
G1 X184.745 Y167.536 E19.6455
G1 X184.883 Y167.824 E19.65612
G1 X185.367 Y169.014 E19.69885
G1 X185.501 Y169.411 E19.71278
G1 X185.758 Y170.295 E19.7434
G1 X185.916 Y171.074 E19.76984
G1 X185.953 Y171.298 E19.77739
G1 X186.064 Y172.212 E19.80801
G1 X186.083 Y173.529 E19.85182
G1 X186.073 Y173.739 E19.85881
G1 X185.989 Y174.656 E19.88944
G1 X185.826 Y175.562 E19.92006
G1 X185.585 Y176.451 E19.95069
G1 X185.197 Y177.481 E19.9873
G1 X185.096 Y177.712 E19.99569
G1 X184.691 Y178.539 E20.02631
G1 X184.216 Y179.328 E20.05695
G1 X183.674 Y180.072 E20.08756
G1 X183.069 Y180.766 E20.11818
G1 X182.407 Y181.406 E20.14881
G1 X181.825 Y181.89 E20.17398
G1 X181.084 Y182.436 E20.2046
G1 X180.298 Y182.917 E20.23525
G1 X179.085 Y183.491 E20.27988
G1 X178.894 Y183.567 E20.28672
G1 X178.025 Y183.87 E20.31733
G1 X177.132 Y184.096 E20.34797
G1 X176.376 Y184.225 E20.37347
G1 X175.881 Y184.291 E20.39008
G1 X174.964 Y184.373 E20.4207
G1 X174.3 Y184.382 E20.44279
G1 X174.006 Y184.377 E20.45257
G1 X173.37 Y184.348 E20.47375
G1 X172.582 Y184.273 E20.50007
G1 X171.901 Y184.174 E20.52296
G1 X170.944 Y184 E20.55531
G1 X168.663 Y183.532 E20.63276
G1 X166.151 Y183.09 E20.71759
G1 X163.692 Y182.729 E20.80026
G1 X161.112 Y182.424 E20.88667
G1 X159.132 Y182.24 E20.9528
G1 X158.22 Y182.115 E20.98342
G1 X157.322 Y181.912 E21.01404
G1 X156.059 Y181.48 E21.05844
G1 X155.349 Y181.167 E21.08425
G1 X154.189 Y180.605 E21.12712
G1 X152.325 Y179.658 E21.19666
G1 X150.537 Y178.701 E21.26411
G1 X148.697 Y177.668 E21.33429
G1 X146.945 Y176.644 E21.40179
G1 X145.246 Y175.61 E21.46794
G1 X143.472 Y174.494 E21.53765
G1 X141.773 Y173.386 E21.60511
G1 X140.085 Y172.254 E21.67271
G1 X138.434 Y171.115 E21.73942
G1 X136.689 Y169.876 E21.8106
G1 X135.042 Y168.676 E21.87838
G1 X133.318 Y167.389 E21.94994
G1 X131.255 Y165.808 E22.03638
G1 X129.629 Y164.53 E22.10517
G1 X127.813 Y163.067 E22.18273
G1 X126.086 Y161.647 E22.2571
G1 X124.526 Y160.336 E22.32487
G1 X122.914 Y158.959 E22.39539
G1 X121.093 Y157.368 E22.47581
G1 X119.55 Y155.996 E22.54449
G1 X117.84 Y154.447 E22.62123
G1 X115.921 Y152.675 E22.7081
G1 X114.228 Y151.082 E22.78542
G1 X112.381 Y149.314 E22.87046
G1 X110.828 Y147.805 E22.94248
G1 X109.048 Y146.043 E23.02578
G1 X107.215 Y144.202 E23.11219
G1 X105.372 Y142.316 E23.1999
G1 X103.553 Y140.427 E23.28712
G1 X101.995 Y138.784 E23.36243
G1 X100.236 Y136.904 E23.44806
G1 X98.25 Y134.746 E23.5456
G1 X96.527 Y132.847 E23.63089
G1 X94.597 Y130.688 E23.72721
G1 X92.914 Y128.779 E23.81185
G1 X90.952 Y126.522 E23.91132
G1 X89.12 Y124.384 E24.00496
G1 X87.337 Y122.277 E24.09677
G1 X85.63 Y120.235 E24.18529
G1 X83.52 Y117.674 E24.29565
G1 X81.79 Y115.544 E24.38692
G1 X79.993 Y113.308 E24.48233
G1 X78.159 Y110.994 E24.58054
G1 X76.195 Y108.484 E24.68654
G1 X74.478 Y106.263 E24.77991
G1 X72.796 Y104.065 E24.87197
G1 X70.989 Y101.676 E24.97159
G1 X68.13 Y97.842 E25.13066
G1 X64.716 Y93.173 E25.32304
G1 X61.956 Y89.335 E25.48027
G1 X59.236 Y85.49 E25.63692
G1 X56.643 Y81.775 E25.78761
G1 X54.405 Y78.526 E25.91883
G1 X51.053 Y73.597 E26.11708
G1 X50.656 Y72.987 E26.14129
G1 X50.188 Y72.194 E26.17191
G1 X49.79 Y71.364 E26.20253
G1 X49.466 Y70.502 E26.23316
G1 X49.218 Y69.616 E26.26376
G1 X49.048 Y68.711 E26.29439
G1 X48.956 Y67.795 E26.32501
G1 X48.945 Y66.874 E26.35564
G0 F6000 X49.349 Y66.766
G1 F1200 X49.428 Y65.867 E26.38566
G1 X49.586 Y64.977 E26.41572
G1 X49.822 Y64.106 E26.44574
G1 X50.135 Y63.258 E26.4758
G1 X50.52 Y62.442 E26.50581
G1 X50.977 Y61.663 E26.53585
G1 X51.501 Y60.927 E26.5659
G1 X52.189 Y60.134 E26.60082
G1 X52.738 Y59.566 E26.62709
G1 X53.45 Y58.856 E26.66053
G1 X54.361 Y57.969 E26.70282
G1 X56.226 Y56.102 E26.7906
G1 X56.955 Y55.35 E26.82543
G1 X57.91 Y54.395 E26.87035
G1 X58.39 Y53.927 E26.89265
G1 X59.064 Y53.326 E26.92268
G1 X59.789 Y52.786 E26.95275
G1 X60.558 Y52.313 E26.98278
G1 X61.366 Y51.91 E27.01281
G1 X62.207 Y51.58 E27.04286
G1 X63.073 Y51.326 E27.07287
G1 X63.959 Y51.149 E27.10293
G1 X64.857 Y51.051 E27.13297
G1 X65.76 Y51.033 E27.16301
G1 X66.661 Y51.095 E27.19305
G1 X67.553 Y51.236 E27.22308
G1 X68.429 Y51.456 E27.25313
G1 X69.282 Y51.753 E27.28317
G1 X70.105 Y52.123 E27.31318
G1 X70.893 Y52.565 E27.34323
G1 X71.638 Y53.075 E27.37326
G1 X72.382 Y53.691 E27.40538
G1 X72.897 Y54.164 E27.42864
G1 X89.034 Y69.503 E28.16915
G1 X89.603 Y70.034 E28.19503
G1 X135.611 Y113.737 E30.30559
G1 X146.247 Y123.87 E30.79419
G1 X151.131 Y128.547 E31.01911
G1 X153.185 Y130.531 E31.11409
G1 X153.675 Y131.019 E31.13709
G1 X155.63 Y132.908 E31.22751
G1 X159.394 Y136.599 E31.40284
G1 X163.693 Y140.863 E31.60424
G1 X166.562 Y143.744 E31.73947
G1 X169.543 Y146.779 E31.88096
G1 X172.517 Y149.855 E32.02327
G1 X175.128 Y152.61 E32.14951
G1 X177.036 Y154.67 E32.2429
G1 X177.49 Y155.183 E32.26569
G1 X178.058 Y155.885 E32.29572
G1 X178.562 Y156.635 E32.32577
G1 X179.06 Y157.554 E32.36054
G1 X179.544 Y158.573 E32.39806
G1 X179.833 Y159.203 E32.42111
G1 X180.943 Y161.455 E32.50462
G1 X182.125 Y163.689 E32.58868
G1 X184.049 Y167.067 E32.71798
G1 X184.385 Y167.708 E32.74205
G1 X184.523 Y167.996 E32.75268
G1 X184.988 Y169.142 E32.79381
G1 X185.122 Y169.539 E32.80775
G1 X185.373 Y170.407 E32.8378
G1 X185.522 Y171.139 E32.86264
G1 X185.559 Y171.363 E32.8702
G1 X185.666 Y172.259 E32.90021
G1 X185.683 Y173.51 E32.94182
G1 X185.673 Y173.72 E32.94881
G1 X185.591 Y174.619 E32.97884
G1 X185.429 Y175.508 E33.00889
G1 X185.189 Y176.379 E33.03894
G1 X184.831 Y177.321 E33.07246
G1 X184.73 Y177.552 E33.08084
G1 X184.332 Y178.363 E33.11089
G1 X183.863 Y179.135 E33.14094
G1 X183.329 Y179.863 E33.17096
G1 X182.732 Y180.541 E33.20101
G1 X181.791 Y181.402 E33.24343
G1 X181.573 Y181.578 E33.25275
G1 X180.846 Y182.114 E33.28279
G1 X180.075 Y182.583 E33.31281
G1 X178.937 Y183.119 E33.35465
G1 X178.746 Y183.195 E33.36148
G1 X177.893 Y183.492 E33.39153
G1 X177.017 Y183.712 E33.42157
G1 X176.323 Y183.829 E33.44497
G1 X175.828 Y183.895 E33.46158
G1 X174.928 Y183.974 E33.49163
G1 X174.307 Y183.983 E33.51229
G1 X174.013 Y183.978 E33.52207
G1 X173.401 Y183.949 E33.54245
G1 X172.633 Y183.877 E33.5681
G1 X171.971 Y183.78 E33.59036
G1 X171.025 Y183.608 E33.62234
G1 X168.748 Y183.141 E33.69965
G1 X166.236 Y182.699 E33.78448
G1 X163.731 Y182.331 E33.86869
G1 X161.156 Y182.027 E33.95493
G1 X159.169 Y181.842 E34.0213
G1 X158.274 Y181.719 E34.05135
G1 X157.394 Y181.517 E34.08138
G1 X156.212 Y181.11 E34.12296
G1 X155.523 Y180.807 E34.14799
G1 X154.369 Y180.248 E34.19064
G1 X152.513 Y179.305 E34.25988
G1 X150.732 Y178.352 E34.32707
G1 X148.898 Y177.323 E34.39701
G1 X147.153 Y176.302 E34.46426
G1 X145.458 Y175.271 E34.53024
G1 X143.691 Y174.159 E34.59968
G1 X141.996 Y173.054 E34.66698
G1 X140.312 Y171.924 E34.73443
G1 X138.666 Y170.788 E34.80095
G1 X136.924 Y169.552 E34.87199
G1 X135.281 Y168.356 E34.93958
G1 X133.561 Y167.072 E35.01097
G1 X131.502 Y165.493 E35.09727
G1 X129.88 Y164.218 E35.16589
G1 X128.067 Y162.758 E35.24332
G1 X126.343 Y161.341 E35.31754
G1 X124.786 Y160.032 E35.3852
G1 X123.177 Y158.658 E35.45557
G1 X121.359 Y157.069 E35.53588
G1 X119.818 Y155.699 E35.60446
G1 X118.111 Y154.153 E35.68106
G1 X116.195 Y152.384 E35.76779
G1 X114.505 Y150.793 E35.84499
G1 X112.66 Y149.027 E35.92994
G1 X111.11 Y147.52 E36.00184
G1 X109.331 Y145.761 E36.08505
G1 X107.501 Y143.922 E36.17134
G1 X105.661 Y142.039 E36.2589
G1 X103.843 Y140.151 E36.34608
G1 X102.287 Y138.511 E36.42127
G1 X100.531 Y136.633 E36.50678
G1 X98.546 Y134.477 E36.60426
G1 X96.825 Y132.58 E36.68945
G1 X94.897 Y130.423 E36.78567
G1 X93.216 Y128.517 E36.8702
G1 X91.256 Y126.262 E36.96957
G1 X89.425 Y124.126 E37.06314
G1 X87.644 Y122.02 E37.15488
G1 X85.939 Y119.98 E37.24331
G1 X83.831 Y117.421 E37.35358
G1 X82.102 Y115.293 E37.44477
G1 X80.307 Y113.059 E37.54009
G1 X78.474 Y110.747 E37.63822
G1 X76.512 Y108.239 E37.74413
G1 X74.796 Y106.02 E37.83743
G1 X73.115 Y103.823 E37.92944
G1 X71.31 Y101.436 E38.02897
G1 X68.453 Y97.606 E38.1879
G1 X65.041 Y92.94 E38.38016
G1 X62.283 Y89.104 E38.5373
G1 X59.564 Y85.261 E38.69387
G1 X56.973 Y81.548 E38.84446
G1 X54.736 Y78.301 E38.97561
G1 X51.388 Y73.379 E39.17359
G1 X50.991 Y72.769 E39.1978
G1 X50.532 Y71.991 E39.22785
G1 X50.144 Y71.175 E39.2579
G1 X49.83 Y70.329 E39.28791
G1 X49.592 Y69.458 E39.31794
G1 X49.432 Y68.569 E39.34799
G1 X49.351 Y67.669 E39.37804
G1 X49.349 Y66.766 E39.40808
G1 F2700 E36.40808
;MESH:L_Rib_7.stl
G0 F6000 X70.322 Y75.907
;TYPE:WALL-OUTER
G1 F2700 E39.40808
G1 F1200 X70.37 Y75.592 E39.41867
G1 X70.457 Y75.336 E39.42767
G1 X70.628 Y75.013 E39.43982
G1 X70.828 Y74.765 E39.45042
