;FLAVOR:Marlin
;TIME:8067
;Filament used: 4.36458m
;Layer height: 0.2
;MINX:106.2
;MINY:91.646
;MINZ:0.2
;MAXX:128.798
;MAXY:150.308
;MAXZ:128
;Generated with Cura_SteamEngine 5.0.0
M140 S70
M105
M190 S70
M104 S200
M105
M109 S200
M82 ;absolute extrusion mode
; Ender 3 Custom Start G-code
G28 ; Home all axes
M420 S1; Bed Leveling On
G92 E0 ; Reset Extruder
G1 Z2.0 F3000 ; Move Z Axis up little to prevent scratching of Heat Bed
G1 X0.1 Y20 Z0.3 F5000.0 ; Move to start position
G1 X0.1 Y200.0 Z0.3 F1500.0 E15 ; Draw the first line
G1 X0.4 Y200.0 Z0.3 F5000.0 ; Move to side a little
G1 X0.4 Y20 Z0.3 F1500.0 E30 ; Draw the second line
G92 E0 ; Reset Extruder
G1 Z2.0 F3000 ; Move Z Axis up little to prevent scratching of Heat Bed
G1 X5 Y20 Z0.3 F5000.0 ; Move over to prevent blob squish
G92 E0
G92 E0
G1 F2700 E-5
;LAYER_COUNT:640
;LAYER:0
M107
G0 F6000 X109.313 Y104.398 Z0.2
G0 X106.2 Y112.084
;TYPE:SKIRT
G1 F2700 E0
G1 F1200 X106.261 Y111.143 E0.03136
G1 X106.358 Y110.372 E0.05721
G1 X106.496 Y109.595 E0.08346
G1 X106.766 Y108.682 E0.11512
G1 X107.032 Y107.95 E0.14103
G1 X107.339 Y107.222 E0.16731
G1 X107.797 Y106.404 E0.19849
G1 X108.217 Y105.749 E0.22437
G1 X108.676 Y105.106 E0.25064
G1 X109.313 Y104.398 E0.28232
G1 X109.864 Y103.856 E0.30803
G1 X110.454 Y103.332 E0.33427
G1 X111.215 Y102.793 E0.36529
G1 X111.876 Y102.382 E0.39118
G1 X112.567 Y102 E0.41744
G1 X113.444 Y101.635 E0.44903
G1 X114.178 Y101.381 E0.47486
G1 X114.937 Y101.161 E0.50115
G1 X115.88 Y100.998 E0.53298
G1 X116.656 Y100.913 E0.55894
G1 X117.444 Y100.867 E0.5852
G1 X118.38 Y100.916 E0.61637
G1 X119.151 Y101.003 E0.64218
G1 X119.93 Y101.131 E0.66843
G1 X120.839 Y101.387 E0.69984
G1 X121.572 Y101.642 E0.72566
G1 X122.304 Y101.939 E0.75193
G1 X123.139 Y102.392 E0.78353
G1 X123.799 Y102.804 E0.8094
G1 X124.447 Y103.256 E0.83568
G1 X125.149 Y103.87 E0.8667
G1 X125.699 Y104.413 E0.89241
G1 X126.232 Y104.996 E0.91868
G1 X126.79 Y105.761 E0.95017
G1 X127.209 Y106.416 E0.97603
G1 X127.6 Y107.102 E1.0023
G1 X127.971 Y107.96 E1.03339
G1 X128.235 Y108.688 E1.05914
G1 X128.466 Y109.443 E1.0854
G1 X128.64 Y110.368 E1.11671
G1 X128.738 Y111.143 E1.14269
G1 X128.798 Y111.931 E1.16898
G1 X128.763 Y112.883 E1.20066
G1 X128.688 Y113.648 E1.22623
G1 X128.571 Y114.429 E1.25249
G1 X128.331 Y115.336 E1.2837
G1 X128.086 Y116.077 E1.30966
G1 X127.902 Y116.574 E1.32728
G1 X127.438 Y117.712 E1.36816
G1 X127.161 Y118.61 E1.39941
G1 X126.966 Y119.504 E1.42985
G1 X126.846 Y120.424 E1.46071
G1 X126.801 Y121.5 E1.49653
G1 X126.797 Y142.509 E2.19529
G1 X126.757 Y143.298 E2.22156
G1 X126.637 Y144.079 E2.24785
G1 X126.439 Y144.843 E2.2741
G1 X126.165 Y145.584 E2.30037
G1 X125.817 Y146.293 E2.32664
G1 X125.4 Y146.963 E2.35289
G1 X124.916 Y147.587 E2.37915
G1 X124.372 Y148.16 E2.40543
G1 X123.773 Y148.675 E2.43171
G1 X123.125 Y149.126 E2.45797
G1 X122.435 Y149.509 E2.48421
G1 X121.71 Y149.821 E2.51047
G1 X120.956 Y150.058 E2.53675
G1 X120.183 Y150.217 E2.563
G1 X119.397 Y150.298 E2.58928
G1 X118.994 Y150.308 E2.60269
G1 X115.997 Y150.307 E2.70237
G1 X115.209 Y150.267 E2.72861
G1 X114.428 Y150.147 E2.7549
G1 X113.664 Y149.949 E2.78115
G1 X112.923 Y149.675 E2.80742
G1 X112.214 Y149.327 E2.83369
G1 X111.544 Y148.909 E2.85996
G1 X110.92 Y148.426 E2.8862
G1 X110.347 Y147.882 E2.91248
G1 X109.833 Y147.283 E2.93873
G1 X109.382 Y146.634 E2.96502
G1 X108.998 Y145.944 E2.99128
G1 X108.686 Y145.219 E3.01753
G1 X108.45 Y144.465 E3.04381
G1 X108.29 Y143.692 E3.07007
G1 X108.21 Y142.906 E3.09635
G1 X108.2 Y142.507 E3.10962
G1 X108.2 Y121.508 E3.80805
G1 X108.153 Y120.418 E3.84434
G1 X108.035 Y119.506 E3.87492
G1 X107.838 Y118.607 E3.90553
G1 X107.562 Y117.714 E3.93662
G1 X107.093 Y116.563 E3.97796
G1 X106.907 Y116.058 E3.99586
G1 X106.666 Y115.326 E4.02149
G1 X106.458 Y114.565 E4.04773
G1 X106.312 Y113.643 E4.07878
G1 X106.237 Y112.873 E4.10451
G1 X106.2 Y112.084 E4.13078
G0 F6000 X106.6 Y112.066
G1 F1200 X106.658 Y111.193 E4.15988
G1 X106.755 Y110.422 E4.18573
G1 X106.89 Y109.665 E4.2113
G1 X107.142 Y108.819 E4.24066
G1 X107.408 Y108.087 E4.26657
G1 X107.708 Y107.378 E4.29217
G1 X108.134 Y106.62 E4.32109
G1 X108.554 Y105.965 E4.34697
G1 X109.002 Y105.34 E4.37255
G1 X109.594 Y104.684 E4.40194
G1 X110.145 Y104.142 E4.42764
G1 X110.72 Y103.631 E4.45323
G1 X111.427 Y103.133 E4.48199
G1 X112.088 Y102.722 E4.50788
G1 X112.761 Y102.35 E4.53346
G1 X113.575 Y102.013 E4.56276
G1 X114.309 Y101.759 E4.58859
G1 X115.048 Y101.545 E4.61418
G1 X115.923 Y101.396 E4.6437
G1 X116.699 Y101.311 E4.66967
G1 X117.467 Y101.267 E4.69525
G1 X118.335 Y101.314 E4.72416
G1 X119.106 Y101.401 E4.74997
G1 X119.865 Y101.527 E4.77556
G1 X120.707 Y101.765 E4.80466
G1 X121.44 Y102.02 E4.83048
G1 X122.153 Y102.31 E4.85608
G1 X122.928 Y102.732 E4.88543
G1 X123.588 Y103.144 E4.9113
G1 X124.218 Y103.584 E4.93686
G1 X124.868 Y104.155 E4.96564
G1 X125.418 Y104.698 E4.99134
G1 X125.936 Y105.266 E5.01691
G1 X126.453 Y105.976 E5.04612
G1 X126.872 Y106.631 E5.07199
G1 X127.252 Y107.3 E5.09758
G1 X127.595 Y108.096 E5.1264
G1 X127.859 Y108.824 E5.15216
G1 X128.083 Y109.56 E5.17775
G1 X128.244 Y110.419 E5.20682
G1 X128.342 Y111.194 E5.2328
G1 X128.398 Y111.961 E5.25838
G1 X128.365 Y112.844 E5.28777
G1 X128.29 Y113.609 E5.31333
G1 X128.175 Y114.37 E5.33893
G1 X127.951 Y115.21 E5.36785
G1 X127.706 Y115.951 E5.3938
G1 X127.532 Y116.423 E5.41054
G1 X127.06 Y117.579 E5.45207
G1 X126.776 Y118.501 E5.48415
G1 X126.57 Y119.448 E5.51639
G1 X126.447 Y120.391 E5.54802
G1 X126.401 Y121.484 E5.5844
G1 X126.397 Y142.509 E6.2837
G1 X126.357 Y143.278 E6.30931
G1 X126.237 Y144.037 E6.33487
G1 X126.039 Y144.781 E6.36047
G1 X125.765 Y145.499 E6.38603
G1 X125.418 Y146.186 E6.41163
G1 X125.002 Y146.832 E6.43719
G1 X124.521 Y147.432 E6.46277
G1 X123.98 Y147.979 E6.48835
G1 X123.385 Y148.467 E6.51395
G1 X122.743 Y148.89 E6.53952
G1 X122.06 Y149.244 E6.56511
G1 X121.344 Y149.526 E6.5907
G1 X120.603 Y149.732 E6.61628
G1 X119.845 Y149.859 E6.64184
G1 X118.995 Y149.908 E6.67016
G1 X115.998 Y149.907 E6.76984
G1 X115.229 Y149.867 E6.79545
G1 X114.47 Y149.747 E6.82101
G1 X113.726 Y149.549 E6.84662
G1 X113.008 Y149.275 E6.87218
G1 X112.321 Y148.928 E6.89778
G1 X111.675 Y148.511 E6.92335
G1 X111.075 Y148.03 E6.94893
G1 X110.528 Y147.489 E6.97452
G1 X110.041 Y146.894 E7.00009
G1 X109.617 Y146.252 E7.02568
G1 X109.263 Y145.569 E7.05127
G1 X108.982 Y144.853 E7.07685
G1 X108.776 Y144.112 E7.10243
G1 X108.649 Y143.354 E7.12799
G1 X108.6 Y142.507 E7.15621
G1 X108.6 Y121.491 E7.85521
G1 X108.553 Y120.383 E7.89209
G1 X108.43 Y119.44 E7.92372
G1 X108.226 Y118.508 E7.95545
G1 X107.939 Y117.581 E7.98773
G1 X107.463 Y116.412 E8.02971
G1 X107.287 Y115.933 E8.04668
G1 X107.046 Y115.201 E8.07232
G1 X106.844 Y114.459 E8.09789
G1 X106.71 Y113.604 E8.12668
G1 X106.635 Y112.834 E8.15241
G1 X106.6 Y112.066 E8.17798
G0 F6000 X107 Y112.048
G1 F1200 X107.055 Y111.243 E8.20482
G1 X107.152 Y110.472 E8.23066
G1 X107.285 Y109.736 E8.25554
G1 X107.518 Y108.955 E8.28265
G1 X107.784 Y108.223 E8.30855
G1 X108.077 Y107.535 E8.33342
G1 X108.47 Y106.836 E8.36009
G1 X108.89 Y106.181 E8.38597
G1 X109.327 Y105.573 E8.41088
G1 X109.874 Y104.969 E8.43798
G1 X110.425 Y104.427 E8.46369
G1 X110.986 Y103.931 E8.48859
G1 X111.638 Y103.472 E8.51511
G1 X112.299 Y103.061 E8.541
G1 X112.954 Y102.701 E8.56586
G1 X113.706 Y102.391 E8.59291
G1 X114.44 Y102.137 E8.61875
G1 X115.159 Y101.93 E8.64363
G1 X115.967 Y101.794 E8.67088
G1 X116.743 Y101.709 E8.69685
G1 X117.49 Y101.667 E8.72173
G1 X118.29 Y101.711 E8.74838
G1 X119.061 Y101.798 E8.77419
G1 X119.799 Y101.922 E8.79908
G1 X120.576 Y102.143 E8.82595
G1 X121.309 Y102.398 E8.85176
G1 X122.001 Y102.681 E8.87662
G1 X122.716 Y103.071 E8.90371
G1 X123.376 Y103.483 E8.92959
G1 X123.988 Y103.912 E8.95445
G1 X124.587 Y104.44 E8.98101
G1 X125.137 Y104.983 E9.00671
G1 X125.64 Y105.536 E9.03158
G1 X126.116 Y106.192 E9.05853
G1 X126.535 Y106.847 E9.0844
G1 X126.904 Y107.498 E9.10928
G1 X127.219 Y108.233 E9.13588
G1 X127.483 Y108.961 E9.16164
G1 X127.7 Y109.676 E9.18649
G1 X127.847 Y110.469 E9.21331
G1 X127.945 Y111.244 E9.2393
G1 X127.999 Y111.99 E9.26417
G1 X127.967 Y112.805 E9.2913
G1 X127.892 Y113.57 E9.31687
G1 X127.779 Y114.31 E9.34176
G1 X127.571 Y115.084 E9.36842
G1 X127.326 Y115.825 E9.39438
G1 X127.161 Y116.272 E9.41023
G1 X126.682 Y117.446 E9.4524
G1 X126.39 Y118.392 E9.48533
G1 X126.175 Y119.382 E9.51902
G1 X126.049 Y120.345 E9.55133
G1 X126.001 Y121.491 E9.58948
G1 X125.997 Y142.509 E10.28854
G1 X125.957 Y143.256 E10.31342
G1 X125.837 Y143.995 E10.33832
G1 X125.64 Y144.716 E10.36318
G1 X125.366 Y145.412 E10.38806
G1 X125.02 Y146.076 E10.41296
G1 X124.605 Y146.698 E10.43783
G1 X124.125 Y147.272 E10.46272
G1 X123.588 Y147.792 E10.48758
G1 X122.998 Y148.252 E10.51246
G1 X122.362 Y148.646 E10.53735
G1 X121.688 Y148.97 E10.56222
G1 X120.983 Y149.22 E10.5871
G1 X120.255 Y149.394 E10.61199
G1 X119.513 Y149.489 E10.63687
G1 X118.995 Y149.508 E10.65411
G1 X115.998 Y149.507 E10.75379
G1 X115.251 Y149.467 E10.77868
G1 X114.512 Y149.347 E10.80358
G1 X113.791 Y149.149 E10.82844
G1 X113.095 Y148.876 E10.85331
G1 X112.432 Y148.529 E10.8782
G1 X111.809 Y148.114 E10.9031
G1 X111.235 Y147.635 E10.92796
G1 X110.715 Y147.097 E10.95285
G1 X110.255 Y146.507 E10.97773
G1 X109.861 Y145.871 E11.00262
G1 X109.537 Y145.197 E11.02749
G1 X109.287 Y144.492 E11.05237
G1 X109.114 Y143.764 E11.07726
G1 X109.019 Y143.022 E11.10214
G1 X109 Y142.507 E11.11928
G1 X109 Y121.496 E11.81811
G1 X108.951 Y120.35 E11.85626
G1 X108.824 Y119.37 E11.88912
G1 X108.611 Y118.398 E11.92222
G1 X108.315 Y117.441 E11.95554
G1 X107.834 Y116.261 E11.99792
G1 X107.667 Y115.808 E12.01398
G1 X107.426 Y115.076 E12.03961
G1 X107.23 Y114.354 E12.06449
G1 X107.108 Y113.566 E12.09101
G1 X107.033 Y112.796 E12.11675
G1 X107 Y112.048 E12.14165
G0 F6000 X107.401 Y112.031
G1 F1200 X107.452 Y111.293 E12.16625
G1 X107.549 Y110.522 E12.1921
G1 X107.679 Y109.808 E12.21624
G1 X107.894 Y109.092 E12.2411
G1 X108.16 Y108.36 E12.26701
G1 X108.445 Y107.692 E12.29116
G1 X108.807 Y107.051 E12.31565
G1 X109.227 Y106.396 E12.34152
G1 X109.652 Y105.807 E12.36568
G1 X110.155 Y105.254 E12.39055
G1 X110.706 Y104.712 E12.41625
G1 X111.251 Y104.232 E12.44041
G1 X111.849 Y103.812 E12.46471
G1 X112.51 Y103.401 E12.4906
G1 X113.147 Y103.052 E12.51476
G1 X113.837 Y102.769 E12.53956
G1 X114.571 Y102.515 E12.5654
G1 X115.269 Y102.315 E12.58955
G1 X116.01 Y102.191 E12.61454
G1 X116.786 Y102.106 E12.6405
G1 X117.512 Y102.067 E12.66468
G1 X118.245 Y102.109 E12.6891
G1 X119.016 Y102.196 E12.71491
G1 X119.732 Y102.317 E12.73906
G1 X120.445 Y102.52 E12.76372
G1 X121.178 Y102.775 E12.78953
G1 X121.849 Y103.051 E12.81366
G1 X122.504 Y103.41 E12.8385
G1 X123.164 Y103.822 E12.86438
G1 X123.758 Y104.24 E12.88854
G1 X124.306 Y104.724 E12.91286
G1 X124.856 Y105.267 E12.93856
G1 X125.344 Y105.805 E12.96272
G1 X125.779 Y106.407 E12.98742
G1 X126.198 Y107.062 E13.01329
G1 X126.555 Y107.695 E13.03746
G1 X126.843 Y108.369 E13.06184
G1 X127.107 Y109.097 E13.08759
G1 X127.316 Y109.792 E13.11173
G1 X127.45 Y110.519 E13.13632
G1 X127.548 Y111.294 E13.1623
G1 X127.599 Y112.019 E13.18647
G1 X127.569 Y112.766 E13.21134
G1 X127.494 Y113.531 E13.2369
G1 X127.383 Y114.249 E13.26107
G1 X127.191 Y114.959 E13.28553
G1 X126.946 Y115.7 E13.31149
G1 X126.791 Y116.121 E13.32641
G1 X126.304 Y117.314 E13.36927
G1 X126.002 Y118.294 E13.40338
G1 X125.782 Y119.305 E13.43779
G1 X125.65 Y120.321 E13.47187
G1 X125.601 Y121.474 E13.51025
G1 X125.597 Y142.509 E14.20988
G1 X125.557 Y143.234 E14.23403
G1 X125.437 Y143.951 E14.25821
G1 X125.24 Y144.65 E14.28236
G1 X124.967 Y145.323 E14.30652
G1 X124.621 Y145.962 E14.33068
G1 X124.208 Y146.559 E14.35483
G1 X123.731 Y147.107 E14.37899
G1 X123.197 Y147.599 E14.40314
G1 X122.612 Y148.03 E14.42731
G1 X121.983 Y148.394 E14.45148
G1 X121.318 Y148.686 E14.47564
G1 X120.625 Y148.904 E14.4998
G1 X119.913 Y149.044 E14.52394
G1 X118.995 Y149.108 E14.55454
G1 X115.998 Y149.107 E14.65422
G1 X115.273 Y149.067 E14.67837
G1 X114.556 Y148.947 E14.70255
G1 X113.857 Y148.749 E14.72672
G1 X113.184 Y148.476 E14.75087
G1 X112.545 Y148.131 E14.77502
G1 X111.948 Y147.717 E14.79919
G1 X111.4 Y147.24 E14.82335
G1 X110.908 Y146.706 E14.8475
G1 X110.477 Y146.121 E14.87167
G1 X110.114 Y145.492 E14.89583
G1 X109.821 Y144.827 E14.91999
G1 X109.604 Y144.134 E14.94415
G1 X109.464 Y143.422 E14.96828
G1 X109.4 Y142.507 E14.99879
G1 X109.4 Y121.479 E15.69818
G1 X109.35 Y120.316 E15.7369
G1 X109.219 Y119.305 E15.77081
G1 X108.999 Y118.3 E15.80503
G1 X108.692 Y117.308 E15.83956
G1 X108.204 Y116.11 E15.88259
G1 X108.047 Y115.683 E15.89772
G1 X107.806 Y114.951 E15.92335
G1 X107.617 Y114.25 E15.9475
G1 X107.506 Y113.527 E15.97183
G1 X107.431 Y112.757 E15.99756
G1 X107.401 Y112.031 E16.02173
G0 F6000 X107.801 Y112.015
G1 F1200 X107.848 Y111.343 E16.04413
G1 X107.945 Y110.572 E16.06998
G1 X108.073 Y109.88 E16.09339
G1 X108.27 Y109.228 E16.11604
G1 X108.536 Y108.496 E16.14194
G1 X108.813 Y107.85 E16.16532
G1 X109.144 Y107.267 E16.18762
G1 X109.564 Y106.612 E16.2135
G1 X109.977 Y106.042 E16.23691
G1 X110.435 Y105.539 E16.25954
G1 X110.986 Y104.997 E16.28524
G1 X111.515 Y104.533 E16.30865
G1 X112.06 Y104.152 E16.33076
G1 X112.721 Y103.741 E16.35665
G1 X113.339 Y103.404 E16.38006
G1 X113.967 Y103.147 E16.40263
G1 X114.701 Y102.893 E16.42847
G1 X115.379 Y102.701 E16.4519
G1 X116.054 Y102.589 E16.47466
G1 X116.83 Y102.504 E16.50063
G1 X117.533 Y102.467 E16.52404
G1 X118.2 Y102.506 E16.54626
G1 X118.971 Y102.593 E16.57207
G1 X119.665 Y102.712 E16.59549
G1 X120.313 Y102.898 E16.61791
G1 X121.046 Y103.153 E16.64372
G1 X121.697 Y103.422 E16.66715
G1 X122.292 Y103.75 E16.68975
G1 X122.952 Y104.162 E16.71563
G1 X123.527 Y104.568 E16.73904
G1 X124.025 Y105.009 E16.76116
G1 X124.575 Y105.552 E16.78687
G1 X125.047 Y106.074 E16.81028
G1 X125.442 Y106.623 E16.83277
G1 X125.861 Y107.278 E16.85863
G1 X126.206 Y107.892 E16.88206
G1 X126.467 Y108.505 E16.90422
G1 X126.731 Y109.233 E16.92997
G1 X126.933 Y109.908 E16.95341
G1 X127.053 Y110.569 E16.97575
G1 X127.151 Y111.344 E17.00173
G1 X127.2 Y112.047 E17.02517
G1 X127.17 Y112.727 E17.04781
G1 X127.095 Y113.492 E17.07338
G1 X126.987 Y114.188 E17.0968
G1 X126.812 Y114.833 E17.11903
G1 X126.567 Y115.574 E17.14499
G1 X126.421 Y115.97 E17.15903
G1 X125.928 Y117.178 E17.20242
G1 X125.613 Y118.2 E17.23799
G1 X125.387 Y119.238 E17.27332
G1 X125.25 Y120.288 E17.30854
G1 X125.201 Y121.457 E17.34746
G1 X125.197 Y142.509 E18.04765
G1 X125.157 Y143.212 E18.07107
G1 X125.037 Y143.906 E18.0945
G1 X124.84 Y144.582 E18.11792
G1 X124.567 Y145.231 E18.14133
G1 X124.223 Y145.844 E18.16471
G1 X123.811 Y146.415 E18.18813
G1 X123.337 Y146.936 E18.21156
G1 X122.807 Y147.399 E18.23497
G1 X122.228 Y147.8 E18.25839
G1 X121.607 Y148.132 E18.28181
G1 X120.953 Y148.391 E18.30521
G1 X120.273 Y148.575 E18.32864
G1 X119.577 Y148.681 E18.35205
G1 X118.995 Y148.708 E18.37143
G1 X115.998 Y148.707 E18.47111
G1 X115.295 Y148.667 E18.49453
G1 X114.601 Y148.547 E18.51796
G1 X113.926 Y148.35 E18.54134
G1 X113.277 Y148.077 E18.56476
G1 X112.663 Y147.732 E18.58819
G1 X112.092 Y147.32 E18.61161
G1 X111.571 Y146.846 E18.63503
G1 X111.108 Y146.316 E18.65844
G1 X110.708 Y145.737 E18.68185
G1 X110.376 Y145.116 E18.70527
G1 X110.116 Y144.462 E18.72868
G1 X109.933 Y143.782 E18.7521
G1 X109.827 Y143.086 E18.77551
G1 X109.8 Y142.507 E18.79479
G1 X109.8 Y121.462 E19.49475
G1 X109.749 Y120.282 E19.53404
G1 X109.614 Y119.238 E19.56905
G1 X109.387 Y118.201 E19.60436
G1 X109.07 Y117.175 E19.64007
G1 X108.574 Y115.959 E19.68375
G1 X108.427 Y115.558 E19.69796
G1 X108.186 Y114.826 E19.72359
G1 X108.004 Y114.146 E19.747
G1 X107.904 Y113.488 E19.76914
G1 X107.829 Y112.718 E19.79487
G1 X107.801 Y112.015 E19.81827
G0 F6000 X108.201 Y111.999
G1 F1200 X108.245 Y111.393 E19.83848
G1 X108.342 Y110.622 E19.86432
G1 X108.467 Y109.953 E19.88696
G1 X108.646 Y109.365 E19.9074
G1 X108.912 Y108.633 E19.93331
G1 X109.181 Y108.008 E19.95594
G1 X109.481 Y107.483 E19.97605
G1 X109.901 Y106.828 E20.00193
G1 X110.301 Y106.278 E20.02455
G1 X110.716 Y105.824 E20.04501
G1 X111.267 Y105.282 E20.07071
G1 X111.779 Y104.834 E20.09334
