;FLAVOR:Marlin
;TIME:7077
;Filament used: 4.4105m
;Layer height: 0.2
;MINX:48.779
;MINY:40.102
;MINZ:0.2
;MAXX:192.901
;MAXY:188.55
;MAXZ:2
;Generated with Cura_SteamEngine 5.0.0
M140 S70
M105
M190 S70
M104 S200
M105
M109 S200
M82 ;absolute extrusion mode
; Ender 3 Custom Start G-code
G28 ; Home all axes
M420 S1; Bed Leveling On
G92 E0 ; Reset Extruder
G1 Z2.0 F3000 ; Move Z Axis up little to prevent scratching of Heat Bed
G1 X0.1 Y20 Z0.3 F5000.0 ; Move to start position
G1 X0.1 Y200.0 Z0.3 F1500.0 E15 ; Draw the first line
G1 X0.4 Y200.0 Z0.3 F5000.0 ; Move to side a little
G1 X0.4 Y20 Z0.3 F1500.0 E30 ; Draw the second line
G92 E0 ; Reset Extruder
G1 Z2.0 F3000 ; Move Z Axis up little to prevent scratching of Heat Bed
G1 X5 Y20 Z0.3 F5000.0 ; Move over to prevent blob squish
G92 E0
G92 E0
G1 F2700 E-5
;LAYER_COUNT:10
;LAYER:0
M107
G0 F6000 X52.169 Y66.674 Z0.2
G0 X48.779 Y73.631
;TYPE:SKIRT
G1 F2700 E0
G1 F1200 X48.806 Y73.178 E0.01509
G1 X48.852 Y72.664 E0.03226
G1 X48.962 Y71.882 E0.05852
G1 X49.175 Y71.036 E0.08754
G1 X49.243 Y70.818 E0.09513
G1 X49.516 Y70.077 E0.1214
G1 X50.039 Y69.064 E0.15932
G1 X50.161 Y68.865 E0.16708
G1 X50.607 Y68.214 E0.19333
G1 X51.117 Y67.611 E0.21959
G1 X51.686 Y67.062 E0.24589
G1 X52.169 Y66.674 E0.2665
G1 X52.354 Y66.537 E0.27416
G1 X53.012 Y66.099 E0.30045
G1 X53.71 Y65.731 E0.32669
G1 X54.442 Y65.435 E0.35295
G1 X55.127 Y65.232 E0.37671
G1 X55.358 Y65.175 E0.38463
G1 X56.134 Y65.025 E0.41092
G1 X56.92 Y64.954 E0.43716
G1 X57.651 Y64.96 E0.46148
G1 X57.89 Y64.973 E0.46944
G1 X58.584 Y65.046 E0.49265
G1 X58.602 Y64.755 E0.50235
G1 X58.662 Y64.255 E0.5191
G1 X58.795 Y63.476 E0.54538
G1 X59.012 Y62.661 E0.57343
G1 X59.262 Y61.912 E0.59969
G1 X59.531 Y61.302 E0.62187
G1 X59.717 Y60.925 E0.63585
G1 X60.102 Y60.235 E0.66213
G1 X60.61 Y59.518 E0.69136
G1 X60.856 Y59.209 E0.70449
G1 X61.378 Y58.617 E0.73075
G1 X62.102 Y57.963 E0.7632
G1 X62.41 Y57.718 E0.77629
G1 X63.052 Y57.258 E0.80255
G1 X63.815 Y56.827 E0.8317
G1 X64.192 Y56.641 E0.84568
G1 X64.917 Y56.328 E0.87195
G1 X65.539 Y56.125 E0.89371
G1 X65.971 Y56.004 E0.90863
G1 X66.741 Y55.83 E0.93489
G1 X67.146 Y55.771 E0.9485
G1 X67.646 Y55.711 E0.96525
G1 X68.589 Y55.655 E0.99667
G1 X69.144 Y55.656 E1.01513
G1 X69.872 Y55.691 E1.03937
G1 X70.489 Y55.75 E1.05998
G1 X71.068 Y55.828 E1.07942
G1 X71.743 Y55.944 E1.10219
G1 X72.233 Y56.044 E1.11883
G1 X72.962 Y56.218 E1.14376
G1 X73.323 Y56.313 E1.15617
G1 X74.106 Y56.54 E1.18329
G1 X75.25 Y56.917 E1.22335
G1 X76.355 Y57.326 E1.26254
G1 X76.166 Y56.806 E1.28094
G1 X75.791 Y55.668 E1.32079
G1 X75.563 Y54.884 E1.34795
G1 X75.465 Y54.512 E1.36074
G1 X75.291 Y53.781 E1.38574
G1 X75.191 Y53.291 E1.40237
G1 X75.076 Y52.619 E1.42505
G1 X75.001 Y52.06 E1.4438
G1 X74.941 Y51.445 E1.46436
G1 X74.904 Y50.688 E1.48956
G1 X74.904 Y50.131 E1.50809
G1 X74.96 Y49.202 E1.53905
G1 X75.02 Y48.702 E1.55579
G1 X75.249 Y47.543 E1.59509
G1 X75.369 Y47.111 E1.61
G1 X75.618 Y46.362 E1.63625
G1 X75.889 Y45.748 E1.65858
G1 X76.075 Y45.371 E1.67256
G1 X76.46 Y44.681 E1.69884
G1 X76.975 Y43.954 E1.72847
G1 X77.221 Y43.646 E1.74158
G1 X77.745 Y43.055 E1.76785
G1 X78.448 Y42.419 E1.79938
G1 X78.756 Y42.173 E1.81249
G1 X79.397 Y41.712 E1.83875
G1 X80.173 Y41.273 E1.86841
G1 X80.55 Y41.087 E1.88239
G1 X81.275 Y40.774 E1.90865
G1 X81.913 Y40.567 E1.93096
G1 X82.345 Y40.447 E1.94588
G1 X83.504 Y40.218 E1.98517
G1 X84.004 Y40.158 E2.00192
G1 X84.933 Y40.102 E2.03287
G1 X85.488 Y40.102 E2.05133
G1 X86.23 Y40.137 E2.07604
G1 X86.847 Y40.196 E2.09665
G1 X87.426 Y40.274 E2.11609
G1 X88.101 Y40.39 E2.13887
G1 X88.591 Y40.49 E2.1555
G1 X89.32 Y40.664 E2.18043
G1 X89.687 Y40.761 E2.19305
G1 X90.765 Y41.081 E2.23045
G1 X91.867 Y41.455 E2.26916
G1 X92.964 Y41.869 E2.30816
G1 X94.091 Y42.331 E2.34867
G1 X95.244 Y42.838 E2.39056
G1 X96.409 Y43.382 E2.43333
G1 X97.628 Y43.977 E2.47844
G1 X98.766 Y44.558 E2.52094
G1 X99.775 Y45.174 E2.56026
G1 X103.13 Y47.588 E2.69773
G1 X106.76 Y50.243 E2.84731
G1 X113.717 Y55.453 E3.1364
G1 X120.5 Y60.7 E3.42162
G1 X127.449 Y66.274 E3.71791
G1 X134.287 Y71.987 E4.01427
G1 X137.68 Y74.916 E4.16336
G1 X141.022 Y77.869 E4.31169
G1 X144.3 Y80.832 E4.45866
G1 X147.509 Y83.805 E4.60415
G1 X150.64 Y86.781 E4.74783
G1 X153.701 Y89.765 E4.89001
G1 X156.681 Y92.751 E5.03032
G1 X159.583 Y95.742 E5.16893
G1 X162.396 Y98.731 E5.30544
G1 X165.129 Y101.722 E5.4402
G1 X167.772 Y104.713 E5.57296
G1 X170.319 Y107.698 E5.70347
G1 X172.777 Y110.684 E5.8321
G1 X175.135 Y113.664 E5.95849
G1 X177.393 Y116.637 E6.08266
G1 X179.556 Y119.613 E6.20503
G1 X181.609 Y122.582 E6.32509
G1 X183.563 Y125.555 E6.44341
G1 X185.404 Y128.529 E6.55975
G1 X187.189 Y131.615 E6.67832
G1 X188.754 Y134.532 E6.78842
G1 X189.993 Y137.028 E6.88111
G1 X190.307 Y137.752 E6.90735
G1 X190.547 Y138.504 E6.93361
G1 X190.71 Y139.277 E6.95988
G1 X190.794 Y140.062 E6.98614
G1 X190.798 Y140.852 E7.01242
G1 X190.722 Y141.638 E7.03868
G1 X190.567 Y142.412 E7.06494
G1 X190.334 Y143.167 E7.09122
G1 X190.027 Y143.894 E7.11746
G1 X189.954 Y144.028 E7.12254
G1 X190.817 Y146.193 E7.20006
G1 X191.436 Y147.902 E7.26051
G1 X191.891 Y149.285 E7.30894
G1 X192.004 Y149.658 E7.3219
G1 X192.359 Y150.951 E7.3665
G1 X192.5 Y151.558 E7.38722
G1 X192.73 Y152.767 E7.42816
G1 X192.849 Y153.691 E7.45914
G1 X192.887 Y154.245 E7.47761
G1 X192.901 Y155.035 E7.50389
G1 X192.875 Y155.461 E7.51809
G1 X192.83 Y155.974 E7.53521
G1 X192.721 Y156.756 E7.56148
G1 X192.509 Y157.605 E7.59058
G1 X192.441 Y157.824 E7.59821
G1 X192.169 Y158.565 E7.62446
G1 X191.824 Y159.275 E7.65072
G1 X191.499 Y159.819 E7.67179
G1 X191.049 Y160.468 E7.69806
G1 X190.536 Y161.068 E7.72432
G1 X189.965 Y161.613 E7.75057
G1 X189.397 Y162.063 E7.77467
G1 X188.744 Y162.507 E7.80094
G1 X188.05 Y162.884 E7.8272
G1 X187.321 Y163.188 E7.85347
G1 X186.554 Y163.42 E7.88013
G1 X186.323 Y163.477 E7.88804
G1 X185.547 Y163.627 E7.91433
G1 X184.761 Y163.698 E7.94058
G1 X184.03 Y163.692 E7.96489
G1 X183.791 Y163.679 E7.97285
G1 X183.006 Y163.597 E7.9991
G1 X182.295 Y163.451 E8.02324
G1 X182.047 Y163.388 E8.03175
G1 X180.96 Y163.025 E8.06987
G1 X180.498 Y162.832 E8.08652
G1 X179.609 Y162.392 E8.11952
G1 X179.08 Y162.087 E8.13982
G1 X178.547 Y161.751 E8.16078
G1 X177.941 Y161.333 E8.18527
G1 X177.609 Y161.09 E8.19895
G1 X177.089 Y160.688 E8.22081
G1 X176.489 Y160.2 E8.24653
G1 X175.443 Y159.29 E8.29265
G1 X174.41 Y158.333 E8.33948
G1 X174.168 Y158.098 E8.3507
G1 X173.977 Y158.719 E8.37231
G1 X173.669 Y159.446 E8.39857
G1 X173.595 Y159.582 E8.40372
G1 X174.459 Y161.747 E8.48125
G1 X175.079 Y163.46 E8.54185
G1 X175.533 Y164.842 E8.59023
G1 X175.645 Y165.211 E8.60305
G1 X176 Y166.504 E8.64765
G1 X176.141 Y167.112 E8.66841
G1 X176.371 Y168.322 E8.70937
G1 X176.489 Y169.23 E8.73983
G1 X176.528 Y169.783 E8.75827
G1 X176.543 Y170.573 E8.78455
G1 X176.516 Y171.029 E8.79974
G1 X176.47 Y171.542 E8.81687
G1 X176.36 Y172.324 E8.84314
G1 X176.163 Y173.117 E8.87031
G1 X176.096 Y173.337 E8.87796
G1 X175.828 Y174.08 E8.90423
G1 X175.486 Y174.792 E8.9305
G1 X175.141 Y175.373 E8.95298
G1 X174.691 Y176.022 E8.97925
G1 X174.178 Y176.622 E9.0055
G1 X173.607 Y177.167 E9.03176
G1 X173.039 Y177.617 E9.05586
G1 X172.386 Y178.061 E9.08212
G1 X171.692 Y178.438 E9.10839
G1 X170.963 Y178.742 E9.13466
G1 X170.188 Y178.976 E9.16159
G1 X169.956 Y179.033 E9.16953
G1 X169.181 Y179.182 E9.19578
G1 X168.394 Y179.252 E9.22206
G1 X167.67 Y179.246 E9.24614
G1 X167.432 Y179.233 E9.25407
G1 X166.738 Y179.16 E9.27728
G1 X166.721 Y179.45 E9.28694
G1 X166.661 Y179.95 E9.30369
G1 X166.528 Y180.729 E9.32997
G1 X166.428 Y181.125 E9.34356
G1 X166.307 Y181.557 E9.35848
G1 X166.056 Y182.305 E9.38472
G1 X165.795 Y182.897 E9.40624
G1 X165.61 Y183.273 E9.42018
G1 X165.226 Y183.963 E9.44644
G1 X164.713 Y184.687 E9.47596
G1 X164.467 Y184.996 E9.48909
G1 X163.945 Y185.588 E9.51534
G1 X163.223 Y186.24 E9.5477
G1 X162.914 Y186.486 E9.56084
G1 X162.272 Y186.946 E9.5871
G1 X161.5 Y187.383 E9.61661
G1 X161.122 Y187.569 E9.63062
G1 X160.396 Y187.881 E9.6569
G1 X159.775 Y188.083 E9.67862
G1 X159.345 Y188.203 E9.69347
G1 X158.574 Y188.376 E9.71975
G1 X158.177 Y188.434 E9.7331
G1 X157.677 Y188.494 E9.74985
G1 X156.748 Y188.55 E9.7808
G1 X156.192 Y188.55 E9.79929
G1 X155.437 Y188.513 E9.82444
G1 X154.82 Y188.453 E9.84505
G1 X154.265 Y188.379 E9.86368
G1 X153.59 Y188.264 E9.88645
G1 X153.087 Y188.161 E9.90353
G1 X152.359 Y187.987 E9.92842
G1 X151.994 Y187.891 E9.94098
G1 X150.911 Y187.569 E9.97856
G1 X149.813 Y187.196 E10.01712
G1 X148.72 Y186.784 E10.05598
G1 X147.59 Y186.321 E10.09659
G1 X146.437 Y185.814 E10.13848
G1 X145.269 Y185.269 E10.18135
G1 X144.05 Y184.673 E10.22648
G1 X142.913 Y184.092 E10.26895
G1 X141.906 Y183.477 E10.3082
G1 X138.552 Y181.063 E10.44564
G1 X134.92 Y178.408 E10.59528
G1 X127.964 Y173.199 E10.88431
G1 X121.181 Y167.952 E11.16954
G1 X114.232 Y162.377 E11.46585
G1 X107.395 Y156.665 E11.76217
G1 X104.001 Y153.736 E11.91128
G1 X100.66 Y150.784 E12.05956
G1 X97.379 Y147.819 E12.20664
G1 X94.173 Y144.848 E12.35202
G1 X91.039 Y141.87 E12.49581
G1 X87.979 Y138.886 E12.63797
G1 X84.999 Y135.9 E12.77828
G1 X82.099 Y132.91 E12.91682
G1 X79.285 Y129.921 E13.05336
G1 X76.55 Y126.928 E13.18821
G1 X73.911 Y123.94 E13.32081
G1 X71.36 Y120.953 E13.45145
G1 X68.903 Y117.967 E13.58007
G1 X66.546 Y114.988 E13.70641
G1 X64.285 Y112.012 E13.83072
G1 X62.126 Y109.039 E13.95293
G1 X60.072 Y106.07 E14.073
G1 X58.118 Y103.098 E14.1913
G1 X56.276 Y100.121 E14.30774
G1 X54.491 Y97.034 E14.42634
G1 X52.928 Y94.12 E14.53633
G1 X51.689 Y91.625 E14.62898
G1 X51.374 Y90.901 E14.65524
G1 X51.134 Y90.149 E14.68149
G1 X50.971 Y89.376 E14.70777
G1 X50.887 Y88.591 E14.73403
G1 X50.883 Y87.801 E14.7603
G1 X50.959 Y87.015 E14.78657
G1 X51.114 Y86.241 E14.81282
G1 X51.346 Y85.486 E14.83909
G1 X51.654 Y84.759 E14.86535
G1 X51.727 Y84.625 E14.87043
G1 X50.86 Y82.453 E14.94821
G1 X50.245 Y80.75 E15.00843
G1 X49.79 Y79.368 E15.05683
G1 X49.677 Y78.994 E15.06982
G1 X49.322 Y77.701 E15.11442
G1 X49.181 Y77.094 E15.13514
G1 X48.951 Y75.885 E15.17608
G1 X48.833 Y74.975 E15.2066
G1 X48.794 Y74.421 E15.22507
G1 X48.779 Y73.631 E15.25135
G0 F6000 X49.179 Y73.624
G1 F1200 X49.204 Y73.213 E15.26504
G1 X49.25 Y72.699 E15.28221
G1 X49.359 Y71.938 E15.30778
G1 X49.557 Y71.155 E15.33464
G1 X49.625 Y70.937 E15.34224
G1 X49.892 Y70.216 E15.36781
G1 X50.38 Y69.273 E15.40312
G1 X50.502 Y69.074 E15.41089
G1 X50.938 Y68.44 E15.43648
G1 X51.437 Y67.855 E15.46205
G1 X51.994 Y67.325 E15.48763
G1 X52.407 Y66.995 E15.50521
G1 X52.592 Y66.858 E15.51286
G1 X53.233 Y66.433 E15.53844
G1 X53.915 Y66.077 E15.56403
G1 X54.63 Y65.793 E15.58962
G1 X55.223 Y65.62 E15.61017
G1 X55.454 Y65.563 E15.61808
G1 X56.21 Y65.418 E15.64368
G1 X56.976 Y65.352 E15.66925
G1 X57.629 Y65.359 E15.69097
G1 X57.868 Y65.372 E15.69894
G1 X58.633 Y65.454 E15.72453
G1 X58.956 Y65.52 E15.73549
G1 X58.999 Y64.802 E15.75941
G1 X59.059 Y64.302 E15.77616
G1 X59.277 Y63.199 E15.81356
G1 X59.397 Y62.768 E15.82844
G1 X59.642 Y62.039 E15.85402
G1 X59.89 Y61.479 E15.87439
G1 X60.076 Y61.102 E15.88837
G1 X60.451 Y60.431 E15.91394
G1 X60.923 Y59.767 E15.94103
G1 X61.169 Y59.458 E15.95417
G1 X61.678 Y58.882 E15.97974
G1 X62.351 Y58.276 E16.00986
G1 X62.659 Y58.031 E16.02295
G1 X63.285 Y57.584 E16.04853
G1 X63.992 Y57.186 E16.07552
G1 X64.369 Y57 E16.0895
G1 X65.075 Y56.696 E16.11506
G1 X65.647 Y56.51 E16.13507
G1 X66.079 Y56.389 E16.14999
G1 X67.193 Y56.168 E16.18776
G1 X67.693 Y56.108 E16.20451
G1 X68.588 Y56.055 E16.23433
G1 X69.143 Y56.056 E16.25279
G1 X69.834 Y56.09 E16.2758
G1 X70.451 Y56.149 E16.29642
G1 X71 Y56.222 E16.31484
G1 X71.675 Y56.338 E16.33762
G1 X72.14 Y56.433 E16.3534
G1 X72.869 Y56.607 E16.37833
G1 X73.211 Y56.698 E16.3901
G1 X74.284 Y57.015 E16.42732
G1 X75.369 Y57.383 E16.46542
G1 X76.455 Y57.793 E16.50403
G1 X77.052 Y58.036 E16.52547
G1 X76.63 Y56.92 E16.56515
G1 X76.264 Y55.84 E16.60308
G1 X75.947 Y54.772 E16.64013
G1 X75.854 Y54.42 E16.65224
G1 X75.68 Y53.689 E16.67724
G1 X75.585 Y53.223 E16.69305
G1 X75.47 Y52.551 E16.71573
G1 X75.399 Y52.022 E16.73348
G1 X75.339 Y51.407 E16.75403
G1 X75.304 Y50.688 E16.77798
G1 X75.304 Y50.131 E16.7965
G1 X75.357 Y49.249 E16.82589
G1 X75.417 Y48.749 E16.84264
G1 X75.634 Y47.65 E16.8799
G1 X75.754 Y47.218 E16.89481
G1 X75.998 Y46.489 E16.92038
G1 X76.248 Y45.925 E16.9409
G1 X76.434 Y45.548 E16.95488
G1 X76.809 Y44.877 E16.98045
G1 X77.288 Y44.204 E17.00792
G1 X77.534 Y43.896 E17.02103
G1 X78.045 Y43.321 E17.04662
G1 X78.698 Y42.732 E17.07587
G1 X79.006 Y42.486 E17.08898
G1 X79.631 Y42.038 E17.11455
G1 X80.35 Y41.632 E17.14202
G1 X80.727 Y41.446 E17.156
G1 X81.433 Y41.142 E17.18157
G1 X82.02 Y40.952 E17.20209
G1 X82.452 Y40.832 E17.217
G1 X83.551 Y40.615 E17.25426
G1 X84.051 Y40.555 E17.27101
G1 X84.933 Y40.502 E17.3004
G1 X85.488 Y40.502 E17.31885
G1 X86.192 Y40.536 E17.3423
G1 X86.809 Y40.595 E17.36291
G1 X87.358 Y40.668 E17.38133
G1 X88.033 Y40.784 E17.40411
G1 X88.498 Y40.879 E17.4199
G1 X89.227 Y41.053 E17.44483
G1 X89.575 Y41.145 E17.4568
G1 X90.638 Y41.46 E17.49367
G1 X91.727 Y41.829 E17.53192
G1 X92.813 Y42.239 E17.57052
G1 X93.931 Y42.698 E17.61072
G1 X95.075 Y43.201 E17.65229
G1 X96.234 Y43.741 E17.69481
G1 X97.446 Y44.333 E17.73968
G1 X98.584 Y44.914 E17.78217
G1 X99.542 Y45.499 E17.81951
G1 X102.893 Y47.911 E17.95683
G1 X106.52 Y50.563 E18.10628
G1 X113.472 Y55.769 E18.39515
G1 X120.249 Y61.012 E18.68013
G1 X127.193 Y66.581 E18.97619
G1 X134.025 Y72.289 E19.27229
G1 X137.415 Y75.216 E19.42126
G1 X140.753 Y78.166 E19.56942
G1 X144.028 Y81.125 E19.71623
G1 X147.234 Y84.095 E19.86158
G1 X150.361 Y87.067 E20.00507
G1 X153.418 Y90.048 E20.14708
G1 X156.394 Y93.03 E20.28721
G1 X159.292 Y96.017 E20.42563
G1 X162.101 Y99.001 E20.56193
G1 X164.829 Y101.987 E20.69645
G1 X167.468 Y104.973 E20.829
G1 X170.01 Y107.952 E20.95925
G1 X172.464 Y110.932 E21.08764
G1 X174.816 Y113.906 E21.21376
G1 X177.069 Y116.873 E21.33766
G1 X179.227 Y119.841 E21.45972
G1 X181.275 Y122.801 E21.57943
G1 X183.223 Y125.766 E21.69743
G1 X185.058 Y128.729 E21.81335
G1 X186.836 Y131.804 E21.93149
G1 X188.395 Y134.71 E22.04117
G1 X189.634 Y137.206 E22.13386
G1 X189.94 Y137.912 E22.15945
G1 X190.171 Y138.645 E22.18501
G1 X190.324 Y139.399 E22.2106
G1 X190.399 Y140.165 E22.2362
G1 X190.393 Y140.934 E22.26178
G1 X190.308 Y141.698 E22.28734
G1 X190.144 Y142.449 E22.31291
G1 X189.902 Y143.18 E22.33852
G1 X189.586 Y143.881 E22.3641
G1 X189.514 Y144.005 E22.36887
G1 X190.442 Y146.33 E22.45213
G1 X191.056 Y148.027 E22.51215
G1 X191.511 Y149.41 E22.56058
G1 X191.618 Y149.764 E22.57288
G1 X191.973 Y151.057 E22.61747
G1 X192.107 Y151.633 E22.63714
G1 X192.337 Y152.842 E22.67807
G1 X192.45 Y153.719 E22.70748
G1 X192.488 Y154.273 E22.72595
G1 X192.477 Y155.426 E22.7643
G1 X192.432 Y155.939 E22.78143
G1 X192.325 Y156.7 E22.80699
G1 X192.127 Y157.486 E22.83395
G1 X192.059 Y157.705 E22.84158
G1 X191.793 Y158.427 E22.86717
G1 X191.28 Y159.413 E22.90414
G1 X191.159 Y159.608 E22.91177
G1 X190.72 Y160.239 E22.93734
G1 X190.218 Y160.822 E22.96293
G1 X189.658 Y161.349 E22.9885
G1 X189.155 Y161.744 E23.00977
G1 X188.519 Y162.176 E23.03535
G1 X187.841 Y162.54 E23.06094
G1 X187.13 Y162.832 E23.08651
G1 X186.458 Y163.032 E23.10983
G1 X186.227 Y163.089 E23.11774
G1 X185.471 Y163.234 E23.14334
G1 X184.705 Y163.3 E23.16891
G1 X184.052 Y163.293 E23.19063
G1 X183.813 Y163.28 E23.19859
G1 X183.048 Y163.198 E23.22418
G1 X182.393 Y163.063 E23.24643
G1 X182.145 Y163 E23.25494
G1 X181.115 Y162.656 E23.29106
G1 X180.653 Y162.463 E23.30771
G1 X179.809 Y162.046 E23.33902
G1 X179.28 Y161.741 E23.35933
G1 X178.774 Y161.421 E23.37924
G1 X178.168 Y161.003 E23.40373
G1 X177.853 Y160.774 E23.41668
G1 X177.339 Y160.375 E23.43832
G1 X176.75 Y159.897 E23.46355
G1 X175.714 Y158.996 E23.50922
G1 X174.688 Y158.046 E23.55572
G1 X174.212 Y157.585 E23.57776
G1 X173.868 Y157.623 E23.58928
G1 X173.786 Y158.001 E23.60214
G1 X173.545 Y158.732 E23.62774
G1 X173.229 Y159.433 E23.65332
G1 X173.155 Y159.56 E23.6582
G1 X174.084 Y161.884 E23.74145
G1 X174.699 Y163.584 E23.80158
G1 X175.153 Y164.966 E23.84996
G1 X175.259 Y165.317 E23.86215
G1 X175.614 Y166.61 E23.90675
