;FLAVOR:Marlin
;TIME:9654
;Filament used: 6.98169m
;Layer height: 0.2
;MINX:46.718
;MINY:22.337
;MINZ:0.2
;MAXX:184.517
;MAXY:212.677
;MAXZ:2
;Generated with Cura_SteamEngine 5.0.0
M140 S70
M105
M190 S70
M104 S200
M105
M109 S200
M82 ;absolute extrusion mode
; Ender 3 Custom Start G-code
G28 ; Home all axes
M420 S1; Bed Leveling On
G92 E0 ; Reset Extruder
G1 Z2.0 F3000 ; Move Z Axis up little to prevent scratching of Heat Bed
G1 X0.1 Y20 Z0.3 F5000.0 ; Move to start position
G1 X0.1 Y200.0 Z0.3 F1500.0 E15 ; Draw the first line
G1 X0.4 Y200.0 Z0.3 F5000.0 ; Move to side a little
G1 X0.4 Y20 Z0.3 F1500.0 E30 ; Draw the second line
G92 E0 ; Reset Extruder
G1 Z2.0 F3000 ; Move Z Axis up little to prevent scratching of Heat Bed
G1 X5 Y20 Z0.3 F5000.0 ; Move over to prevent blob squish
G92 E0
G92 E0
G1 F2700 E-5
;LAYER_COUNT:10
;LAYER:0
M107
G0 F6000 X114.257 Y43.203 Z0.2
;TYPE:SKIRT
G1 F2700 E0
G1 F1200 X114.686 Y42.54 E0.02627
G1 X115.18 Y41.924 E0.05253
G1 X115.733 Y41.361 E0.07878
G1 X116.341 Y40.856 E0.10506
G1 X116.996 Y40.416 E0.13131
G1 X117.693 Y40.044 E0.15759
G1 X118.424 Y39.745 E0.18385
G1 X119.181 Y39.521 E0.21011
G1 X119.957 Y39.375 E0.23637
G1 X120.744 Y39.308 E0.26264
G1 X121.534 Y39.32 E0.28892
G1 X122.318 Y39.413 E0.31518
G1 X123.089 Y39.585 E0.34146
G1 X123.838 Y39.833 E0.3677
G1 X124.559 Y40.156 E0.39397
G1 X124.912 Y40.348 E0.40734
G1 X126.979 Y41.541 E0.48672
G1 X129.029 Y37.99 E0.62309
G1 X129.458 Y37.327 E0.64936
G1 X129.952 Y36.711 E0.67562
G1 X130.505 Y36.148 E0.70187
G1 X131.113 Y35.643 E0.72816
G1 X131.768 Y35.203 E0.7544
G1 X132.465 Y34.831 E0.78068
G1 X133.196 Y34.532 E0.80695
G1 X133.953 Y34.308 E0.8332
G1 X134.729 Y34.162 E0.85947
G1 X135.516 Y34.095 E0.88574
G1 X136.306 Y34.107 E0.91201
G1 X137.09 Y34.2 E0.93827
G1 X137.861 Y34.372 E0.96455
G1 X138.61 Y34.62 E0.99079
G1 X139.331 Y34.943 E1.01707
G1 X139.684 Y35.135 E1.03043
G1 X143.06 Y37.084 E1.16009
G1 X147.274 Y29.785 E1.44041
G1 X147.703 Y29.122 E1.46667
G1 X148.197 Y28.506 E1.49293
G1 X148.75 Y27.943 E1.51918
G1 X149.358 Y27.438 E1.54547
G1 X150.014 Y26.998 E1.57174
G1 X150.71 Y26.626 E1.59799
G1 X151.441 Y26.327 E1.62426
G1 X152.198 Y26.103 E1.65052
G1 X152.974 Y25.957 E1.67678
G1 X153.761 Y25.89 E1.70305
G1 X154.551 Y25.902 E1.72933
G1 X155.335 Y25.995 E1.75559
G1 X156.106 Y26.167 E1.78186
G1 X156.855 Y26.415 E1.8081
G1 X157.576 Y26.738 E1.83438
G1 X157.929 Y26.93 E1.84774
G1 X160.169 Y28.224 E1.93378
G1 X161.319 Y26.232 E2.01029
G1 X161.748 Y25.569 E2.03655
G1 X162.242 Y24.953 E2.06281
G1 X162.795 Y24.39 E2.08906
G1 X163.403 Y23.885 E2.11535
G1 X164.059 Y23.445 E2.14162
G1 X164.755 Y23.073 E2.16787
G1 X165.486 Y22.774 E2.19414
G1 X166.243 Y22.55 E2.2204
G1 X167.019 Y22.404 E2.24666
G1 X167.806 Y22.337 E2.27293
G1 X168.596 Y22.349 E2.29921
G1 X169.38 Y22.442 E2.32547
G1 X170.151 Y22.614 E2.35174
G1 X170.9 Y22.862 E2.37798
G1 X171.621 Y23.185 E2.40426
G1 X171.973 Y23.377 E2.4176
G1 X180.621 Y28.369 E2.74971
G1 X181.285 Y28.798 E2.776
G1 X181.901 Y29.291 E2.80225
G1 X182.464 Y29.845 E2.82852
G1 X182.968 Y30.453 E2.85478
G1 X183.409 Y31.108 E2.88105
G1 X183.78 Y31.805 E2.90731
G1 X184.08 Y32.535 E2.93356
G1 X184.304 Y33.293 E2.95985
G1 X184.45 Y34.069 E2.98611
G1 X184.517 Y34.855 E3.01235
G1 X184.505 Y35.645 E3.03863
G1 X184.412 Y36.429 E3.06488
G1 X184.241 Y37.2 E3.09115
G1 X183.992 Y37.95 E3.11744
G1 X183.669 Y38.67 E3.14368
G1 X183.477 Y39.024 E3.15708
G1 X171.644 Y59.521 E3.94426
G1 X172.346 Y59.731 E3.96863
G1 X172.985 Y59.953 E3.99113
G1 X173.575 Y60.185 E4.01221
G1 X174.284 Y60.498 E4.03799
G1 X174.873 Y60.789 E4.05984
G1 X175.521 Y61.143 E4.0844
G1 X176.046 Y61.457 E4.10475
G1 X176.7 Y61.884 E4.13073
G1 X177.213 Y62.249 E4.15167
G1 X177.777 Y62.686 E4.1754
G1 X178.249 Y63.082 E4.19589
G1 X178.825 Y63.606 E4.22179
G1 X179.283 Y64.059 E4.24321
G1 X179.815 Y64.63 E4.26917
G1 X180.207 Y65.085 E4.28915
G1 X180.663 Y65.657 E4.31348
G1 X181.027 Y66.153 E4.33394
G1 X181.46 Y66.794 E4.35967
G1 X181.789 Y67.324 E4.38042
G1 X182.177 Y68.011 E4.40666
G1 X182.44 Y68.52 E4.42571
G1 X182.722 Y69.118 E4.4477
G1 X182.927 Y69.594 E4.46494
G1 X183.207 Y70.307 E4.49042
G1 X183.403 Y70.868 E4.51018
G1 X183.634 Y71.62 E4.53635
G1 X183.813 Y72.314 E4.56019
G1 X184.05 Y73.448 E4.59872
G1 X184.174 Y74.247 E4.62561
G1 X184.288 Y75.357 E4.66272
G1 X184.329 Y76.161 E4.6895
G1 X184.328 Y77.319 E4.72802
G1 X184.291 Y78.072 E4.75309
G1 X184.182 Y79.186 E4.79032
G1 X184.07 Y79.942 E4.81574
G1 X183.852 Y81.042 E4.85304
G1 X183.673 Y81.763 E4.87774
G1 X183.341 Y82.872 E4.91625
G1 X183.096 Y83.57 E4.94085
G1 X182.674 Y84.609 E4.97815
G1 X182.383 Y85.243 E5.00135
G1 X181.89 Y86.201 E5.03719
G1 X181.709 Y86.532 E5.04973
G1 X122.689 Y188.762 E8.97589
G1 X122.26 Y189.425 E9.00215
G1 X121.766 Y190.041 E9.02841
G1 X121.213 Y190.604 E9.05466
G1 X120.605 Y191.109 E9.08095
G1 X119.95 Y191.549 E9.10719
G1 X119.253 Y191.921 E9.13347
G1 X118.522 Y192.22 E9.15974
G1 X117.765 Y192.444 E9.186
G1 X116.989 Y192.59 E9.21226
G1 X116.202 Y192.657 E9.23853
G1 X115.412 Y192.645 E9.26481
G1 X114.628 Y192.552 E9.29107
G1 X113.857 Y192.38 E9.31734
G1 X113.108 Y192.132 E9.34358
G1 X112.387 Y191.809 E9.36986
G1 X112.034 Y191.617 E9.38323
G1 X109.794 Y190.323 E9.46927
G1 X108.744 Y192.141 E9.53909
G1 X108.315 Y192.804 E9.56536
G1 X107.821 Y193.42 E9.59162
G1 X107.267 Y193.984 E9.61792
G1 X106.66 Y194.488 E9.64416
G1 X106.004 Y194.928 E9.67043
G1 X105.307 Y195.3 E9.69671
G1 X104.577 Y195.599 E9.72294
G1 X103.819 Y195.823 E9.74923
G1 X103.043 Y195.969 E9.7755
G1 X102.257 Y196.036 E9.80173
G1 X101.467 Y196.024 E9.82801
G1 X100.683 Y195.931 E9.85427
G1 X99.912 Y195.759 E9.88055
G1 X99.162 Y195.511 E9.90682
G1 X98.442 Y195.188 E9.93307
G1 X98.09 Y194.996 E9.9464
G1 X94.593 Y192.978 E10.08069
G1 X88.478 Y203.57 E10.48747
G1 X88.049 Y204.233 E10.51374
G1 X87.555 Y204.849 E10.54
G1 X87.002 Y205.412 E10.56625
G1 X86.394 Y205.917 E10.59254
G1 X85.739 Y206.357 E10.61878
G1 X85.042 Y206.729 E10.64506
G1 X84.311 Y207.028 E10.67133
G1 X83.554 Y207.252 E10.69759
G1 X82.778 Y207.398 E10.72385
G1 X81.991 Y207.465 E10.75012
G1 X81.201 Y207.453 E10.7764
G1 X80.417 Y207.36 E10.80266
G1 X79.646 Y207.188 E10.82893
G1 X78.897 Y206.94 E10.85517
G1 X78.176 Y206.617 E10.88145
G1 X77.823 Y206.425 E10.89481
G1 X75.756 Y205.232 E10.97419
G1 X73.706 Y208.782 E11.11054
G1 X73.277 Y209.445 E11.1368
G1 X72.783 Y210.061 E11.16307
G1 X72.23 Y210.625 E11.18934
G1 X71.622 Y211.129 E11.2156
G1 X70.966 Y211.569 E11.24188
G1 X70.27 Y211.941 E11.26812
G1 X69.539 Y212.24 E11.29439
G1 X68.782 Y212.464 E11.32065
G1 X68.005 Y212.61 E11.34695
G1 X67.219 Y212.677 E11.37318
G1 X66.429 Y212.665 E11.39946
G1 X65.645 Y212.572 E11.42572
G1 X64.874 Y212.4 E11.45199
G1 X64.124 Y212.152 E11.47827
G1 X63.404 Y211.829 E11.50451
G1 X63.051 Y211.637 E11.51788
G1 X54.23 Y206.545 E11.85664
G1 X53.567 Y206.116 E11.88291
G1 X52.951 Y205.623 E11.90915
G1 X52.388 Y205.069 E11.93542
G1 X51.884 Y204.461 E11.96169
G1 X51.443 Y203.806 E11.98795
G1 X51.071 Y203.109 E12.01423
G1 X50.772 Y202.378 E12.04049
G1 X50.548 Y201.621 E12.06675
G1 X50.402 Y200.845 E12.09301
G1 X50.335 Y200.058 E12.11928
G1 X50.347 Y199.269 E12.14553
G1 X50.44 Y198.485 E12.17179
G1 X50.611 Y197.714 E12.19805
G1 X50.86 Y196.964 E12.22434
G1 X51.183 Y196.244 E12.25059
G1 X51.375 Y195.89 E12.26398
G1 X62.811 Y176.082 E13.02471
G1 X50.613 Y169.04 E13.49317
G1 X49.95 Y168.611 E13.51944
G1 X49.334 Y168.117 E13.5457
G1 X48.771 Y167.564 E13.57195
G1 X48.266 Y166.956 E13.59824
G1 X47.826 Y166.3 E13.62451
G1 X47.454 Y165.604 E13.65076
G1 X47.155 Y164.873 E13.67703
G1 X46.931 Y164.116 E13.70328
G1 X46.785 Y163.34 E13.72955
G1 X46.718 Y162.553 E13.75582
G1 X46.73 Y161.763 E13.7821
G1 X46.823 Y160.979 E13.80835
G1 X46.995 Y160.208 E13.83463
G1 X47.243 Y159.459 E13.86087
G1 X47.566 Y158.738 E13.88715
G1 X47.755 Y158.39 E13.90032
G1 X48.754 Y156.657 E13.96685
G1 X49.183 Y155.993 E13.99314
G1 X49.676 Y155.377 E14.01938
G1 X50.229 Y154.813 E14.04566
G1 X50.373 Y154.694 E14.05187
G1 X50.494 Y154.147 E14.0705
G1 X50.743 Y153.397 E14.09679
G1 X51.066 Y152.677 E14.12303
G1 X51.258 Y152.323 E14.13643
G1 X82.257 Y98.628 E16.19858
G1 X82.686 Y97.965 E16.22485
G1 X82.821 Y97.796 E16.23204
G1 X83.066 Y97.25 E16.25194
G1 X83.258 Y96.897 E16.26531
G1 X114.257 Y43.203 E18.32743
G0 F6000 X114.603 Y43.403
G1 F1200 X115.022 Y42.758 E18.35302
G1 X115.505 Y42.16 E18.37858
G1 X116.048 Y41.615 E18.40417
G1 X116.645 Y41.129 E18.42977
G1 X117.288 Y40.708 E18.45534
G1 X117.972 Y40.356 E18.48092
G1 X118.689 Y40.077 E18.50651
G1 X119.431 Y39.874 E18.5321
G1 X120.19 Y39.749 E18.55768
G1 X120.958 Y39.703 E18.58327
G1 X121.726 Y39.738 E18.60884
G1 X122.487 Y39.851 E18.63443
G1 X123.231 Y40.044 E18.66
G1 X123.952 Y40.312 E18.68558
G1 X124.712 Y40.694 E18.71387
G1 X127.125 Y42.087 E18.80654
G1 X129.375 Y38.19 E18.95621
G1 X129.794 Y37.545 E18.98179
G1 X130.277 Y36.947 E19.00736
G1 X130.82 Y36.402 E19.03294
G1 X131.417 Y35.916 E19.05855
G1 X132.06 Y35.495 E19.08411
G1 X132.744 Y35.143 E19.1097
G1 X133.461 Y34.864 E19.13529
G1 X134.203 Y34.661 E19.16087
G1 X134.962 Y34.536 E19.18646
G1 X135.73 Y34.49 E19.21205
G1 X136.498 Y34.525 E19.23762
G1 X137.259 Y34.638 E19.2632
G1 X138.003 Y34.831 E19.28877
G1 X138.724 Y35.099 E19.31435
G1 X139.484 Y35.481 E19.34264
G1 X143.206 Y37.63 E19.48559
G1 X147.62 Y29.985 E19.7792
G1 X148.039 Y29.34 E19.80479
G1 X148.522 Y28.742 E19.83035
G1 X149.065 Y28.197 E19.85594
G1 X149.662 Y27.711 E19.88154
G1 X150.305 Y27.29 E19.90711
G1 X150.989 Y26.938 E19.93269
G1 X151.706 Y26.659 E19.95828
G1 X152.448 Y26.456 E19.98387
G1 X153.207 Y26.331 E20.00945
G1 X153.975 Y26.285 E20.03504
G1 X154.743 Y26.32 E20.06061
G1 X155.504 Y26.433 E20.0862
G1 X156.249 Y26.626 E20.1118
G1 X156.969 Y26.894 E20.13735
G1 X157.729 Y27.277 E20.16566
G1 X160.315 Y28.77 E20.26497
G1 X161.665 Y26.432 E20.35477
G1 X162.084 Y25.787 E20.38035
G1 X162.567 Y25.189 E20.40592
G1 X163.11 Y24.644 E20.4315
G1 X163.707 Y24.158 E20.45711
G1 X164.35 Y23.737 E20.48267
G1 X165.034 Y23.385 E20.50826
G1 X165.751 Y23.106 E20.53385
G1 X166.493 Y22.903 E20.55943
G1 X167.252 Y22.778 E20.58502
G1 X168.02 Y22.732 E20.61061
G1 X168.788 Y22.767 E20.63618
G1 X169.549 Y22.88 E20.66176
G1 X170.294 Y23.073 E20.68736
G1 X171.014 Y23.341 E20.71291
G1 X171.773 Y23.723 E20.74117
G1 X180.421 Y28.715 E21.07329
G1 X181.067 Y29.134 E21.0989
G1 X181.665 Y29.617 E21.12447
G1 X182.21 Y30.16 E21.15005
G1 X182.696 Y30.756 E21.17563
G1 X183.117 Y31.4 E21.20122
G1 X183.469 Y32.084 E21.22681
G1 X183.748 Y32.801 E21.2524
G1 X183.951 Y33.542 E21.27795
G1 X184.076 Y34.301 E21.30354
G1 X184.122 Y35.069 E21.32913
G1 X184.088 Y35.838 E21.35473
G1 X183.974 Y36.598 E21.38029
G1 X183.781 Y37.343 E21.40589
G1 X183.513 Y38.064 E21.43147
G1 X183.131 Y38.824 E21.45976
G1 X171.038 Y59.772 E22.26426
G1 X171.722 Y59.957 E22.28782
G1 X172.215 Y60.109 E22.30498
G1 X172.854 Y60.331 E22.32748
G1 X173.414 Y60.551 E22.34749
G1 X174.123 Y60.864 E22.37327
G1 X174.682 Y61.14 E22.39401
G1 X175.33 Y61.494 E22.41856
G1 X175.828 Y61.792 E22.43787
G1 X176.482 Y62.219 E22.46385
G1 X176.968 Y62.565 E22.48369
G1 X177.532 Y63.002 E22.50742
G1 X177.98 Y63.378 E22.52687
G1 X178.556 Y63.902 E22.55277
G1 X178.99 Y64.332 E22.57309
G1 X179.522 Y64.903 E22.59905
G1 X179.894 Y65.334 E22.61798
G1 X180.35 Y65.906 E22.64231
G1 X180.696 Y66.377 E22.66175
G1 X181.129 Y67.018 E22.68748
G1 X181.44 Y67.521 E22.70715
G1 X181.828 Y68.208 E22.73339
G1 X182.078 Y68.691 E22.75148
G1 X182.36 Y69.289 E22.77347
G1 X182.555 Y69.74 E22.78981
G1 X182.835 Y70.453 E22.81529
G1 X183.021 Y70.985 E22.83404
G1 X183.252 Y71.737 E22.8602
G1 X183.421 Y72.396 E22.88283
G1 X183.658 Y73.53 E22.92136
G1 X183.776 Y74.288 E22.94688
G1 X183.89 Y75.398 E22.98399
G1 X183.929 Y76.16 E23.00937
G1 X183.928 Y77.318 E23.04788
G1 X183.893 Y78.033 E23.07169
G1 X183.784 Y79.147 E23.10892
G1 X183.678 Y79.865 E23.13306
G1 X183.46 Y80.965 E23.17036
G1 X183.29 Y81.648 E23.19377
G1 X182.958 Y82.757 E23.23227
G1 X182.725 Y83.42 E23.25564
G1 X182.303 Y84.459 E23.29294
G1 X182.027 Y85.06 E23.31494
G1 X181.534 Y86.018 E23.35077
G1 X181.363 Y86.332 E23.36267
G1 X122.343 Y188.562 E27.28882
G1 X121.924 Y189.207 E27.3144
G1 X121.441 Y189.805 E27.33997
G1 X120.898 Y190.35 E27.36555
G1 X120.301 Y190.836 E27.39116
G1 X119.658 Y191.257 E27.41672
G1 X118.974 Y191.609 E27.44231
G1 X118.257 Y191.888 E27.4679
G1 X117.515 Y192.091 E27.49348
G1 X116.756 Y192.216 E27.51907
G1 X115.988 Y192.262 E27.54466
G1 X115.22 Y192.227 E27.57023
G1 X114.459 Y192.114 E27.59581
G1 X113.715 Y191.921 E27.62138
G1 X112.994 Y191.653 E27.64696
G1 X112.234 Y191.27 E27.67527
G1 X109.647 Y189.776 E27.77463
G1 X108.397 Y191.941 E27.85778
G1 X107.979 Y192.586 E27.88334
G1 X107.495 Y193.185 E27.90896
G1 X106.952 Y193.73 E27.93454
G1 X106.356 Y194.215 E27.9601
G1 X105.712 Y194.636 E27.98569
G1 X105.028 Y194.988 E28.01128
G1 X104.312 Y195.267 E28.03684
G1 X103.57 Y195.47 E28.06242
G1 X102.811 Y195.595 E28.08801
G1 X102.043 Y195.641 E28.1136
G1 X101.275 Y195.606 E28.13917
G1 X100.514 Y195.492 E28.16476
G1 X99.769 Y195.3 E28.19035
G1 X99.048 Y195.032 E28.21593
G1 X98.29 Y194.65 E28.24416
G1 X94.447 Y192.432 E28.39174
G1 X88.132 Y203.37 E28.81182
G1 X87.713 Y204.015 E28.8374
G1 X87.23 Y204.613 E28.86297
G1 X86.687 Y205.158 E28.88856
G1 X86.09 Y205.644 E28.91416
G1 X85.447 Y206.065 E28.93972
G1 X84.763 Y206.417 E28.96531
G1 X84.046 Y206.696 E28.9909
G1 X83.304 Y206.899 E29.01649
G1 X82.545 Y207.024 E29.04207
G1 X81.777 Y207.07 E29.06766
G1 X81.009 Y207.035 E29.09323
G1 X80.248 Y206.922 E29.11882
G1 X79.504 Y206.729 E29.14438
G1 X78.783 Y206.461 E29.16997
G1 X78.023 Y206.079 E29.19826
G1 X75.609 Y204.685 E29.29097
G1 X73.359 Y208.582 E29.44064
G1 X72.941 Y209.227 E29.4662
G1 X72.457 Y209.826 E29.49182
G1 X71.914 Y210.371 E29.51741
G1 X71.318 Y210.856 E29.54296
G1 X70.674 Y211.277 E29.56855
G1 X69.99 Y211.629 E29.59414
G1 X69.274 Y211.908 E29.6197
G1 X68.532 Y212.111 E29.64528
G1 X67.773 Y212.236 E29.67087
G1 X67.005 Y212.282 E29.69646
G1 X66.237 Y212.247 E29.72203
G1 X65.476 Y212.134 E29.74762
G1 X64.731 Y211.941 E29.77321
G1 X64.01 Y211.673 E29.7988
G1 X63.251 Y211.291 E29.82706
G1 X54.43 Y206.199 E30.16582
G1 X53.785 Y205.78 E30.1914
G1 X53.187 Y205.297 E30.21697
G1 X52.642 Y204.754 E30.24256
G1 X52.156 Y204.158 E30.26814
G1 X51.735 Y203.514 E30.29373
G1 X51.383 Y202.83 E30.31931
G1 X51.104 Y202.113 E30.3449
G1 X50.901 Y201.371 E30.37049
G1 X50.776 Y200.613 E30.39604
G1 X50.73 Y199.845 E30.42163
G1 X50.764 Y199.076 E30.44723
G1 X50.878 Y198.316 E30.47279
G1 X51.071 Y197.571 E30.49839
G1 X51.339 Y196.85 E30.52397
G1 X51.721 Y196.09 E30.55226
G1 X63.357 Y175.936 E31.32629
G1 X50.813 Y168.694 E31.80804
G1 X50.168 Y168.275 E31.83362
G1 X49.57 Y167.792 E31.85919
G1 X49.025 Y167.249 E31.88478
G1 X48.539 Y166.652 E31.91038
G1 X48.118 Y166.009 E31.93594
G1 X47.766 Y165.325 E31.96153
G1 X47.487 Y164.608 E31.98712
G1 X47.284 Y163.866 E32.01271
G1 X47.159 Y163.107 E32.03829
G1 X47.113 Y162.339 E32.06388
G1 X47.148 Y161.571 E32.08945
G1 X47.261 Y160.81 E32.11504
G1 X47.454 Y160.065 E32.14064
G1 X47.722 Y159.345 E32.16619
G1 X48.102 Y158.589 E32.19433
G1 X49.101 Y156.856 E32.26086
G1 X49.519 Y156.211 E32.28643
G1 X50.002 Y155.612 E32.31202
G1 X50.545 Y155.067 E32.33761
G1 X50.737 Y154.911 E32.34583
G1 X50.761 Y154.749 E32.35128
G1 X50.953 Y154.004 E32.37687
G1 X51.222 Y153.283 E32.40246
G1 X51.604 Y152.523 E32.43076
G1 X82.603 Y98.828 E34.49291
G1 X83.022 Y98.183 E34.51849
G1 X83.168 Y98.002 E34.52623
G1 X83.222 Y97.857 E34.53137
G1 X83.604 Y97.097 E34.55966
G1 X114.603 Y43.403 E36.62179
G0 F6000 X114.95 Y43.603
G1 F1200 X115.358 Y42.976 E36.64667
G1 X115.831 Y42.396 E36.67156
G1 X116.362 Y41.87 E36.69642
G1 X116.947 Y41.404 E36.72129
G1 X117.579 Y41.003 E36.74619
G1 X118.249 Y40.671 E36.77106
G1 X118.951 Y40.413 E36.79593
G1 X119.677 Y40.231 E36.82083
G1 X120.418 Y40.128 E36.84571
G1 X121.166 Y40.105 E36.8706
G1 X121.912 Y40.161 E36.89548
G1 X122.647 Y40.297 E36.92035
G1 X123.364 Y40.51 E36.94522
G1 X124.054 Y40.799 E36.9701
G1 X124.512 Y41.041 E36.98733
G1 X127.272 Y42.634 E37.09332
