;FLAVOR:Marlin
;TIME:8851
;Filament used: 6.21622m
;Layer height: 0.2
;MINX:33.655
;MINY:36.089
;MINZ:0.2
;MAXX:201.336
;MAXY:198.913
;MAXZ:5.4
;Generated with Cura_SteamEngine 5.0.0
M140 S70
M105
M190 S70
M104 S200
M105
M109 S200
M82 ;absolute extrusion mode
; Ender 3 Custom Start G-code
G28 ; Home all axes
M420 S1; Bed Leveling On
G92 E0 ; Reset Extruder
G1 Z2.0 F3000 ; Move Z Axis up little to prevent scratching of Heat Bed
G1 X0.1 Y20 Z0.3 F5000.0 ; Move to start position
G1 X0.1 Y200.0 Z0.3 F1500.0 E15 ; Draw the first line
G1 X0.4 Y200.0 Z0.3 F5000.0 ; Move to side a little
G1 X0.4 Y20 Z0.3 F1500.0 E30 ; Draw the second line
G92 E0 ; Reset Extruder
G1 Z2.0 F3000 ; Move Z Axis up little to prevent scratching of Heat Bed
G1 X5 Y20 Z0.3 F5000.0 ; Move over to prevent blob squish
G92 E0
G92 E0
G1 F2700 E-5
;LAYER_COUNT:27
;LAYER:0
M107
G0 F6000 X137.009 Y59.259 Z0.2
;TYPE:SKIRT
G1 F2700 E0
G1 F1200 X137.595 Y58.729 E0.02628
G1 X137.663 Y58.679 E0.02909
G1 X144.188 Y52.154 E0.336
G1 X144.774 Y51.624 E0.36228
G1 X145.41 Y51.157 E0.38853
G1 X146.09 Y50.756 E0.41478
G1 X146.808 Y50.426 E0.44107
G1 X147.555 Y50.171 E0.46732
G1 X148.324 Y49.992 E0.49358
G1 X149.108 Y49.892 E0.51987
G1 X149.897 Y49.871 E0.54612
G1 X150.684 Y49.931 E0.57237
G1 X151.462 Y50.07 E0.59866
G1 X152.221 Y50.287 E0.62491
G1 X152.955 Y50.579 E0.65119
G1 X153.655 Y50.944 E0.67744
G1 X154.315 Y51.378 E0.70371
G1 X154.927 Y51.877 E0.72998
G1 X155.218 Y52.154 E0.74334
G1 X159.254 Y56.19 E0.93318
G1 X159.477 Y56.437 E0.94425
G1 X159.821 Y56.756 E0.95985
G1 X160.052 Y56.987 E0.97072
G1 X171.56 Y45.479 E1.51202
G1 X172.145 Y44.949 E1.53828
G1 X172.216 Y44.897 E1.5412
G1 X178.737 Y38.373 E1.848
G1 X179.323 Y37.843 E1.87428
G1 X179.959 Y37.376 E1.90052
G1 X180.64 Y36.975 E1.92681
G1 X181.357 Y36.645 E1.95306
G1 X182.104 Y36.389 E1.97933
G1 X182.874 Y36.21 E2.00562
G1 X183.657 Y36.11 E2.03187
G1 X184.446 Y36.089 E2.05812
G1 X185.234 Y36.149 E2.08441
G1 X186.011 Y36.287 E2.11066
G1 X186.771 Y36.504 E2.13694
G1 X187.504 Y36.796 E2.16319
G1 X188.204 Y37.161 E2.18944
G1 X188.864 Y37.595 E2.21572
G1 X189.477 Y38.094 E2.24201
G1 X189.77 Y38.372 E2.25544
G1 X193.807 Y42.41 E2.44535
G1 X194.034 Y42.662 E2.45663
G1 X194.371 Y42.976 E2.47195
G1 X199.053 Y47.658 E2.69218
G1 X199.583 Y48.244 E2.71846
G1 X200.05 Y48.88 E2.7447
G1 X200.451 Y49.56 E2.77096
G1 X200.781 Y50.278 E2.79724
G1 X201.036 Y51.025 E2.8235
G1 X201.215 Y51.794 E2.84976
G1 X201.315 Y52.578 E2.87604
G1 X201.336 Y53.367 E2.90229
G1 X201.276 Y54.154 E2.92855
G1 X201.137 Y54.932 E2.95483
G1 X200.92 Y55.691 E2.98109
G1 X200.628 Y56.425 E3.00736
G1 X200.263 Y57.125 E3.03362
G1 X199.829 Y57.785 E3.05989
G1 X199.33 Y58.397 E3.08616
G1 X199.053 Y58.688 E3.09952
G1 X186.871 Y70.87 E3.67252
G1 X187.442 Y71.497 E3.70073
G1 X187.909 Y72.133 E3.72697
G1 X188.31 Y72.813 E3.75323
G1 X188.64 Y73.531 E3.77951
G1 X188.895 Y74.278 E3.80576
G1 X189.074 Y75.047 E3.83202
G1 X189.174 Y75.831 E3.85831
G1 X189.195 Y76.62 E3.88456
G1 X189.135 Y77.407 E3.91081
G1 X188.996 Y78.185 E3.9371
G1 X188.779 Y78.944 E3.96336
G1 X188.487 Y79.678 E3.98963
G1 X188.122 Y80.378 E4.01589
G1 X187.688 Y81.038 E4.04216
G1 X187.189 Y81.65 E4.06842
G1 X186.912 Y81.941 E4.08179
G1 X183.932 Y84.921 E4.22196
G1 X184.111 Y85.164 E4.23199
G1 X184.511 Y85.844 E4.25823
G1 X184.841 Y86.562 E4.28452
G1 X185.097 Y87.309 E4.31078
G1 X185.275 Y88.078 E4.33703
G1 X185.375 Y88.861 E4.36329
G1 X185.396 Y89.651 E4.38957
G1 X185.336 Y90.438 E4.41582
G1 X185.197 Y91.216 E4.44211
G1 X184.98 Y91.975 E4.46837
G1 X184.688 Y92.708 E4.49461
G1 X184.322 Y93.409 E4.52091
G1 X183.888 Y94.068 E4.54716
G1 X183.39 Y94.681 E4.57342
G1 X183.114 Y94.971 E4.58674
G1 X139.275 Y138.813 E6.64886
G1 X138.689 Y139.343 E6.67514
G1 X138.514 Y139.471 E6.68235
G1 X138.136 Y139.935 E6.70226
G1 X137.86 Y140.226 E6.7156
G1 X94.02 Y184.068 E8.77775
G1 X93.434 Y184.598 E8.80403
G1 X92.797 Y185.065 E8.8303
G1 X92.117 Y185.466 E8.85655
G1 X91.951 Y185.542 E8.86262
G1 X91.692 Y186.039 E8.88126
G1 X91.258 Y186.699 E8.90754
G1 X90.759 Y187.311 E8.9338
G1 X90.486 Y187.599 E8.947
G1 X89.073 Y189.014 E9.01351
G1 X88.488 Y189.543 E9.03974
G1 X87.852 Y190.011 E9.06601
G1 X87.171 Y190.412 E9.09229
G1 X86.454 Y190.743 E9.11856
G1 X85.707 Y190.999 E9.14482
G1 X84.938 Y191.178 E9.17108
G1 X84.155 Y191.279 E9.19734
G1 X83.365 Y191.3 E9.22362
G1 X82.578 Y191.241 E9.24987
G1 X81.801 Y191.102 E9.27613
G1 X81.041 Y190.886 E9.30241
G1 X80.307 Y190.594 E9.32868
G1 X79.607 Y190.23 E9.35492
G1 X78.947 Y189.796 E9.38119
G1 X78.334 Y189.298 E9.40746
G1 X78.039 Y189.017 E9.42101
G1 X73.381 Y184.359 E9.64011
G1 X64.702 Y193.038 E10.04835
G1 X64.116 Y193.568 E10.07462
G1 X63.48 Y194.035 E10.10087
G1 X62.8 Y194.436 E10.12712
G1 X62.082 Y194.766 E10.15341
G1 X61.335 Y195.021 E10.17966
G1 X60.566 Y195.2 E10.20592
G1 X59.782 Y195.3 E10.23221
G1 X58.993 Y195.321 E10.25846
G1 X58.206 Y195.261 E10.28471
G1 X57.428 Y195.122 E10.311
G1 X56.669 Y194.905 E10.33725
G1 X55.935 Y194.613 E10.36353
G1 X55.235 Y194.248 E10.38978
G1 X54.575 Y193.814 E10.41606
G1 X54.413 Y193.682 E10.42301
G1 X51.466 Y196.63 E10.56165
G1 X50.88 Y197.16 E10.58793
G1 X50.243 Y197.627 E10.6142
G1 X49.563 Y198.028 E10.64046
G1 X48.845 Y198.358 E10.66674
G1 X48.098 Y198.613 E10.69299
G1 X47.329 Y198.792 E10.71925
G1 X46.546 Y198.892 E10.74551
G1 X45.756 Y198.913 E10.77179
G1 X44.969 Y198.853 E10.79804
G1 X44.192 Y198.714 E10.8243
G1 X43.432 Y198.497 E10.85058
G1 X42.699 Y198.205 E10.87683
G1 X41.998 Y197.84 E10.90311
G1 X41.339 Y197.406 E10.92936
G1 X40.726 Y196.907 E10.95565
G1 X40.435 Y196.63 E10.96901
G1 X35.938 Y192.133 E11.18053
G1 X35.408 Y191.547 E11.20681
G1 X34.941 Y190.911 E11.23306
G1 X34.54 Y190.231 E11.25931
G1 X34.21 Y189.513 E11.2856
G1 X33.955 Y188.766 E11.31185
G1 X33.776 Y187.997 E11.33811
G1 X33.676 Y187.213 E11.3644
G1 X33.655 Y186.424 E11.39065
G1 X33.715 Y185.637 E11.4169
G1 X33.854 Y184.859 E11.44319
G1 X34.071 Y184.1 E11.46944
G1 X34.363 Y183.366 E11.49572
G1 X34.728 Y182.666 E11.52197
G1 X35.162 Y182.006 E11.54825
G1 X35.661 Y181.394 E11.57451
G1 X35.938 Y181.103 E11.58787
G1 X53.991 Y163.05 E12.43703
G1 X53.523 Y162.578 E12.45914
G1 X53.111 Y162.125 E12.4795
G1 X52.659 Y161.581 E12.50303
G1 X52.318 Y161.13 E12.52183
G1 X51.897 Y160.513 E12.54668
G1 X51.494 Y159.858 E12.57226
G1 X51.096 Y159.126 E12.59997
G1 X50.822 Y158.551 E12.62115
G1 X50.547 Y157.901 E12.64463
G1 X50.327 Y157.306 E12.66573
G1 X50.105 Y156.606 E12.69015
G1 X49.943 Y155.997 E12.71111
G1 X49.785 Y155.264 E12.73605
G1 X49.682 Y154.641 E12.75705
G1 X49.596 Y153.905 E12.7817
G1 X49.553 Y153.281 E12.8025
G1 X49.537 Y152.555 E12.82666
G1 X49.552 Y151.94 E12.84712
G1 X49.604 Y151.212 E12.87139
G1 X49.673 Y150.63 E12.89089
G1 X49.801 Y149.872 E12.91645
G1 X49.946 Y149.213 E12.9389
G1 X50.156 Y148.447 E12.96531
G1 X50.365 Y147.813 E12.98752
G1 X50.667 Y147.038 E13.01518
G1 X50.926 Y146.466 E13.03607
G1 X51.301 Y145.742 E13.06318
G1 X51.63 Y145.18 E13.08484
G1 X52.035 Y144.558 E13.10953
G1 X52.374 Y144.088 E13.12881
G1 X52.876 Y143.463 E13.15547
G1 X53.308 Y142.978 E13.17707
G1 X53.617 Y142.651 E13.19203
G1 X137.009 Y59.259 E17.11454
G0 F6000 X137.291 Y59.541
G1 F1200 X137.863 Y59.027 E17.14012
G1 X137.922 Y58.984 E17.14254
G1 X144.47 Y52.436 E17.45054
G1 X145.042 Y51.922 E17.47612
G1 X145.664 Y51.469 E17.50171
G1 X146.329 Y51.083 E17.52729
G1 X147.031 Y50.768 E17.55288
G1 X147.762 Y50.528 E17.57847
G1 X148.513 Y50.365 E17.60403
G1 X149.278 Y50.281 E17.62962
G1 X150.047 Y50.277 E17.6552
G1 X150.812 Y50.353 E17.68077
G1 X151.566 Y50.507 E17.70637
G1 X152.299 Y50.739 E17.73194
G1 X153.004 Y51.046 E17.75751
G1 X153.674 Y51.425 E17.78312
G1 X154.301 Y51.871 E17.80871
G1 X154.936 Y52.436 E17.83698
G1 X158.972 Y56.472 E18.02682
G1 X159.254 Y56.786 E18.04086
G1 X159.538 Y57.039 E18.05351
G1 X160.051 Y57.552 E18.07764
G1 X171.842 Y45.761 E18.63225
G1 X172.414 Y45.247 E18.65783
G1 X172.48 Y45.199 E18.66054
G1 X179.02 Y38.656 E18.96823
G1 X179.592 Y38.141 E18.99383
G1 X180.213 Y37.688 E19.0194
G1 X180.878 Y37.302 E19.04497
G1 X181.58 Y36.987 E19.07056
G1 X182.311 Y36.747 E19.09615
G1 X183.063 Y36.584 E19.12175
G1 X183.827 Y36.499 E19.14731
G1 X184.596 Y36.495 E19.17289
G1 X185.362 Y36.57 E19.19849
G1 X186.115 Y36.725 E19.22406
G1 X186.849 Y36.957 E19.24966
G1 X187.554 Y37.264 E19.27524
G1 X188.224 Y37.642 E19.30083
G1 X188.85 Y38.088 E19.32639
G1 X189.487 Y38.655 E19.35475
G1 X193.524 Y42.693 E19.54467
G1 X193.806 Y43.006 E19.55868
G1 X194.089 Y43.258 E19.57128
G1 X198.771 Y47.94 E19.79151
G1 X199.285 Y48.512 E19.81709
G1 X199.738 Y49.134 E19.84268
G1 X200.124 Y49.799 E19.86825
G1 X200.439 Y50.501 E19.89384
G1 X200.679 Y51.232 E19.91943
G1 X200.842 Y51.983 E19.94499
G1 X200.926 Y52.748 E19.97059
G1 X200.93 Y53.517 E19.99617
G1 X200.854 Y54.282 E20.02174
G1 X200.7 Y55.036 E20.04733
G1 X200.468 Y55.769 E20.07291
G1 X200.161 Y56.474 E20.09848
G1 X199.782 Y57.144 E20.12408
G1 X199.336 Y57.771 E20.14968
G1 X198.771 Y58.406 E20.17795
G1 X186.307 Y70.87 E20.76421
G1 X186.63 Y71.193 E20.77941
G1 X187.144 Y71.765 E20.80498
G1 X187.597 Y72.387 E20.83058
G1 X187.983 Y73.052 E20.85615
G1 X188.298 Y73.754 E20.88174
G1 X188.538 Y74.485 E20.90733
G1 X188.701 Y75.236 E20.93289
G1 X188.785 Y76.001 E20.95849
G1 X188.789 Y76.77 E20.98407
G1 X188.713 Y77.535 E21.00964
G1 X188.559 Y78.289 E21.03523
G1 X188.327 Y79.022 E21.0608
G1 X188.02 Y79.727 E21.08638
G1 X187.641 Y80.397 E21.11198
G1 X187.195 Y81.024 E21.13757
G1 X186.63 Y81.659 E21.16584
G1 X183.408 Y84.881 E21.3174
G1 X183.799 Y85.417 E21.33946
G1 X184.184 Y86.083 E21.36505
G1 X184.499 Y86.785 E21.39064
G1 X184.739 Y87.515 E21.4162
G1 X184.902 Y88.267 E21.44179
G1 X184.986 Y89.032 E21.46739
G1 X184.99 Y89.801 E21.49297
G1 X184.914 Y90.566 E21.51853
G1 X184.759 Y91.32 E21.54414
G1 X184.527 Y92.053 E21.56971
G1 X184.22 Y92.758 E21.59528
G1 X183.842 Y93.428 E21.62087
G1 X183.396 Y94.054 E21.64644
G1 X182.831 Y94.688 E21.67468
G1 X138.992 Y138.53 E23.7368
G1 X138.42 Y139.045 E23.7624
G1 X138.232 Y139.182 E23.77014
G1 X138.142 Y139.309 E23.77532
G1 X137.577 Y139.943 E23.80356
G1 X93.737 Y183.785 E25.86571
G1 X93.165 Y184.3 E25.89131
G1 X92.544 Y184.753 E25.91687
G1 X91.878 Y185.139 E25.94248
G1 X91.655 Y185.239 E25.95061
G1 X91.59 Y185.388 E25.95601
G1 X91.211 Y186.058 E25.98162
G1 X90.765 Y186.685 E26.00721
G1 X90.203 Y187.316 E26.03531
G1 X88.79 Y188.731 E26.10182
G1 X88.219 Y189.246 E26.1274
G1 X87.598 Y189.699 E26.15296
G1 X86.933 Y190.086 E26.17855
G1 X86.231 Y190.401 E26.20414
G1 X85.5 Y190.641 E26.22973
G1 X84.749 Y190.805 E26.2553
G1 X83.984 Y190.889 E26.2809
G1 X83.215 Y190.894 E26.30648
G1 X82.45 Y190.819 E26.33204
G1 X81.696 Y190.665 E26.35764
G1 X80.963 Y190.433 E26.38321
G1 X80.257 Y190.127 E26.4088
G1 X79.587 Y189.749 E26.43439
G1 X78.96 Y189.304 E26.45996
G1 X78.321 Y188.735 E26.48842
G1 X73.381 Y183.795 E26.72078
G1 X64.42 Y192.756 E27.14228
G1 X63.848 Y193.27 E27.16786
G1 X63.226 Y193.723 E27.19345
G1 X62.561 Y194.109 E27.21902
G1 X61.859 Y194.424 E27.24462
G1 X61.128 Y194.664 E27.27021
G1 X60.377 Y194.827 E27.29577
G1 X59.612 Y194.911 E27.32136
G1 X58.843 Y194.915 E27.34694
G1 X58.078 Y194.839 E27.37251
G1 X57.324 Y194.685 E27.3981
G1 X56.591 Y194.453 E27.42368
G1 X55.886 Y194.146 E27.44925
G1 X55.216 Y193.767 E27.47485
G1 X54.589 Y193.321 E27.50045
G1 X54.388 Y193.142 E27.5094
G1 X51.183 Y196.347 E27.66015
G1 X50.612 Y196.862 E27.68573
G1 X49.99 Y197.315 E27.71132
G1 X49.324 Y197.701 E27.73692
G1 X48.623 Y198.016 E27.76248
G1 X47.892 Y198.256 E27.78807
G1 X47.14 Y198.419 E27.81367
G1 X46.376 Y198.503 E27.83923
G1 X45.606 Y198.507 E27.86484
G1 X44.841 Y198.431 E27.89041
G1 X44.088 Y198.277 E27.91597
G1 X43.354 Y198.045 E27.94158
G1 X42.649 Y197.738 E27.96715
G1 X41.979 Y197.36 E27.99274
G1 X41.353 Y196.914 E28.0183
G1 X40.717 Y196.348 E28.04662
G1 X36.22 Y191.851 E28.25814
G1 X35.706 Y191.279 E28.28372
G1 X35.253 Y190.657 E28.30931
G1 X34.867 Y189.992 E28.33489
G1 X34.552 Y189.29 E28.36048
G1 X34.312 Y188.559 E28.38607
G1 X34.149 Y187.808 E28.41163
G1 X34.065 Y187.043 E28.43723
G1 X34.061 Y186.274 E28.4628
G1 X34.137 Y185.509 E28.48837
G1 X34.291 Y184.755 E28.51397
G1 X34.523 Y184.022 E28.53954
G1 X34.83 Y183.317 E28.56512
G1 X35.209 Y182.647 E28.59072
G1 X35.655 Y182.02 E28.61631
G1 X36.22 Y181.385 E28.64458
G1 X54.567 Y163.038 E29.50757
G1 X54.278 Y162.772 E29.52063
G1 X53.819 Y162.309 E29.54232
G1 X53.407 Y161.856 E29.56268
G1 X52.978 Y161.34 E29.585
G1 X52.637 Y160.889 E29.60381
G1 X52.237 Y160.304 E29.62738
G1 X51.834 Y159.649 E29.65296
G1 X51.457 Y158.954 E29.67925
G1 X51.183 Y158.379 E29.70044
G1 X50.922 Y157.762 E29.72272
G1 X50.702 Y157.167 E29.74382
G1 X50.492 Y156.503 E29.76698
G1 X50.33 Y155.894 E29.78794
G1 X50.18 Y155.199 E29.81159
G1 X50.077 Y154.576 E29.83259
G1 X49.996 Y153.878 E29.85596
G1 X49.953 Y153.254 E29.87677
G1 X49.937 Y152.565 E29.89969
G1 X49.952 Y151.95 E29.92015
G1 X50.001 Y151.259 E29.94319
G1 X50.07 Y150.677 E29.96268
G1 X50.192 Y149.958 E29.98694
G1 X50.337 Y149.299 E30.00938
G1 X50.536 Y148.572 E30.03445
G1 X50.745 Y147.938 E30.05666
G1 X51.032 Y147.203 E30.0829
G1 X51.291 Y146.631 E30.10378
G1 X51.646 Y145.944 E30.1295
G1 X51.975 Y145.382 E30.15116
G1 X52.359 Y144.792 E30.17458
G1 X52.698 Y144.322 E30.19385
G1 X53.174 Y143.729 E30.21914
G1 X53.606 Y143.244 E30.24075
G1 X53.899 Y142.933 E30.25496
G1 X137.291 Y59.541 E34.17746
G0 F6000 X137.574 Y59.824
G1 F1200 X138.131 Y59.324 E34.20236
G1 X138.192 Y59.28 E34.20486
G1 X144.753 Y52.719 E34.51347
G1 X145.31 Y52.219 E34.53836
G1 X145.916 Y51.782 E34.56321
G1 X146.566 Y51.411 E34.5881
G1 X147.252 Y51.112 E34.61299
G1 X147.966 Y50.888 E34.63788
G1 X148.699 Y50.741 E34.66275
G1 X149.444 Y50.674 E34.68763
G1 X150.192 Y50.686 E34.71251
G1 X150.935 Y50.778 E34.73741
G1 X151.663 Y50.949 E34.76228
G1 X152.369 Y51.196 E34.78716
G1 X153.044 Y51.518 E34.81203
G1 X153.682 Y51.91 E34.83694
G1 X154.273 Y52.367 E34.86179
G1 X154.653 Y52.719 E34.87901
G1 X158.689 Y56.755 E35.06886
G1 X158.912 Y57.003 E35.07995
G1 X159.255 Y57.322 E35.09553
G1 X160.051 Y58.118 E35.13297
G1 X172.125 Y46.044 E35.70089
G1 X172.682 Y45.544 E35.72579
G1 X172.747 Y45.497 E35.72846
G1 X179.303 Y38.938 E36.0369
G1 X179.859 Y38.438 E36.06177
G1 X180.466 Y38 E36.08667
G1 X181.116 Y37.63 E36.11154
G1 X181.801 Y37.331 E36.1364
G1 X182.515 Y37.106 E36.1613
G1 X183.249 Y36.96 E36.18619
G1 X183.994 Y36.892 E36.21108
G1 X184.742 Y36.904 E36.23596
G1 X185.484 Y36.996 E36.26082
G1 X186.212 Y37.167 E36.2857
G1 X186.918 Y37.414 E36.31057
G1 X187.594 Y37.735 E36.33546
G1 X188.231 Y38.127 E36.36034
G1 X188.823 Y38.584 E36.38522
G1 X189.204 Y38.938 E36.40251
G1 X193.241 Y42.976 E36.59243
G1 X193.465 Y43.225 E36.60356
G1 X193.806 Y43.541 E36.61903
G1 X198.488 Y48.223 E36.83925
G1 X198.988 Y48.78 E36.86415
G1 X199.425 Y49.386 E36.889
G1 X199.796 Y50.036 E36.91389
G1 X200.095 Y50.722 E36.93878
G1 X200.319 Y51.436 E36.96367
G1 X200.466 Y52.169 E36.98854
G1 X200.533 Y52.914 E37.01341
G1 X200.521 Y53.662 E37.0383
G1 X200.429 Y54.405 E37.0632
G1 X200.258 Y55.133 E37.08807
G1 X200.011 Y55.839 E37.11295
G1 X199.689 Y56.514 E37.13782
G1 X199.297 Y57.152 E37.16273
G1 X198.84 Y57.743 E37.18757
G1 X198.488 Y58.123 E37.2048
G1 X185.741 Y70.87 E37.80438
G1 X186.347 Y71.476 E37.83289
G1 X186.847 Y72.033 E37.85778
G1 X187.284 Y72.639 E37.88263
G1 X187.655 Y73.289 E37.90752
G1 X187.954 Y73.975 E37.93241
G1 X188.178 Y74.689 E37.9573
G1 X188.325 Y75.422 E37.98217
G1 X188.392 Y76.167 E38.00705
G1 X188.38 Y76.915 E38.03193
G1 X188.288 Y77.658 E38.05683
G1 X188.117 Y78.386 E38.0817
G1 X187.87 Y79.092 E38.10658
G1 X187.548 Y79.767 E38.13145
G1 X187.156 Y80.405 E38.15636
G1 X186.699 Y80.996 E38.18121
G1 X186.347 Y81.376 E38.19844
G1 X182.864 Y84.859 E38.36226
G1 X183.048 Y85.063 E38.3714
G1 X183.486 Y85.67 E38.3963
G1 X183.856 Y86.32 E38.42117
G1 X184.155 Y87.006 E38.44606
G1 X184.379 Y87.719 E38.47092
G1 X184.526 Y88.453 E38.49582
G1 X184.593 Y89.198 E38.5207
G1 X184.581 Y89.946 E38.54558
G1 X184.489 Y90.688 E38.57045
G1 X184.318 Y91.417 E38.59535
G1 X184.07 Y92.122 E38.62021
G1 X183.749 Y92.798 E38.6451
