;FLAVOR:Marlin
;TIME:20590
;Filament used: 14.5205m
;Layer height: 0.2
;MINX:61.065
;MINY:72.7
;MINZ:0.2
;MAXX:171.038
;MAXY:162.3
;MAXZ:17.2
;Generated with Cura_SteamEngine 5.0.0
M140 S70
M105
M190 S70
M104 S200
M105
M109 S200
M82 ;absolute extrusion mode
; Ender 3 Custom Start G-code
G28 ; Home all axes
M420 S1; Bed Leveling On
G92 E0 ; Reset Extruder
G1 Z2.0 F3000 ; Move Z Axis up little to prevent scratching of Heat Bed
G1 X0.1 Y20 Z0.3 F5000.0 ; Move to start position
G1 X0.1 Y200.0 Z0.3 F1500.0 E15 ; Draw the first line
G1 X0.4 Y200.0 Z0.3 F5000.0 ; Move to side a little
G1 X0.4 Y20 Z0.3 F1500.0 E30 ; Draw the second line
G92 E0 ; Reset Extruder
G1 Z2.0 F3000 ; Move Z Axis up little to prevent scratching of Heat Bed
G1 X5 Y20 Z0.3 F5000.0 ; Move over to prevent blob squish
G92 E0
G92 E0
G1 F2700 E-5
;LAYER_COUNT:86
;LAYER:0
M107
G0 F6000 X64.087 Y78.334 Z0.2
G0 X61.065 Y84.5
;TYPE:SKIRT
G1 F2700 E0
G1 F1200 X61.105 Y83.711 E0.02628
G1 X61.224 Y82.931 E0.05252
G1 X61.422 Y82.166 E0.0788
G1 X61.696 Y81.426 E0.10505
G1 X62.044 Y80.717 E0.13132
G1 X62.461 Y80.046 E0.15759
G1 X62.945 Y79.422 E0.18386
G1 X63.488 Y78.849 E0.21011
G1 X64.087 Y78.334 E0.23639
G1 X64.735 Y77.883 E0.26265
G1 X65.425 Y77.499 E0.28891
G1 X66.151 Y77.187 E0.31519
G1 X66.904 Y76.95 E0.34145
G1 X67.678 Y76.791 E0.36773
G1 X68.463 Y76.71 E0.39398
G1 X68.865 Y76.7 E0.40735
G1 X69.81 Y76.7 E0.43878
G1 X70.599 Y76.74 E0.46506
G1 X71.379 Y76.859 E0.4913
G1 X72.144 Y77.057 E0.51758
G1 X72.884 Y77.331 E0.54383
G1 X73.593 Y77.679 E0.5701
G1 X74.264 Y78.097 E0.59639
G1 X74.888 Y78.58 E0.62264
G1 X75.461 Y79.123 E0.64889
G1 X75.976 Y79.722 E0.67517
G1 X76.427 Y80.37 E0.70143
G1 X76.811 Y81.061 E0.72772
G1 X77.123 Y81.786 E0.75397
G1 X77.36 Y82.539 E0.78023
G1 X77.519 Y83.313 E0.80651
G1 X77.6 Y84.098 E0.83276
G1 X77.61 Y84.5 E0.84613
G1 X77.611 Y150.5 E3.0413
G1 X77.571 Y151.289 E3.06758
G1 X77.452 Y152.069 E3.09382
G1 X77.254 Y152.834 E3.1201
G1 X76.98 Y153.574 E3.14635
G1 X76.632 Y154.283 E3.17262
G1 X76.215 Y154.954 E3.19889
G1 X75.731 Y155.578 E3.22516
G1 X75.188 Y156.151 E3.25141
G1 X74.589 Y156.666 E3.27769
G1 X73.941 Y157.117 E3.30395
G1 X73.251 Y157.501 E3.33021
G1 X72.525 Y157.813 E3.35649
G1 X71.772 Y158.05 E3.38275
G1 X70.998 Y158.209 E3.40903
G1 X70.213 Y158.29 E3.43528
G1 X69.811 Y158.3 E3.44865
G1 X68.866 Y158.3 E3.48008
G1 X68.077 Y158.26 E3.50636
G1 X67.297 Y158.141 E3.5326
G1 X66.532 Y157.943 E3.55888
G1 X65.792 Y157.669 E3.58513
G1 X65.083 Y157.321 E3.6114
G1 X64.412 Y156.903 E3.63769
G1 X63.788 Y156.42 E3.66394
G1 X63.215 Y155.877 E3.69019
G1 X62.7 Y155.278 E3.71647
G1 X62.249 Y154.63 E3.74273
G1 X61.865 Y153.939 E3.76902
G1 X61.553 Y153.214 E3.79527
G1 X61.316 Y152.461 E3.82153
G1 X61.157 Y151.687 E3.84781
G1 X61.076 Y150.902 E3.87406
G1 X61.066 Y150.5 E3.88743
G1 X61.065 Y84.5 E6.0826
G0 F6000 X61.465 Y84.5
G1 F1200 X61.505 Y83.732 E6.10818
G1 X61.624 Y82.972 E6.13376
G1 X61.822 Y82.229 E6.15934
G1 X62.096 Y81.51 E6.18493
G1 X62.443 Y80.824 E6.2105
G1 X62.859 Y80.177 E6.23608
G1 X63.34 Y79.577 E6.26166
G1 X63.881 Y79.03 E6.28725
G1 X64.476 Y78.542 E6.31284
G1 X65.118 Y78.119 E6.33841
G1 X65.801 Y77.764 E6.36402
G1 X66.516 Y77.483 E6.38957
G1 X67.257 Y77.277 E6.41515
G1 X68.016 Y77.149 E6.44075
G1 X68.865 Y77.1 E6.46903
G1 X69.81 Y77.1 E6.50047
G1 X70.578 Y77.14 E6.52604
G1 X71.338 Y77.259 E6.55163
G1 X72.081 Y77.457 E6.5772
G1 X72.8 Y77.731 E6.6028
G1 X73.486 Y78.078 E6.62837
G1 X74.133 Y78.494 E6.65395
G1 X74.733 Y78.975 E6.67953
G1 X75.28 Y79.516 E6.70511
G1 X75.768 Y80.111 E6.73071
G1 X76.191 Y80.753 E6.75628
G1 X76.546 Y81.436 E6.78188
G1 X76.827 Y82.151 E6.80743
G1 X77.033 Y82.893 E6.83305
G1 X77.161 Y83.651 E6.85861
G1 X77.21 Y84.5 E6.8869
G1 X77.211 Y150.5 E9.08207
G1 X77.171 Y151.268 E9.10765
G1 X77.052 Y152.028 E9.13323
G1 X76.854 Y152.771 E9.15881
G1 X76.58 Y153.49 E9.1844
G1 X76.233 Y154.176 E9.20997
G1 X75.817 Y154.823 E9.23555
G1 X75.336 Y155.423 E9.26113
G1 X74.795 Y155.97 E9.28672
G1 X74.2 Y156.458 E9.31231
G1 X73.558 Y156.881 E9.33788
G1 X72.875 Y157.236 E9.36348
G1 X72.16 Y157.517 E9.38904
G1 X71.419 Y157.723 E9.41462
G1 X70.66 Y157.851 E9.44022
G1 X69.811 Y157.9 E9.4685
G1 X68.866 Y157.9 E9.49993
G1 X68.098 Y157.86 E9.52551
G1 X67.338 Y157.741 E9.5511
G1 X66.595 Y157.543 E9.57667
G1 X65.876 Y157.269 E9.60226
G1 X65.19 Y156.922 E9.62783
G1 X64.543 Y156.506 E9.65342
G1 X63.943 Y156.025 E9.67899
G1 X63.396 Y155.484 E9.70458
G1 X62.908 Y154.889 E9.73018
G1 X62.485 Y154.247 E9.75575
G1 X62.13 Y153.564 E9.78135
G1 X61.849 Y152.849 E9.8069
G1 X61.643 Y152.107 E9.83251
G1 X61.515 Y151.349 E9.85808
G1 X61.466 Y150.5 E9.88637
G1 X61.465 Y84.5 E12.08154
G0 F6000 X61.865 Y84.5
G1 F1200 X61.905 Y83.753 E12.10642
G1 X62.024 Y83.015 E12.13128
G1 X62.222 Y82.293 E12.15618
G1 X62.495 Y81.597 E12.18105
G1 X62.842 Y80.934 E12.20594
G1 X63.257 Y80.311 E12.23083
G1 X63.736 Y79.737 E12.2557
G1 X64.273 Y79.217 E12.28056
G1 X64.863 Y78.757 E12.30544
G1 X65.499 Y78.362 E12.33034
G1 X66.173 Y78.038 E12.35522
G1 X66.878 Y77.788 E12.3801
G1 X67.606 Y77.614 E12.40499
G1 X68.348 Y77.519 E12.42987
G1 X68.865 Y77.5 E12.44708
G1 X69.81 Y77.5 E12.47851
G1 X70.557 Y77.54 E12.50339
G1 X71.295 Y77.659 E12.52825
G1 X72.017 Y77.857 E12.55316
G1 X72.713 Y78.13 E12.57802
G1 X73.376 Y78.477 E12.60291
G1 X73.999 Y78.892 E12.62781
G1 X74.573 Y79.371 E12.65267
G1 X75.094 Y79.908 E12.67756
G1 X75.553 Y80.498 E12.70242
G1 X75.948 Y81.134 E12.72732
G1 X76.272 Y81.808 E12.7522
G1 X76.522 Y82.513 E12.77707
G1 X76.696 Y83.241 E12.80197
G1 X76.791 Y83.983 E12.82685
G1 X76.81 Y84.5 E12.84406
G1 X76.811 Y150.5 E15.03923
G1 X76.771 Y151.247 E15.06411
G1 X76.652 Y151.985 E15.08897
G1 X76.454 Y152.707 E15.11387
G1 X76.181 Y153.403 E15.13874
G1 X75.834 Y154.066 E15.16363
G1 X75.419 Y154.689 E15.18852
G1 X74.94 Y155.263 E15.21339
G1 X74.403 Y155.783 E15.23825
G1 X73.813 Y156.243 E15.26313
G1 X73.177 Y156.638 E15.28804
G1 X72.503 Y156.962 E15.31291
G1 X71.798 Y157.212 E15.33779
G1 X71.07 Y157.386 E15.36268
G1 X70.328 Y157.481 E15.38756
G1 X69.811 Y157.5 E15.40477
G1 X68.866 Y157.5 E15.4362
G1 X68.119 Y157.46 E15.46108
G1 X67.381 Y157.341 E15.48595
G1 X66.659 Y157.143 E15.51085
G1 X65.963 Y156.87 E15.53571
G1 X65.3 Y156.523 E15.5606
G1 X64.677 Y156.108 E15.5855
G1 X64.103 Y155.629 E15.61036
G1 X63.582 Y155.092 E15.63525
G1 X63.123 Y154.502 E15.66011
G1 X62.728 Y153.866 E15.68501
G1 X62.404 Y153.192 E15.70989
G1 X62.154 Y152.487 E15.73476
G1 X61.98 Y151.759 E15.75966
G1 X61.885 Y151.017 E15.78454
G1 X61.866 Y150.5 E15.80175
G1 X61.865 Y84.5 E17.99692
G0 F6000 X62.265 Y84.5
G1 F1200 X62.305 Y83.775 E18.02107
G1 X62.424 Y83.058 E18.04524
G1 X62.622 Y82.359 E18.0694
G1 X62.895 Y81.686 E18.09356
G1 X63.24 Y81.047 E18.11771
G1 X63.654 Y80.45 E18.14188
G1 X64.13 Y79.902 E18.16602
G1 X64.664 Y79.409 E18.19019
G1 X65.249 Y78.979 E18.21434
G1 X65.878 Y78.615 E18.23851
G1 X66.542 Y78.322 E18.26265
G1 X67.235 Y78.104 E18.28681
G1 X67.948 Y77.964 E18.31098
G1 X68.865 Y77.9 E18.34155
G1 X69.81 Y77.9 E18.37298
G1 X70.535 Y77.94 E18.39714
G1 X71.252 Y78.059 E18.42131
G1 X71.951 Y78.257 E18.44547
G1 X72.624 Y78.53 E18.46963
G1 X73.263 Y78.875 E18.49378
G1 X73.86 Y79.289 E18.51794
G1 X74.408 Y79.765 E18.54209
G1 X74.901 Y80.299 E18.56626
G1 X75.331 Y80.884 E18.59041
G1 X75.695 Y81.513 E18.61458
G1 X75.988 Y82.178 E18.63875
G1 X76.206 Y82.871 E18.66291
G1 X76.346 Y83.583 E18.68705
G1 X76.41 Y84.5 E18.71762
G1 X76.411 Y150.5 E20.91279
G1 X76.371 Y151.225 E20.93694
G1 X76.252 Y151.942 E20.96111
G1 X76.054 Y152.641 E20.98528
G1 X75.781 Y153.314 E21.00943
G1 X75.436 Y153.953 E21.03358
G1 X75.022 Y154.55 E21.05775
G1 X74.546 Y155.098 E21.08189
G1 X74.012 Y155.591 E21.10606
G1 X73.427 Y156.021 E21.13021
G1 X72.798 Y156.385 E21.15438
G1 X72.134 Y156.678 E21.17852
G1 X71.441 Y156.896 E21.20268
G1 X70.728 Y157.036 E21.22685
G1 X69.811 Y157.1 E21.25743
G1 X68.866 Y157.1 E21.28886
G1 X68.141 Y157.06 E21.31301
G1 X67.424 Y156.941 E21.33718
G1 X66.725 Y156.743 E21.36134
G1 X66.052 Y156.47 E21.3855
G1 X65.413 Y156.125 E21.40965
G1 X64.816 Y155.711 E21.43382
G1 X64.268 Y155.235 E21.45796
G1 X63.775 Y154.701 E21.48213
G1 X63.345 Y154.116 E21.50628
G1 X62.981 Y153.487 E21.53045
G1 X62.688 Y152.822 E21.55462
G1 X62.47 Y152.129 E21.57878
G1 X62.33 Y151.417 E21.60292
G1 X62.266 Y150.5 E21.63349
G1 X62.265 Y84.5 E23.82866
G0 F6000 X62.665 Y84.5
G1 F1200 X62.705 Y83.797 E23.85208
G1 X62.824 Y83.103 E23.8755
G1 X63.022 Y82.428 E23.8989
G1 X63.294 Y81.779 E23.9223
G1 X63.639 Y81.165 E23.94573
G1 X64.05 Y80.594 E23.96913
G1 X64.524 Y80.073 E23.99255
G1 X65.054 Y79.609 E24.01598
G1 X65.633 Y79.209 E24.03939
G1 X66.254 Y78.877 E24.06281
G1 X66.908 Y78.617 E24.08622
G1 X67.588 Y78.433 E24.10965
G1 X68.284 Y78.327 E24.13306
G1 X68.865 Y78.3 E24.15241
G1 X69.81 Y78.3 E24.18384
G1 X70.513 Y78.34 E24.20726
G1 X71.207 Y78.459 E24.23068
G1 X71.882 Y78.657 E24.25407
G1 X72.531 Y78.929 E24.27748
G1 X73.145 Y79.274 E24.3009
G1 X73.716 Y79.685 E24.3243
G1 X74.237 Y80.159 E24.34773
G1 X74.701 Y80.689 E24.37116
G1 X75.101 Y81.268 E24.39457
G1 X75.433 Y81.889 E24.41799
G1 X75.693 Y82.543 E24.44139
G1 X75.877 Y83.223 E24.46482
G1 X75.983 Y83.919 E24.48824
G1 X76.01 Y84.5 E24.50759
G1 X76.011 Y150.5 E26.70275
G1 X75.971 Y151.203 E26.72617
G1 X75.852 Y151.897 E26.74959
G1 X75.654 Y152.572 E26.77299
G1 X75.382 Y153.221 E26.7964
G1 X75.037 Y153.835 E26.81982
G1 X74.626 Y154.406 E26.84322
G1 X74.152 Y154.927 E26.86665
G1 X73.622 Y155.391 E26.89008
G1 X73.043 Y155.791 E26.91348
G1 X72.422 Y156.123 E26.9369
G1 X71.768 Y156.383 E26.96031
G1 X71.088 Y156.567 E26.98374
G1 X70.392 Y156.673 E27.00716
G1 X69.811 Y156.7 E27.0265
G1 X68.866 Y156.7 E27.05793
G1 X68.163 Y156.66 E27.08135
G1 X67.469 Y156.541 E27.10477
G1 X66.794 Y156.343 E27.12817
G1 X66.145 Y156.071 E27.15157
G1 X65.531 Y155.726 E27.175
G1 X64.96 Y155.315 E27.1984
G1 X64.439 Y154.841 E27.22182
G1 X63.975 Y154.311 E27.24525
G1 X63.575 Y153.732 E27.26866
G1 X63.243 Y153.111 E27.29208
G1 X62.983 Y152.457 E27.31549
G1 X62.799 Y151.777 E27.33892
G1 X62.693 Y151.081 E27.36234
G1 X62.666 Y150.5 E27.38168
G1 X62.665 Y84.5 E29.57685
G0 F6000 X63.065 Y84.5
G1 F1200 X63.105 Y83.82 E29.59951
G1 X63.224 Y83.15 E29.62214
G1 X63.421 Y82.498 E29.64479
G1 X63.693 Y81.874 E29.66743
G1 X64.037 Y81.286 E29.69009
G1 X64.447 Y80.743 E29.71272
G1 X64.918 Y80.251 E29.73537
G1 X65.443 Y79.817 E29.75803
G1 X66.015 Y79.448 E29.78067
G1 X66.627 Y79.149 E29.80332
G1 X67.269 Y78.924 E29.82595
G1 X67.934 Y78.775 E29.84862
G1 X68.865 Y78.7 E29.87968
G1 X69.81 Y78.7 E29.91111
G1 X70.49 Y78.74 E29.93377
G1 X71.16 Y78.859 E29.9564
G1 X71.812 Y79.056 E29.97906
G1 X72.436 Y79.328 E30.0017
G1 X73.024 Y79.672 E30.02435
G1 X73.568 Y80.082 E30.04701
G1 X74.059 Y80.553 E30.06964
G1 X74.493 Y81.078 E30.0923
G1 X74.862 Y81.65 E30.11494
G1 X75.161 Y82.262 E30.13759
G1 X75.386 Y82.904 E30.16022
G1 X75.535 Y83.569 E30.18288
G1 X75.61 Y84.5 E30.21395
G1 X75.611 Y150.5 E32.40912
G1 X75.571 Y151.18 E32.43177
G1 X75.452 Y151.85 E32.45441
G1 X75.255 Y152.502 E32.47706
G1 X74.983 Y153.126 E32.4997
G1 X74.639 Y153.714 E32.52236
G1 X74.229 Y154.257 E32.54499
G1 X73.758 Y154.749 E32.56764
G1 X73.233 Y155.183 E32.5903
G1 X72.661 Y155.552 E32.61294
G1 X72.049 Y155.851 E32.63559
G1 X71.407 Y156.076 E32.65822
G1 X70.742 Y156.225 E32.68089
G1 X69.811 Y156.3 E32.71195
G1 X68.866 Y156.3 E32.74338
G1 X68.186 Y156.26 E32.76604
G1 X67.516 Y156.141 E32.78867
G1 X66.864 Y155.944 E32.81133
G1 X66.24 Y155.672 E32.83397
G1 X65.652 Y155.328 E32.85662
G1 X65.108 Y154.918 E32.87928
G1 X64.617 Y154.447 E32.90191
G1 X64.183 Y153.922 E32.92457
G1 X63.814 Y153.35 E32.94721
G1 X63.515 Y152.738 E32.96986
G1 X63.29 Y152.096 E32.99249
G1 X63.141 Y151.431 E33.01515
G1 X63.066 Y150.5 E33.04622
G1 X63.065 Y84.5 E35.24139
G0 F6000 X63.465 Y84.5
G1 F1200 X63.505 Y83.844 E35.26325
G1 X63.624 Y83.198 E35.28509
G1 X63.821 Y82.572 E35.30692
G1 X64.093 Y81.973 E35.3288
G1 X64.435 Y81.412 E35.35066
G1 X64.842 Y80.897 E35.37249
G1 X65.31 Y80.436 E35.39434
G1 X65.83 Y80.034 E35.4162
G1 X66.394 Y79.698 E35.43803
G1 X66.996 Y79.434 E35.4599
G1 X67.625 Y79.244 E35.48175
G1 X68.272 Y79.133 E35.50358
G1 X68.865 Y79.1 E35.52334
G1 X69.81 Y79.1 E35.55477
G1 X70.466 Y79.14 E35.57663
G1 X71.112 Y79.259 E35.59848
G1 X71.739 Y79.456 E35.62034
G1 X72.337 Y79.728 E35.64219
G1 X72.898 Y80.07 E35.66404
G1 X73.413 Y80.478 E35.68589
G1 X73.875 Y80.945 E35.70774
G1 X74.276 Y81.465 E35.72958
G1 X74.612 Y82.029 E35.75142
G1 X74.876 Y82.631 E35.77328
G1 X75.066 Y83.26 E35.79513
G1 X75.177 Y83.907 E35.81697
G1 X75.21 Y84.5 E35.83672
G1 X75.211 Y150.5 E38.03189
G1 X75.171 Y151.156 E38.05375
G1 X75.052 Y151.802 E38.0756
G1 X74.855 Y152.428 E38.09742
G1 X74.583 Y153.027 E38.11931
G1 X74.241 Y153.588 E38.14116
G1 X73.834 Y154.103 E38.16299
G1 X73.366 Y154.564 E38.18484
G1 X72.846 Y154.966 E38.2067
G1 X72.282 Y155.302 E38.22854
G1 X71.68 Y155.566 E38.2504
G1 X71.051 Y155.756 E38.27225
G1 X70.404 Y155.867 E38.29409
G1 X69.811 Y155.9 E38.31384
G1 X68.866 Y155.9 E38.34527
G1 X68.21 Y155.86 E38.36713
G1 X67.564 Y155.741 E38.38898
G1 X66.937 Y155.544 E38.41084
G1 X66.339 Y155.272 E38.43269
G1 X65.778 Y154.93 E38.45454
G1 X65.263 Y154.522 E38.47639
G1 X64.801 Y154.055 E38.49824
G1 X64.4 Y153.535 E38.52008
G1 X64.064 Y152.971 E38.54192
G1 X63.8 Y152.369 E38.56378
G1 X63.61 Y151.74 E38.58564
G1 X63.499 Y151.093 E38.60747
G1 X63.466 Y150.5 E38.62722
G1 X63.465 Y84.5 E40.82239
G0 F6000 X63.865 Y84.5
G1 F1200 X63.905 Y83.869 E40.84342
G1 X64.024 Y83.248 E40.86445
G1 X64.221 Y82.648 E40.88546
G1 X64.492 Y82.076 E40.90651
G1 X64.832 Y81.544 E40.92751
G1 X65.238 Y81.059 E40.94854
G1 X65.701 Y80.629 E40.96956
G1 X66.215 Y80.26 E40.99061
G1 X66.771 Y79.96 E41.01162
G1 X67.36 Y79.732 E41.03263
G1 X67.974 Y79.58 E41.05366
G1 X68.865 Y79.5 E41.08342
G1 X69.81 Y79.5 E41.11485
G1 X70.441 Y79.54 E41.13588
G1 X71.062 Y79.659 E41.15691
G1 X71.662 Y79.856 E41.17791
G1 X72.234 Y80.127 E41.19896
G1 X72.766 Y80.467 E41.21996
G1 X73.251 Y80.873 E41.241
G1 X73.681 Y81.336 E41.26202
G1 X74.05 Y81.85 E41.28306
G1 X74.35 Y82.406 E41.30407
G1 X74.578 Y82.995 E41.32508
G1 X74.73 Y83.609 E41.34612
G1 X74.81 Y84.5 E41.37587
G1 X74.811 Y150.5 E43.57104
G1 X74.771 Y151.131 E43.59207
G1 X74.652 Y151.752 E43.6131
G1 X74.455 Y152.352 E43.63411
G1 X74.184 Y152.924 E43.65516
G1 X73.844 Y153.456 E43.67616
G1 X73.438 Y153.941 E43.6972
G1 X72.975 Y154.371 E43.71821
G1 X72.461 Y154.74 E43.73926
G1 X71.905 Y155.04 E43.76027
G1 X71.316 Y155.268 E43.78128
G1 X70.702 Y155.42 E43.80231
G1 X69.811 Y155.5 E43.83207
G1 X68.866 Y155.5 E43.8635
G1 X68.235 Y155.46 E43.88453
G1 X67.614 Y155.341 E43.90556
G1 X67.014 Y155.144 E43.92656
G1 X66.442 Y154.873 E43.94761
G1 X65.91 Y154.533 E43.96861
G1 X65.425 Y154.127 E43.98965
G1 X64.995 Y153.664 E44.01067
G1 X64.626 Y153.15 E44.03171
G1 X64.326 Y152.594 E44.05273
G1 X64.098 Y152.005 E44.07373
G1 X63.946 Y151.391 E44.09477
G1 X63.866 Y150.5 E44.12452
G1 X63.865 Y84.5 E46.31969
G0 F6000 X64.265 Y84.5
G1 F1200 X64.305 Y83.895 E46.33986
G1 X64.424 Y83.301 E46.36001
G1 X64.62 Y82.727 E46.38018
G1 X64.89 Y82.184 E46.40035
G1 X65.23 Y81.682 E46.42052
G1 X65.632 Y81.228 E46.44069
G1 X66.09 Y80.831 E46.46085
G1 X66.597 Y80.498 E46.48102
G1 X67.143 Y80.235 E46.50118
G1 X67.719 Y80.045 E46.52135
G1 X68.315 Y79.933 E46.54152
G1 X68.865 Y79.9 E46.55985
G1 X69.81 Y79.9 E46.59128
G1 X70.415 Y79.94 E46.61144
G1 X71.009 Y80.059 E46.63159
G1 X71.583 Y80.255 E46.65177
G1 X72.126 Y80.526 E46.67195
G1 X72.629 Y80.865 E46.69213
G1 X73.082 Y81.267 E46.71227
G1 X73.479 Y81.725 E46.73243
G1 X73.812 Y82.232 E46.7526
G1 X74.076 Y82.778 E46.77278
G1 X74.265 Y83.354 E46.79294
G1 X74.377 Y83.95 E46.81311
G1 X74.41 Y84.5 E46.83143
G1 X74.411 Y150.5 E49.0266
G1 X74.371 Y151.105 E49.04677
G1 X74.252 Y151.699 E49.06692
G1 X74.056 Y152.273 E49.08709
G1 X73.786 Y152.816 E49.10726
G1 X73.446 Y153.318 E49.12743
G1 X73.044 Y153.772 E49.1476
G1 X72.586 Y154.169 E49.16776
G1 X72.079 Y154.502 E49.18793
G1 X71.533 Y154.765 E49.20809
G1 X70.957 Y154.955 E49.22826
G1 X70.361 Y155.067 E49.24843
G1 X69.811 Y155.1 E49.26676
