;FLAVOR:Marlin
;TIME:2868
;Filament used: 2.13247m
;Layer height: 0.2
;MINX:69.502
;MINY:107.362
;MINZ:0.2
;MAXX:165.499
;MAXY:130.508
;MAXZ:17.2
;Generated with Cura_SteamEngine 5.0.0
M140 S70
M105
M190 S70
M104 S200
M105
M109 S200
M82 ;absolute extrusion mode
; Ender 3 Custom Start G-code
G28 ; Home all axes
M420 S1; Bed Leveling On
G92 E0 ; Reset Extruder
G1 Z2.0 F3000 ; Move Z Axis up little to prevent scratching of Heat Bed
G1 X0.1 Y20 Z0.3 F5000.0 ; Move to start position
G1 X0.1 Y200.0 Z0.3 F1500.0 E15 ; Draw the first line
G1 X0.4 Y200.0 Z0.3 F5000.0 ; Move to side a little
G1 X0.4 Y20 Z0.3 F1500.0 E30 ; Draw the second line
G92 E0 ; Reset Extruder
G1 Z2.0 F3000 ; Move Z Axis up little to prevent scratching of Heat Bed
G1 X5 Y20 Z0.3 F5000.0 ; Move over to prevent blob squish
G92 E0
G92 E0
G1 F2700 E-5
;LAYER_COUNT:86
;LAYER:0
M107
G0 F6000 X74.14 Y109.608 Z0.2
G0 X69.502 Y119.01
;TYPE:SKIRT
G1 F2700 E0
G1 F900 X69.511 Y118.411 E0.01993
G1 X69.565 Y117.474 E0.05114
G1 X69.699 Y116.546 E0.08233
G1 X69.911 Y115.633 E0.1135
G1 X70.2 Y114.74 E0.14472
G1 X70.565 Y113.876 E0.17592
G1 X71.001 Y113.046 E0.2071
G1 X71.507 Y112.256 E0.2383
G1 X72.078 Y111.512 E0.26949
G1 X72.71 Y110.82 E0.30067
G1 X73.399 Y110.183 E0.33187
G1 X74.14 Y109.608 E0.36307
G1 X74.927 Y109.098 E0.39426
G1 X75.755 Y108.657 E0.42546
G1 X76.617 Y108.288 E0.45665
G1 X77.507 Y107.994 E0.48782
G1 X78.42 Y107.776 E0.51904
G1 X79.347 Y107.638 E0.55022
G1 X80.201 Y107.58 E0.57869
G1 X80.83 Y107.567 E0.59961
G1 X139.141 Y107.566 E2.53904
G1 X141.737 Y107.529 E2.6254
G1 X144.691 Y107.405 E2.72373
G1 X146.326 Y107.371 E2.77812
G1 X153.809 Y107.362 E3.02701
G1 X154.638 Y107.372 E3.05458
G1 X155.575 Y107.425 E3.0858
G1 X156.503 Y107.557 E3.11698
G1 X157.417 Y107.768 E3.14817
G1 X158.31 Y108.055 E3.17937
G1 X159.174 Y108.418 E3.21054
G1 X160.005 Y108.853 E3.24174
G1 X160.796 Y109.358 E3.27295
G1 X161.541 Y109.928 E3.30415
G1 X162.234 Y110.559 E3.33532
G1 X162.872 Y111.247 E3.36653
G1 X163.448 Y111.987 E3.39772
G1 X163.959 Y112.773 E3.4289
G1 X164.402 Y113.6 E3.46011
G1 X164.772 Y114.462 E3.49131
G1 X165.068 Y115.352 E3.5225
G1 X165.286 Y116.264 E3.55369
G1 X165.427 Y117.191 E3.58488
G1 X165.487 Y118.097 E3.61508
G1 X165.499 Y118.908 E3.64205
G1 X165.49 Y119.635 E3.66624
G1 X165.439 Y120.572 E3.69745
G1 X165.307 Y121.5 E3.72862
G1 X165.098 Y122.414 E3.75981
G1 X164.811 Y123.307 E3.79101
G1 X164.449 Y124.173 E3.82222
G1 X164.015 Y125.004 E3.85341
G1 X163.511 Y125.795 E3.8846
G1 X162.942 Y126.54 E3.91578
G1 X162.311 Y127.235 E3.947
G1 X161.624 Y127.873 E3.97818
G1 X160.885 Y128.45 E4.00937
G1 X160.099 Y128.962 E4.04057
G1 X159.273 Y129.405 E4.07174
G1 X158.411 Y129.777 E4.10297
G1 X157.522 Y130.073 E4.13413
G1 X156.61 Y130.293 E4.16534
G1 X155.683 Y130.434 E4.19652
G1 X154.727 Y130.496 E4.22839
G1 X154.062 Y130.508 E4.25051
G1 X145.834 Y130.5 E4.52417
G1 X144.361 Y130.478 E4.57317
G1 X142.91 Y130.467 E4.62143
G1 X81.035 Y130.467 E6.6794
G1 X80.336 Y130.456 E6.70266
G1 X79.4 Y130.401 E6.73384
G1 X78.471 Y130.267 E6.76506
G1 X77.558 Y130.054 E6.79624
G1 X76.666 Y129.764 E6.82744
G1 X75.802 Y129.399 E6.85863
G1 X74.972 Y128.962 E6.88983
G1 X74.183 Y128.456 E6.92101
G1 X73.439 Y127.884 E6.95222
G1 X72.747 Y127.251 E6.98341
G1 X72.111 Y126.562 E7.0146
G1 X71.537 Y125.821 E7.04578
G1 X71.027 Y125.033 E7.07699
G1 X70.587 Y124.205 E7.10818
G1 X70.218 Y123.343 E7.13937
G1 X69.925 Y122.452 E7.17056
G1 X69.708 Y121.54 E7.20174
G1 X69.57 Y120.612 E7.23295
G1 X69.513 Y119.769 E7.26105
G1 X69.502 Y119.01 E7.2863
G0 F6000 X69.902 Y119.016
G1 F900 X69.911 Y118.417 E7.30622
G1 X69.965 Y117.498 E7.33684
G1 X70.098 Y116.587 E7.36746
G1 X70.31 Y115.691 E7.39809
G1 X70.599 Y114.817 E7.4287
G1 X70.963 Y113.971 E7.45934
G1 X71.398 Y113.16 E7.48995
G1 X71.903 Y112.39 E7.52057
G1 X72.472 Y111.666 E7.5512
G1 X73.102 Y110.995 E7.58181
G1 X73.788 Y110.38 E7.61245
G1 X74.524 Y109.828 E7.64305
G1 X75.306 Y109.341 E7.6737
G1 X76.127 Y108.925 E7.70431
G1 X76.981 Y108.581 E7.73493
G1 X77.861 Y108.312 E7.76553
G1 X78.762 Y108.121 E7.79617
G1 X79.676 Y108.009 E7.8268
G1 X80.212 Y107.98 E7.84465
G1 X80.83 Y107.967 E7.86521
G1 X139.147 Y107.966 E9.80484
G1 X141.76 Y107.929 E9.89176
G1 X144.699 Y107.805 E9.9896
G1 X146.326 Y107.771 E10.04372
G1 X153.809 Y107.762 E10.29261
G1 X154.633 Y107.772 E10.32002
G1 X155.552 Y107.824 E10.35063
G1 X156.463 Y107.956 E10.38125
G1 X157.359 Y108.167 E10.41186
G1 X158.234 Y108.454 E10.44249
G1 X159.08 Y108.817 E10.47311
G1 X159.892 Y109.251 E10.50373
G1 X160.663 Y109.754 E10.53435
G1 X161.388 Y110.322 E10.56498
G1 X162.06 Y110.951 E10.5956
G1 X162.675 Y111.636 E10.62622
G1 X163.229 Y112.372 E10.65686
G1 X163.716 Y113.152 E10.68744
G1 X164.134 Y113.973 E10.71808
G1 X164.48 Y114.826 E10.7487
G1 X164.75 Y115.706 E10.77931
G1 X164.942 Y116.607 E10.80995
G1 X165.056 Y117.52 E10.84056
G1 X165.087 Y118.107 E10.86011
G1 X165.099 Y118.903 E10.88659
G1 X165.09 Y119.63 E10.91077
G1 X165.039 Y120.549 E10.94138
G1 X164.908 Y121.461 E10.97202
G1 X164.698 Y122.357 E11.00263
G1 X164.412 Y123.232 E11.03325
G1 X164.051 Y124.079 E11.06387
G1 X163.617 Y124.891 E11.0945
G1 X163.115 Y125.663 E11.12513
G1 X162.547 Y126.388 E11.15576
G1 X161.919 Y127.061 E11.18637
G1 X161.235 Y127.677 E11.21699
G1 X160.5 Y128.231 E11.2476
G1 X159.72 Y128.72 E11.27822
G1 X158.9 Y129.139 E11.30885
G1 X158.047 Y129.485 E11.33947
G1 X157.167 Y129.756 E11.37009
G1 X156.267 Y129.949 E11.40071
G1 X155.353 Y130.064 E11.43135
G1 X154.719 Y130.097 E11.45246
G1 X154.063 Y130.108 E11.47428
G1 X145.84 Y130.1 E11.74778
G1 X144.37 Y130.078 E11.79668
G1 X142.913 Y130.067 E11.84514
G1 X81.041 Y130.067 E13.90301
G1 X80.342 Y130.056 E13.92626
G1 X79.423 Y130.001 E13.95688
G1 X78.512 Y129.867 E13.98751
G1 X77.617 Y129.655 E14.0181
G1 X76.743 Y129.365 E14.04873
G1 X75.897 Y129.001 E14.07936
G1 X75.086 Y128.565 E14.10999
G1 X74.316 Y128.06 E14.14061
G1 X73.593 Y127.49 E14.17123
G1 X72.922 Y126.86 E14.20185
G1 X72.309 Y126.174 E14.23245
G1 X71.757 Y125.437 E14.26307
G1 X71.271 Y124.655 E14.29369
G1 X70.855 Y123.833 E14.32434
G1 X70.511 Y122.979 E14.35496
G1 X70.243 Y122.098 E14.38559
G1 X70.053 Y121.198 E14.41618
G1 X69.941 Y120.284 E14.44681
G1 X69.905 Y119.476 E14.47371
G1 X69.902 Y119.016 E14.48901
G0 F6000 X70.302 Y119.022
G1 F900 X70.311 Y118.423 E14.50893
G1 X70.365 Y117.521 E14.53899
G1 X70.498 Y116.628 E14.56902
G1 X70.709 Y115.75 E14.59905
G1 X70.998 Y114.894 E14.6291
G1 X71.361 Y114.067 E14.65914
G1 X71.795 Y113.276 E14.68915
G1 X72.298 Y112.526 E14.71918
G1 X72.866 Y111.823 E14.74924
G1 X73.493 Y111.173 E14.77928
G1 X74.175 Y110.582 E14.8093
G1 X74.907 Y110.053 E14.83934
G1 X75.683 Y109.59 E14.86939
G1 X76.497 Y109.199 E14.89943
G1 X77.342 Y108.88 E14.92947
G1 X78.212 Y108.638 E14.9595
G1 X79.1 Y108.474 E14.98954
G1 X80.223 Y108.38 E15.02702
G1 X80.83 Y108.367 E15.04721
G1 X139.153 Y108.366 E16.98704
G1 X141.747 Y108.329 E17.07333
G1 X144.708 Y108.204 E17.1719
G1 X146.327 Y108.171 E17.22576
G1 X153.81 Y108.162 E17.47464
G1 X154.627 Y108.172 E17.50182
G1 X155.529 Y108.224 E17.53187
G1 X156.422 Y108.356 E17.56189
G1 X157.301 Y108.566 E17.59195
G1 X158.157 Y108.853 E17.62198
G1 X158.985 Y109.215 E17.65204
G1 X159.777 Y109.648 E17.68206
G1 X160.528 Y110.15 E17.7121
G1 X161.231 Y110.716 E17.74212
G1 X161.882 Y111.342 E17.77216
G1 X162.475 Y112.024 E17.80222
G1 X163.005 Y112.755 E17.83225
G1 X163.468 Y113.53 E17.86228
G1 X163.861 Y114.343 E17.89231
G1 X164.181 Y115.188 E17.92236
G1 X164.424 Y116.058 E17.95241
G1 X164.59 Y116.945 E17.98242
G1 X164.687 Y118.117 E18.02154
G1 X164.699 Y118.898 E18.04751
G1 X164.69 Y119.625 E18.0717
G1 X164.639 Y120.527 E18.10175
G1 X164.508 Y121.421 E18.1318
G1 X164.299 Y122.299 E18.16182
G1 X164.013 Y123.156 E18.19187
G1 X163.652 Y123.984 E18.22191
G1 X163.22 Y124.776 E18.25191
G1 X162.719 Y125.528 E18.28197
G1 X162.153 Y126.232 E18.31201
G1 X161.528 Y126.883 E18.34203
G1 X160.847 Y127.477 E18.37208
G1 X160.116 Y128.008 E18.40213
G1 X159.342 Y128.472 E18.43215
G1 X158.529 Y128.866 E18.4622
G1 X157.685 Y129.186 E18.49222
G1 X156.815 Y129.431 E18.52228
G1 X155.928 Y129.597 E18.5523
G1 X154.71 Y129.697 E18.59294
G1 X154.063 Y129.708 E18.61446
G1 X145.846 Y129.7 E18.88776
G1 X144.379 Y129.678 E18.93656
G1 X142.916 Y129.667 E18.98522
G1 X81.048 Y129.667 E21.04296
G1 X80.349 Y129.656 E21.06621
G1 X79.447 Y129.602 E21.09627
G1 X78.554 Y129.468 E21.1263
G1 X77.676 Y129.256 E21.15634
G1 X76.82 Y128.967 E21.18639
G1 X75.994 Y128.603 E21.21641
G1 X75.202 Y128.168 E21.24647
G1 X74.453 Y127.664 E21.27649
G1 X73.75 Y127.097 E21.30653
G1 X73.101 Y126.469 E21.33657
G1 X72.51 Y125.786 E21.36661
G1 X71.982 Y125.054 E21.39663
G1 X71.52 Y124.277 E21.4267
G1 X71.129 Y123.463 E21.45673
G1 X70.811 Y122.618 E21.48676
G1 X70.57 Y121.748 E21.51679
G1 X70.406 Y120.86 E21.54682
G1 X70.313 Y119.746 E21.584
G1 X70.302 Y119.022 E21.60809
G1 F2700 E16.60809
G0 F6000 X79.847 Y117.914
G0 X145.153 Y117.913
G0 X145.5 Y118.572
G1 F2700 E21.60809
G1 F900 X154.3 Y118.561 E21.90077
G1 X154.3 Y119.308 E21.92562
G1 X145.5 Y119.3 E22.21831
G1 X145.5 Y118.572 E22.24252
;MESH:R_LE_End.stl
G0 F6000 X144.275 Y119.017
;TYPE:WALL-OUTER
G1 F800 X144.275 Y118.792 E22.25094
G1 X136.331 Y118.792 E22.54819
G1 X128.387 Y118.792 E22.84543
G1 X120.443 Y118.792 E23.14268
G1 X112.499 Y118.792 E23.43992
G1 X104.555 Y118.792 E23.73717
G1 X96.611 Y118.792 E24.03442
G1 X88.667 Y118.792 E24.33166
G1 X80.723 Y118.792 E24.62891
G1 F798.2 X80.725 Y119.243 E24.64582
G1 F800 X88.669 Y119.243 E24.94307
G1 X96.613 Y119.243 E25.24031
G1 X104.557 Y119.243 E25.53756
G1 X112.501 Y119.243 E25.8348
G1 X120.445 Y119.243 E26.13205
G1 X128.389 Y119.243 E26.4293
G1 X136.333 Y119.243 E26.72654
G1 X144.277 Y119.242 E27.02379
G1 X144.275 Y119.017 E27.03221
G1 F2700 E22.03221
;MESH:NONMESH
G0 F300 X144.275 Y119.017 Z0.4
G0 F6000 X145.381 Y118.452
;TIME_ELAPSED:60.800788
;LAYER:1
M140 S60
M106 S85
;TYPE:SUPPORT
G1 F2700 E27.03221
G1 F1200 X145.381 Y119.42 E27.0644
G1 X154.42 Y119.428 E27.36504
G1 X154.42 Y118.935 E27.38144
G1 X154.42 Y118.442 E27.39784
G1 X145.381 Y118.452 E27.69847
G0 F7500 X147.2 Y118.73
G1 F1200 X147.2 Y119.141 E27.71214
G1 X145.661 Y119.14 E27.76333
G1 X145.661 Y118.732 E27.7769
G1 X148.8 Y118.728 E27.88131
G1 X148.8 Y119.142 E27.89508
G1 X150.4 Y119.144 E27.94829
G1 X150.4 Y118.726 E27.96219
G1 X152 Y118.724 E28.01541
G1 X152 Y119.145 E28.02941
G1 X154.14 Y119.148 E28.10059
G1 X154.14 Y118.722 E28.11476
G1 X153.6 Y118.722 E28.13272
G1 X153.6 Y119.147 E28.14685
G1 F2700 E23.14685
;MESH:R_LE_End.stl
G0 F7500 X153.6 Y120.173
G0 X145.153 Y120.152
G0 X144.3 Y119.041
;TYPE:WALL-OUTER
G1 F2700 E28.14685
G1 F1200 X144.3 Y118.426 E28.16731
G1 X80.7 Y118.427 E30.28265
G1 X80.7 Y119.657 E30.32356
G1 X144.3 Y119.656 E32.43891
G1 X144.3 Y119.041 E32.45936
G0 F7500 X143.893 Y119.249
;TYPE:WALL-INNER
G1 F1156.6 X143.893 Y119.041 E32.46654
G1 X143.893 Y118.833 E32.47372
G1 X81.107 Y118.834 E34.6403
G1 X81.107 Y119.25 E34.65465
G1 X143.893 Y119.249 E36.82124
G1 F2700 E31.82124
;MESH:NONMESH
G0 F300 X143.893 Y119.249 Z0.6
G0 F7500 X145.381 Y118.452
;TIME_ELAPSED:77.397372
;LAYER:2
M106 S170
;TYPE:SUPPORT
G1 F2700 E36.82124
G1 F1500 X145.381 Y119.42 E36.85343
G1 X154.42 Y119.428 E37.15407
G1 X154.42 Y118.935 E37.17047
G1 X154.42 Y118.442 E37.18686
G1 X145.381 Y118.452 E37.4875
G0 F9000 X147.2 Y118.73
G1 F1500 X147.2 Y119.141 E37.50117
G1 X145.661 Y119.14 E37.55236
G1 X145.661 Y118.732 E37.56593
G1 X148.8 Y118.728 E37.67033
G1 X148.8 Y119.142 E37.6841
G1 X150.4 Y119.144 E37.73732
G1 X150.4 Y118.726 E37.75122
G1 X152 Y118.724 E37.80444
G1 X152 Y119.145 E37.81844
G1 X154.14 Y119.148 E37.88962
G1 X154.14 Y118.722 E37.90379
G1 X153.6 Y118.722 E37.92175
G1 X153.6 Y119.147 E37.93588
G1 F2700 E32.93588
;MESH:R_LE_End.stl
G0 F9000 X153.6 Y120.173
G0 X145.153 Y120.152
G0 X144.3 Y119.052
;TYPE:WALL-OUTER
G1 F2700 E37.93588
G1 F1500 X144.3 Y118.177 E37.96499
G1 X80.7 Y118.177 E40.08033
G1 X80.7 Y119.928 E40.13857
G1 X144.3 Y119.927 E42.25391
G1 X144.3 Y119.052 E42.28302
G0 F9000 X143.9 Y119.527
;TYPE:WALL-INNER
G1 F1500 X143.9 Y119.052 E42.29881
G1 X143.9 Y118.577 E42.31461
G1 X81.1 Y118.577 E44.40335
G1 X81.1 Y119.528 E44.43498
G1 X143.9 Y119.527 E46.52372
G0 F9000 X143.425 Y119.052
;TYPE:SKIN
G1 F952.4 X139.559 Y119.052 E46.72624
G1 X135.693 Y119.052 E46.92876
G1 X131.827 Y119.052 E47.13127
G1 X127.961 Y119.052 E47.33379
G1 X124.095 Y119.052 E47.53631
G1 X120.229 Y119.052 E47.73883
G1 X116.363 Y119.052 E47.94135
G1 X112.497 Y119.052 E48.14387
G1 F950.9 X108.631 Y119.052 E48.34671
G1 X104.765 Y119.052 E48.54955
G1 X100.899 Y119.052 E48.75239
G1 X97.033 Y119.052 E48.95523
G1 X93.167 Y119.052 E49.15807
G1 X89.301 Y119.052 E49.36092
G1 X85.435 Y119.052 E49.56376
G1 X81.569 Y119.052 E49.7666
G1 F2700 E44.7666
;MESH:NONMESH
G0 F300 X81.569 Y119.052 Z0.8
G0 F9000 X81.568 Y117.312
G0 X145.153 Y117.323
G0 X145.153 Y117.719
G0 X145.525 Y118.372
;TIME_ELAPSED:95.899946
;LAYER:3
M106 S255
;TYPE:SUPPORT-INTERFACE
G1 F2700 E49.7666
G1 F1500 X146.653 Y119.5 E49.81965
G0 F9000 X146.369 Y118.371
G1 F1500 X145.299 Y119.441 E49.86998
G1 F2700 E44.86998
G0 F9000 X145.299 Y120.165
G0 X148.632 Y120.168
G0 X148.632 Y119.502
G1 F2700 E49.86998
G1 F1500 X149.768 Y118.366 E49.92342
G0 F9000 X148.915 Y118.368
G1 F1500 X150.05 Y119.503 E49.97681
G0 F9000 X152.023 Y119.505
G1 F1500 X153.167 Y118.361 E50.03062
G0 F9000 X152.305 Y118.364
G1 F1500 X153.447 Y119.505 E50.08431
G1 F2700 E45.08431
;MESH:R_LE_End.stl
G0 F9000 X153.447 Y120.173
G0 X145.153 Y120.152
G0 X144.3 Y119.057
;TYPE:WALL-OUTER
G1 F2700 E50.08431
G1 F1500 X144.3 Y117.959 E50.12083
G1 X80.7 Y117.959 E52.23617
G1 X80.7 Y120.156 E52.30924
G1 X144.3 Y120.155 E54.42459
G1 X144.3 Y119.057 E54.46111
G0 F9000 X143.9 Y119.755
;TYPE:WALL-INNER
G1 F1500 X143.9 Y119.057 E54.48432
G1 X143.9 Y118.359 E54.50754
G1 X81.1 Y118.359 E56.59628
G1 X81.1 Y119.756 E56.64274
G1 X143.9 Y119.755 E58.73148
G0 F9000 X143.471 Y119.326
;TYPE:SKIN
G1 F1115.2 X143.471 Y119.057 E58.74351
G1 X143.471 Y118.788 E58.75554
G1 X135.728 Y118.788 E59.10193
G1 X127.985 Y118.788 E59.44831
G1 X120.242 Y118.788 E59.79469
G1 X112.499 Y118.788 E60.14107
G1 X104.756 Y118.788 E60.48746
G1 X97.013 Y118.788 E60.83384
G1 X89.27 Y118.788 E61.18022
G1 X81.527 Y118.788 E61.5266
G1 F1113.2 X81.529 Y119.327 E61.55076
G1 F1115.2 X89.272 Y119.327 E61.89714
G1 X97.015 Y119.327 E62.24352
G1 X104.758 Y119.327 E62.58991
G1 X112.501 Y119.327 E62.93629
G1 X120.244 Y119.327 E63.28267
G1 X127.987 Y119.327 E63.62905
G1 X135.73 Y119.327 E63.97543
G1 X143.473 Y119.326 E64.32182
G1 F2700 E59.32182
;MESH:NONMESH
G0 F300 X143.473 Y119.326 Z1
G0 F9000 X145.525 Y118.372
;TIME_ELAPSED:116.236754
;LAYER:4
;TYPE:SUPPORT-INTERFACE
G1 F2700 E64.32182
G1 F1500 X146.653 Y119.5 E64.37487
G0 F9000 X146.369 Y118.371
G1 F1500 X145.299 Y119.441 E64.4252
G1 F2700 E59.4252
G0 F9000 X145.299 Y120.165
G0 X148.632 Y120.168
G0 X148.632 Y119.502
G1 F2700 E64.4252
G1 F1500 X149.768 Y118.366 E64.47864
G0 F9000 X148.915 Y118.368
G1 F1500 X150.05 Y119.503 E64.53203
G0 F9000 X152.023 Y119.505
G1 F1500 X153.167 Y118.361 E64.58584
G0 F9000 X152.305 Y118.364
G1 F1500 X153.447 Y119.505 E64.63953
G1 F2700 E59.63953
;MESH:R_LE_End.stl
G0 F9000 X153.447 Y120.173
G0 X145.153 Y120.152
G0 X144.3 Y119.062
;TYPE:WALL-OUTER
G1 F2700 E64.63953
G1 F1500 X144.3 Y117.764 E64.6827
G1 X80.7 Y117.765 E66.79804
G1 X80.7 Y120.361 E66.88439
G1 X144.3 Y120.36 E68.99973
G1 X144.3 Y119.062 E69.0429
G0 F9000 X143.9 Y119.96
;TYPE:WALL-INNER
G1 F1500 X143.9 Y119.062 E69.07277
G1 X143.9 Y118.164 E69.10264
G1 X81.1 Y118.165 E71.19138
G1 X81.1 Y119.961 E71.25111
G1 X143.9 Y119.96 E73.33985
G0 F9000 X143.54 Y119.6
;TYPE:SKIN
G1 F1500 X143.54 Y119.062 E73.35774
G1 X143.54 Y118.524 E73.37564
G1 X81.46 Y118.525 E75.44042
G1 X81.46 Y119.601 E75.47621
G1 X143.54 Y119.6 E77.541
G0 F9000 X143.048 Y118.723
G1 F1500 X143.339 Y119.015 E77.55471
G0 F9000 X143.158 Y119.399
G1 F1500 X142.482 Y118.723 E77.58651
G0 F9000 X141.917 Y118.723
G1 F1500 X142.593 Y119.399 E77.61831
G0 F9000 X142.027 Y119.399
G1 F1500 X141.351 Y118.723 E77.6501
G0 F9000 X140.785 Y118.723
