;FLAVOR:Marlin
;TIME:3973
;Filament used: 2.76933m
;Layer height: 0.2
;MINX:27.854
;MINY:34.032
;MINZ:0.2
;MAXX:206.996
;MAXY:201.018
;MAXZ:2
;Generated with Cura_SteamEngine 5.0.0
M140 S70
M105
M190 S70
M104 S200
M105
M109 S200
M82 ;absolute extrusion mode
; Ender 3 Custom Start G-code
G28 ; Home all axes
M420 S1; Bed Leveling On
G92 E0 ; Reset Extruder
G1 Z2.0 F3000 ; Move Z Axis up little to prevent scratching of Heat Bed
G1 X0.1 Y20 Z0.3 F5000.0 ; Move to start position
G1 X0.1 Y200.0 Z0.3 F1500.0 E15 ; Draw the first line
G1 X0.4 Y200.0 Z0.3 F5000.0 ; Move to side a little
G1 X0.4 Y20 Z0.3 F1500.0 E30 ; Draw the second line
G92 E0 ; Reset Extruder
G1 Z2.0 F3000 ; Move Z Axis up little to prevent scratching of Heat Bed
G1 X5 Y20 Z0.3 F5000.0 ; Move over to prevent blob squish
G92 E0
G92 E0
G1 F2700 E-5
;LAYER_COUNT:10
;LAYER:0
M107
G0 F6000 X38.842 Y38.716 Z0.2
G0 X35.153 Y42.547
;TYPE:SKIRT
G1 F2700 E0
G1 F900 X37.003 Y40.644 E0.08827
G1 X37.581 Y40.021 E0.11654
G1 X38.842 Y38.716 E0.1769
G1 X39.909 Y37.65 E0.22706
G1 X40.418 Y37.154 E0.2507
G1 X41.117 Y36.529 E0.28189
G1 X41.867 Y35.965 E0.3131
G1 X42.662 Y35.467 E0.3443
G1 X43.496 Y35.039 E0.37548
G1 X44.364 Y34.684 E0.40667
G1 X45.259 Y34.404 E0.43786
G1 X46.175 Y34.201 E0.46906
G1 X47.104 Y34.077 E0.50024
G1 X48.041 Y34.032 E0.53144
G1 X48.978 Y34.068 E0.56263
G1 X49.909 Y34.183 E0.59383
G1 X50.827 Y34.377 E0.62503
G1 X51.378 Y34.533 E0.64408
G1 X52.518 Y34.89 E0.68381
G1 X54.981 Y35.623 E0.76928
G1 X57.448 Y36.281 E0.8542
G1 X59.868 Y36.854 E0.93692
G1 X62.394 Y37.376 E1.02271
G1 X63.77 Y37.645 E1.06934
G1 X64.682 Y37.864 E1.10054
G1 X65.572 Y38.16 E1.13173
G1 X66.434 Y38.531 E1.16295
G1 X67.261 Y38.974 E1.19415
G1 X68.047 Y39.485 E1.22533
G1 X68.787 Y40.062 E1.25654
G1 X69.258 Y40.487 E1.27764
G1 X69.751 Y40.962 E1.30041
G1 X112.845 Y84.056 E3.32742
G1 X114.262 Y85.483 E3.39431
G1 X114.936 Y86.147 E3.42578
G1 X158.097 Y129.308 E5.45594
G1 X159.552 Y130.774 E5.52464
G1 X160.264 Y131.476 E5.55789
G1 X203.359 Y174.57 E7.58492
G1 X203.871 Y175.095 E7.60932
G1 X204.497 Y175.794 E7.64052
G1 X205.06 Y176.543 E7.67169
G1 X205.558 Y177.338 E7.70289
G1 X205.987 Y178.172 E7.73408
G1 X206.343 Y179.04 E7.76529
G1 X206.623 Y179.935 E7.79648
G1 X206.826 Y180.851 E7.82768
G1 X206.951 Y181.78 E7.85886
G1 X206.996 Y182.717 E7.89006
G1 X206.961 Y183.654 E7.92125
G1 X206.846 Y184.585 E7.95245
G1 X206.652 Y185.503 E7.98366
G1 X206.381 Y186.4 E8.01482
G1 X206.035 Y187.272 E8.04602
G1 X205.615 Y188.111 E8.07723
G1 X205.126 Y188.911 E8.10842
G1 X204.57 Y189.666 E8.1396
G1 X204.018 Y190.302 E8.16761
G1 X203.546 Y190.796 E8.19034
G1 X199.076 Y195.265 E8.40057
G1 X198.581 Y195.745 E8.4235
G1 X197.88 Y196.369 E8.45472
G1 X197.129 Y196.93 E8.48589
G1 X196.333 Y197.426 E8.51709
G1 X195.497 Y197.852 E8.5483
G1 X194.628 Y198.205 E8.57949
G1 X193.733 Y198.483 E8.61066
G1 X192.817 Y198.684 E8.64185
G1 X191.592 Y198.828 E8.68288
G1 X190.127 Y198.917 E8.73169
G1 X187.529 Y199.12 E8.81837
G1 X185.062 Y199.384 E8.90089
G1 X182.574 Y199.721 E8.9844
G1 X180.078 Y200.132 E9.06853
G1 X177.455 Y200.639 E9.15739
G1 X176.654 Y200.802 E9.18457
G1 X175.728 Y200.95 E9.21576
G1 X174.793 Y201.018 E9.24694
G1 X173.855 Y201.006 E9.27815
G1 X172.921 Y200.915 E9.30936
G1 X171.999 Y200.744 E9.34055
G1 X171.095 Y200.495 E9.37173
G1 X170.215 Y200.17 E9.40293
G1 X169.366 Y199.772 E9.43412
G1 X168.554 Y199.302 E9.46533
G1 X167.785 Y198.765 E9.49652
G1 X166.818 Y197.933 E9.53895
G1 X166.328 Y197.457 E9.56167
G1 X31.48 Y62.61 E15.90448
G1 X30.977 Y62.094 E15.92845
G1 X30.352 Y61.395 E15.95964
G1 X29.788 Y60.646 E15.99082
G1 X29.29 Y59.851 E16.02203
G1 X28.862 Y59.017 E16.0532
G1 X28.507 Y58.149 E16.08439
G1 X28.226 Y57.254 E16.11559
G1 X28.023 Y56.338 E16.1468
G1 X27.899 Y55.408 E16.17801
G1 X27.854 Y54.472 E16.20917
G1 X27.889 Y53.534 E16.24039
G1 X28.004 Y52.604 E16.27156
G1 X28.198 Y51.686 E16.30277
G1 X28.469 Y50.788 E16.33397
G1 X28.816 Y49.917 E16.36515
G1 X29.236 Y49.078 E16.39636
G1 X29.726 Y48.278 E16.42756
G1 X30.282 Y47.523 E16.45874
G1 X30.85 Y46.871 E16.48751
G1 X31.306 Y46.394 E16.50945
G1 X35.153 Y42.547 E16.6904
G0 F6000 X35.44 Y42.826
G1 F900 X37.28 Y40.933 E16.77821
G1 X37.869 Y40.299 E16.80699
G1 X39.125 Y38.999 E16.86711
G1 X40.188 Y37.936 E16.91711
G1 X40.697 Y37.44 E16.94075
G1 X41.384 Y36.827 E16.97137
G1 X42.121 Y36.276 E17.00198
G1 X42.903 Y35.79 E17.0326
G1 X43.725 Y35.375 E17.06323
G1 X44.579 Y35.032 E17.09384
G1 X45.46 Y34.765 E17.12446
G1 X46.361 Y34.575 E17.15508
G1 X47.275 Y34.464 E17.18571
G1 X48.195 Y34.432 E17.21633
G1 X49.115 Y34.481 E17.24697
G1 X50.026 Y34.609 E17.27757
G1 X51.259 Y34.915 E17.31982
G1 X52.433 Y35.282 E17.36073
G1 X54.869 Y36.007 E17.44526
G1 X57.325 Y36.662 E17.52981
G1 X59.767 Y37.241 E17.61328
G1 X62.402 Y37.785 E17.70277
G1 X63.694 Y38.038 E17.74656
G1 X64.589 Y38.254 E17.77718
G1 X65.462 Y38.546 E17.8078
G1 X66.306 Y38.913 E17.83841
G1 X67.115 Y39.352 E17.86902
G1 X67.883 Y39.86 E17.89965
G1 X68.604 Y40.432 E17.93026
G1 X68.982 Y40.776 E17.94726
G1 X69.468 Y41.245 E17.96972
G1 X112.562 Y84.338 E19.99671
G1 X114.028 Y85.814 E20.0659
G1 X114.655 Y86.432 E20.09518
G1 X157.813 Y129.59 E22.1252
G1 X159.27 Y131.058 E22.19399
G1 X159.981 Y131.758 E22.22718
G1 X203.073 Y174.849 E24.25407
G1 X203.585 Y175.374 E24.27846
G1 X204.198 Y176.061 E24.30908
G1 X204.75 Y176.798 E24.33971
G1 X205.236 Y177.58 E24.37033
G1 X205.652 Y178.401 E24.40094
G1 X205.995 Y179.255 E24.43155
G1 X206.262 Y180.136 E24.46217
G1 X206.453 Y181.037 E24.49281
G1 X206.564 Y181.951 E24.52343
G1 X206.596 Y182.871 E24.55405
G1 X206.547 Y183.791 E24.58469
G1 X206.419 Y184.702 E24.61529
G1 X206.213 Y185.599 E24.6459
G1 X205.929 Y186.475 E24.67653
G1 X205.571 Y187.323 E24.70714
G1 X205.14 Y188.137 E24.73778
G1 X204.64 Y188.91 E24.7684
G1 X204.075 Y189.637 E24.79902
G1 X203.498 Y190.271 E24.82753
G1 X198.913 Y194.863 E25.04336
G1 X198.302 Y195.458 E25.07173
G1 X197.614 Y196.069 E25.10233
G1 X196.875 Y196.619 E25.13297
G1 X196.092 Y197.102 E25.16357
G1 X195.269 Y197.516 E25.19421
G1 X194.414 Y197.857 E25.22483
G1 X193.532 Y198.122 E25.25546
G1 X192.631 Y198.309 E25.28606
G1 X191.568 Y198.428 E25.32164
G1 X190.125 Y198.516 E25.36972
G1 X187.529 Y198.718 E25.45633
G1 X185.003 Y198.989 E25.54082
G1 X182.487 Y199.33 E25.62527
G1 X180.009 Y199.738 E25.7088
G1 X177.398 Y200.243 E25.79725
G1 X176.574 Y200.41 E25.82522
G1 X175.665 Y200.554 E25.85583
G1 X174.747 Y200.619 E25.88644
G1 X173.826 Y200.604 E25.91707
G1 X172.911 Y200.509 E25.94767
G1 X172.007 Y200.335 E25.97829
G1 X171.121 Y200.083 E26.00892
G1 X170.261 Y199.755 E26.03954
G1 X169.432 Y199.354 E26.07017
G1 X168.641 Y198.882 E26.1008
G1 X167.895 Y198.343 E26.13141
G1 X167.096 Y197.646 E26.16668
G1 X166.611 Y197.174 E26.18919
G1 X31.767 Y62.331 E32.53181
G1 X31.264 Y61.815 E32.55578
G1 X30.65 Y61.129 E32.5864
G1 X30.099 Y60.391 E32.61703
G1 X29.613 Y59.609 E32.64766
G1 X29.197 Y58.788 E32.67827
G1 X28.855 Y57.933 E32.7089
G1 X28.587 Y57.052 E32.73953
G1 X28.397 Y56.152 E32.77012
G1 X28.286 Y55.238 E32.80074
G1 X28.254 Y54.318 E32.83136
G1 X28.303 Y53.398 E32.862
G1 X28.431 Y52.486 E32.89263
G1 X28.638 Y51.589 E32.92325
G1 X28.922 Y50.714 E32.95385
G1 X29.28 Y49.866 E32.98446
G1 X29.711 Y49.052 E33.0151
G1 X30.211 Y48.279 E33.04572
G1 X30.776 Y47.552 E33.07634
G1 X31.141 Y47.145 E33.09453
G1 X31.589 Y46.677 E33.11607
G1 X35.44 Y42.826 E33.29721
G0 F6000 X35.691 Y43.141
G1 F900 X37.578 Y41.199 E33.38727
G1 X38.157 Y40.577 E33.41554
G1 X39.408 Y39.282 E33.47543
G1 X40.467 Y38.223 E33.52524
G1 X40.976 Y37.727 E33.54888
G1 X41.65 Y37.126 E33.57891
G1 X42.375 Y36.587 E33.60896
G1 X43.144 Y36.114 E33.63899
G1 X43.953 Y35.711 E33.66905
G1 X44.793 Y35.381 E33.69906
G1 X45.66 Y35.127 E33.72911
G1 X46.546 Y34.95 E33.75916
G1 X47.444 Y34.853 E33.78921
G1 X48.346 Y34.835 E33.81921
G1 X49.247 Y34.897 E33.84925
G1 X50.139 Y35.039 E33.87929
G1 X51.139 Y35.297 E33.91364
G1 X52.261 Y35.648 E33.95274
G1 X54.757 Y36.391 E34.03936
G1 X57.243 Y37.054 E34.12493
G1 X59.691 Y37.634 E34.20861
G1 X62.251 Y38.163 E34.29555
G1 X63.617 Y38.43 E34.34185
G1 X64.495 Y38.643 E34.3719
G1 X65.35 Y38.932 E34.40191
G1 X66.177 Y39.296 E34.43197
G1 X66.968 Y39.731 E34.46199
G1 X67.718 Y40.235 E34.49205
G1 X68.706 Y41.065 E34.53496
G1 X69.185 Y41.528 E34.55712
G1 X112.278 Y84.62 E36.58406
G1 X113.746 Y86.098 E36.65335
G1 X114.374 Y86.717 E36.68267
G1 X157.53 Y129.872 E38.71258
G1 X159.034 Y131.387 E38.78358
G1 X159.698 Y132.041 E38.81458
G1 X202.786 Y175.128 E40.84128
G1 X203.298 Y175.653 E40.86567
G1 X203.9 Y176.327 E40.89573
G1 X204.439 Y177.052 E40.92578
G1 X204.912 Y177.821 E40.95581
G1 X205.315 Y178.629 E40.98584
G1 X205.646 Y179.47 E41.0159
G1 X205.9 Y180.336 E41.04591
G1 X206.077 Y181.222 E41.07596
G1 X206.175 Y182.119 E41.10598
G1 X206.193 Y183.022 E41.13602
G1 X206.131 Y183.923 E41.16605
G1 X205.99 Y184.815 E41.19609
G1 X205.77 Y185.691 E41.22613
G1 X205.474 Y186.544 E41.25616
G1 X205.103 Y187.368 E41.28622
G1 X204.661 Y188.156 E41.31627
G1 X204.151 Y188.901 E41.3463
G1 X203.434 Y189.754 E41.38336
G1 X202.98 Y190.23 E41.40524
G1 X198.519 Y194.691 E41.61507
G1 X198.024 Y195.171 E41.638
G1 X197.348 Y195.77 E41.66804
G1 X196.622 Y196.307 E41.69808
G1 X195.852 Y196.778 E41.7281
G1 X195.042 Y197.179 E41.75816
G1 X194.201 Y197.507 E41.78818
G1 X193.334 Y197.759 E41.81821
G1 X192.448 Y197.933 E41.84825
G1 X191.544 Y198.029 E41.87848
G1 X190.069 Y198.119 E41.92763
G1 X187.488 Y198.32 E42.01374
G1 X184.978 Y198.589 E42.0977
G1 X182.44 Y198.933 E42.18288
G1 X179.939 Y199.344 E42.26718
G1 X177.288 Y199.857 E42.35699
G1 X176.495 Y200.018 E42.3839
G1 X175.603 Y200.159 E42.41394
G1 X174.702 Y200.22 E42.44398
G1 X173.799 Y200.201 E42.47402
G1 X172.901 Y200.103 E42.50406
G1 X172.016 Y199.925 E42.53409
G1 X171.149 Y199.67 E42.56415
G1 X170.309 Y199.339 E42.59417
G1 X169.501 Y198.935 E42.62422
G1 X168.732 Y198.462 E42.65425
G1 X168.008 Y197.922 E42.68429
G1 X167.374 Y197.358 E42.71251
G1 X166.894 Y196.892 E42.73476
G1 X32.053 Y62.052 E49.07725
G1 X31.55 Y61.536 E49.10121
G1 X30.949 Y60.862 E49.13125
G1 X30.41 Y60.137 E49.1613
G1 X29.937 Y59.368 E49.19133
G1 X29.534 Y58.56 E49.22136
G1 X29.204 Y57.719 E49.2514
G1 X28.949 Y56.853 E49.28143
G1 X28.773 Y55.967 E49.31148
G1 X28.675 Y55.069 E49.34152
G1 X28.657 Y54.166 E49.37156
G1 X28.719 Y53.265 E49.4016
G1 X28.861 Y52.373 E49.43164
G1 X29.08 Y51.497 E49.46167
G1 X29.377 Y50.644 E49.49171
G1 X29.748 Y49.821 E49.52174
G1 X30.19 Y49.033 E49.55179
G1 X30.7 Y48.288 E49.58182
G1 X31.432 Y47.42 E49.61958
G1 X31.872 Y46.96 E49.64076
G1 X35.691 Y43.141 E49.82039
G1 F2700 E44.82039
;MESH:Right_Front_Spar_Mid.stl
G0 F6000 X45.543 Y46.632
G0 X46.22 Y47.308
;TYPE:WALL-OUTER
G1 F2700 E49.82039
G1 F900 X46.185 Y47.355 E49.82234
G1 X39.124 Y54.416 E50.15447
G1 X167.405 Y182.694 E56.18834
G1 X174.464 Y189.754 E56.5204
G1 X181.681 Y182.539 E56.85982
G1 X181.73 Y182.51 E56.86171
G1 X181.947 Y182.553 E56.86907
G1 X183.804 Y180.699 E56.95635
G1 X183.957 Y180.659 E56.96161
G1 X184.07 Y180.715 E56.9658
G1 X190.929 Y187.573 E57.2884
G1 X193.327 Y185.174 E57.40122
G1 X195.726 Y182.776 E57.51404
G1 X159.158 Y146.211 E59.23401
G1 X152.168 Y139.22 E59.56283
G1 X145.166 Y146.221 E59.89216
G1 X145.025 Y146.267 E59.89709
G1 X144.895 Y146.209 E59.90182
G1 X143.481 Y144.795 E59.96833
G1 X143.423 Y144.638 E59.9739
G1 X143.481 Y144.511 E59.97854
G1 X150.471 Y137.522 E60.30731
G1 X106.913 Y93.965 E62.35612
G1 X99.911 Y100.966 E62.68545
G1 X99.77 Y101.012 E62.69038
G1 X99.64 Y100.954 E62.69512
G1 X98.226 Y99.54 E62.76163
G1 X98.168 Y99.383 E62.76719
G1 X98.226 Y99.256 E62.77184
G1 X105.216 Y92.267 E63.1006
G1 X61.659 Y48.71 E65.14939
G1 X54.587 Y55.781 E65.48201
G1 X54.446 Y55.828 E65.48695
G1 X54.315 Y55.77 E65.49172
G1 X52.83 Y54.285 E65.56157
G1 X52.772 Y54.126 E65.5672
G1 X52.83 Y54.001 E65.57178
G1 X54.809 Y52.022 E65.66487
G1 X48.093 Y45.305 E65.98079
G1 X46.204 Y47.197 E66.06971
G1 X46.22 Y47.308 E66.07345
G1 F2700 E61.07345
G0 F6000 X45.543 Y46.632
G0 X48.093 Y44.097
G0 X61.659 Y47.502
G0 X151.679 Y137.521
G0 X145.037 Y145.143
G0 X144.921 Y146.656
;TYPE:WALL-INNER
G1 F2700 E66.07345
G1 F900 X144.681 Y146.551 E66.08216
G1 X144.612 Y146.492 E66.08518
G1 X143.198 Y145.078 E66.15169
G1 X143.056 Y144.851 E66.16059
G1 X143.024 Y144.609 E66.16871
G1 X143.101 Y144.356 E66.17751
G1 X143.198 Y144.228 E66.18285
G1 X149.905 Y137.522 E66.4983
G1 X106.913 Y94.531 E68.52049
G1 X100.203 Y101.241 E68.83611
G1 X99.965 Y101.384 E68.84534
G1 X99.666 Y101.401 E68.8553
G1 X99.426 Y101.296 E68.86402
G1 X99.357 Y101.237 E68.86704
G1 X97.943 Y99.823 E68.93355
G1 X97.801 Y99.596 E68.94245
G1 X97.769 Y99.354 E68.95057
G1 X97.846 Y99.101 E68.95937
G1 X97.943 Y98.973 E68.96471
G1 X104.65 Y92.267 E69.28016
G1 X61.659 Y49.276 E71.30233
G1 X54.882 Y56.053 E71.6211
G1 X54.645 Y56.199 E71.63036
G1 X54.344 Y56.218 E71.64039
G1 X54.112 Y56.12 E71.64876
G1 X54.032 Y56.053 E71.65223
G1 X52.547 Y54.568 E71.72208
G1 X52.404 Y54.337 E71.73112
G1 X52.373 Y54.093 E71.7393
G1 X52.458 Y53.833 E71.7484
G1 X52.547 Y53.718 E71.75324
G1 X54.243 Y52.022 E71.83301
G1 X48.093 Y45.871 E72.12231
G1 X46.559 Y47.407 E72.19451
G1 X46.572 Y47.497 E72.19754
G1 X46.468 Y47.638 E72.20336
G1 X39.69 Y54.416 E72.52218
G1 X48.233 Y62.958 E72.92399
G1 X174.464 Y189.188 E78.86149
G1 X181.382 Y182.27 E79.18689
G1 X181.578 Y182.14 E79.19471
G1 X181.758 Y182.176 E79.20082
G1 X183.503 Y180.432 E79.28287
G1 X183.699 Y180.302 E79.2907
G1 X183.897 Y180.257 E79.29745
G1 X184.133 Y180.292 E79.30539
G1 X184.353 Y180.432 E79.31406
G1 X190.929 Y187.007 E79.62335
G1 X193.044 Y184.891 E79.72286
G1 X195.16 Y182.776 E79.82236
G1 X188.142 Y175.758 E80.15247
G1 X158.875 Y146.494 E81.52903
G1 X152.168 Y139.786 E81.84453
G1 X145.458 Y146.496 E82.16015
G1 X145.22 Y146.639 E82.16938
G1 X144.921 Y146.656 E82.17934
G1 F2700 E77.17934
G0 F6000 X145.037 Y145.143
G0 X151.679 Y137.521
G0 X106.914 Y92.757
G0 X99.292 Y99.398
G0 X97.416 Y99.496
;TYPE:SKIN
G1 F2700 E82.17934
G1 F900 X97.443 Y99.142 E82.19115
G1 X97.609 Y98.814 E82.20338
G1 X97.642 Y98.77 E82.20521
G1 X104.14 Y92.268 E82.51095
G1 X61.658 Y49.786 E84.50917
G1 X55.125 Y56.319 E84.81646
G1 X54.885 Y56.485 E84.82617
G1 X54.564 Y56.58 E84.8373
G1 X54.183 Y56.545 E84.85003
G1 X53.811 Y56.334 E84.86425
G1 X53.775 Y56.306 E84.86577
G1 X52.292 Y54.821 E84.93557
G1 X52.136 Y54.614 E84.94419
G1 X52.018 Y54.23 E84.95755
G1 X52.06 Y53.85 E84.97027
G1 X52.269 Y53.495 E84.98397
G1 X52.295 Y53.462 E84.98537
G1 X53.733 Y52.023 E85.05303
G1 X48.094 Y46.382 E85.31832
G1 X46.901 Y47.576 E85.37446
G1 X46.866 Y47.702 E85.37881
G1 X46.719 Y47.895 E85.38688
G1 X40.2 Y54.415 E85.69353
G1 X174.465 Y188.679 E92.00892
G1 X181.14 Y182.004 E92.3229
G1 X181.395 Y181.829 E92.33318
G1 X181.656 Y181.765 E92.34212
G1 X183.246 Y180.181 E92.41677
G1 X183.532 Y179.986 E92.42828
G1 X183.849 Y179.901 E92.4392
G1 X184.216 Y179.944 E92.45149
G1 X184.573 Y180.149 E92.46518
G1 X184.608 Y180.177 E92.46667
G1 X190.929 Y186.497 E92.76397
G1 X192.789 Y184.636 E92.85148
G1 X194.65 Y182.776 E92.93899
G1 X158.624 Y146.753 E94.63347
G1 X152.168 Y140.296 E94.93717
G1 X145.698 Y146.765 E95.24147
G1 X145.461 Y146.927 E95.25102
G1 X145.137 Y147.02 E95.26223
G1 X144.757 Y146.983 E95.27493
G1 X144.39 Y146.773 E95.289
G1 X144.355 Y146.745 E95.29049
G1 X142.943 Y145.331 E95.35695
G1 X142.789 Y145.127 E95.36545
G1 X142.671 Y144.751 E95.37856
G1 X142.698 Y144.397 E95.39037
G1 X142.864 Y144.069 E95.40259
G1 X142.897 Y144.025 E95.40442
G1 X149.395 Y137.523 E95.71016
G1 X106.913 Y95.041 E97.70839
G1 X100.443 Y101.511 E98.01271
G1 X100.187 Y101.683 E98.02297
G1 X99.882 Y101.765 E98.03348
G1 X99.502 Y101.728 E98.04618
G1 X99.135 Y101.518 E98.06024
G1 X99.1 Y101.49 E98.06173
G1 X97.688 Y100.076 E98.12819
G1 X97.534 Y99.872 E98.13669
G1 X97.416 Y99.496 E98.1498
G0 F6000 X99.69 Y101.952
G1 F900 X142.487 Y144.75 E100.16286
G0 F6000 X142.544 Y144.241
G1 F900 X100.194 Y101.891 E102.15488
G0 F6000 X100.549 Y101.68
G1 F900 X142.754 Y143.885 E104.14007
G0 F6000 X143.037 Y143.602
G1 F900 X100.835 Y101.401 E106.1251
G0 F6000 X101.118 Y101.118
