;FLAVOR:Marlin
;TIME:2924
;Filament used: 2.0282m
;Layer height: 0.2
;MINX:48.021
;MINY:50.62
;MINZ:0.2
;MAXX:186.858
;MAXY:184.366
;MAXZ:2
;Generated with Cura_SteamEngine 5.0.0
M140 S70
M105
M190 S70
M104 S200
M105
M109 S200
M82 ;absolute extrusion mode
; Ender 3 Custom Start G-code
G28 ; Home all axes
M420 S1; Bed Leveling On
G92 E0 ; Reset Extruder
G1 Z2.0 F3000 ; Move Z Axis up little to prevent scratching of Heat Bed
G1 X0.1 Y20 Z0.3 F5000.0 ; Move to start position
G1 X0.1 Y200.0 Z0.3 F1500.0 E15 ; Draw the first line
G1 X0.4 Y200.0 Z0.3 F5000.0 ; Move to side a little
G1 X0.4 Y20 Z0.3 F1500.0 E30 ; Draw the second line
G92 E0 ; Reset Extruder
G1 Z2.0 F3000 ; Move Z Axis up little to prevent scratching of Heat Bed
G1 X5 Y20 Z0.3 F5000.0 ; Move over to prevent blob squish
G92 E0
G92 E0
G1 F2700 E-5
;LAYER_COUNT:10
;LAYER:0
M107
G0 F6000 X60.17 Y54.214 Z0.2
;TYPE:SKIRT
G1 F2700 E0
G1 F900 X60.652 Y53.744 E0.02239
G1 X61.351 Y53.119 E0.05358
G1 X62.101 Y52.555 E0.08479
G1 X62.896 Y52.057 E0.11599
G1 X63.73 Y51.629 E0.14717
G1 X64.598 Y51.273 E0.17837
G1 X65.493 Y50.993 E0.20956
G1 X66.408 Y50.79 E0.24074
G1 X67.338 Y50.665 E0.27195
G1 X68.275 Y50.62 E0.30315
G1 X69.212 Y50.655 E0.33433
G1 X70.143 Y50.77 E0.36553
G1 X71.06 Y50.964 E0.39671
G1 X71.612 Y51.12 E0.41579
G1 X72.35 Y51.351 E0.44151
G1 X74.845 Y52.092 E0.52807
G1 X77.236 Y52.731 E0.61039
G1 X79.712 Y53.317 E0.69502
G1 X82.225 Y53.837 E0.78037
G1 X82.91 Y53.961 E0.80352
G1 X83.945 Y54.164 E0.8386
G1 X84.857 Y54.383 E0.8698
G1 X85.747 Y54.68 E0.90101
G1 X86.608 Y55.051 E0.93219
G1 X87.435 Y55.494 E0.96339
G1 X88.22 Y56.006 E0.99456
G1 X88.96 Y56.583 E1.02577
G1 X89.386 Y56.966 E1.04483
G1 X89.864 Y57.424 E1.06685
G1 X133.02 Y100.58 E3.09677
G1 X134.444 Y102.013 E3.16396
G1 X135.114 Y102.674 E3.19527
G1 X178.321 Y145.881 E5.22759
G1 X179.596 Y147.193 E5.28844
G1 X181.444 Y149.043 E5.37541
G1 X182.437 Y149.997 E5.42121
G1 X183.233 Y150.793 E5.45865
G1 X183.741 Y151.315 E5.48288
G1 X184.366 Y152.015 E5.51409
G1 X184.929 Y152.765 E5.54528
G1 X185.426 Y153.56 E5.57647
G1 X185.854 Y154.395 E5.60768
G1 X186.208 Y155.263 E5.63885
G1 X186.488 Y156.158 E5.67004
G1 X186.69 Y157.074 E5.70124
G1 X186.814 Y158.004 E5.73245
G1 X186.858 Y158.941 E5.76365
G1 X186.822 Y159.878 E5.79484
G1 X186.706 Y160.808 E5.82601
G1 X186.512 Y161.726 E5.85721
G1 X186.24 Y162.623 E5.88839
G1 X185.892 Y163.495 E5.91962
G1 X185.472 Y164.333 E5.95079
G1 X184.981 Y165.132 E5.98199
G1 X184.425 Y165.887 E6.01317
G1 X183.85 Y166.546 E6.04226
G1 X183.374 Y167.042 E6.06512
G1 X169.635 Y180.78 E6.71134
G1 X169.16 Y181.243 E6.7334
G1 X168.461 Y181.868 E6.76459
G1 X167.712 Y182.432 E6.79578
G1 X166.917 Y182.93 E6.82698
G1 X166.082 Y183.358 E6.85818
G1 X165.214 Y183.713 E6.88938
G1 X164.319 Y183.994 E6.92058
G1 X163.404 Y184.197 E6.95175
G1 X162.474 Y184.321 E6.98296
G1 X161.537 Y184.366 E7.01416
G1 X160.6 Y184.331 E7.04534
G1 X159.669 Y184.216 E7.07654
G1 X158.752 Y184.022 E7.10772
G1 X157.854 Y183.75 E7.13893
G1 X156.982 Y183.404 E7.17013
G1 X156.144 Y182.984 E7.2013
G1 X155.344 Y182.494 E7.23251
G1 X154.499 Y181.865 E7.26754
G1 X154.286 Y181.69 E7.27671
G1 X153.491 Y180.969 E7.31241
G1 X51.647 Y79.128 E12.10277
G1 X51.144 Y78.612 E12.12673
G1 X50.519 Y77.913 E12.15792
G1 X49.955 Y77.164 E12.18911
G1 X49.457 Y76.369 E12.22031
G1 X49.029 Y75.535 E12.25149
G1 X48.674 Y74.667 E12.28268
G1 X48.393 Y73.772 E12.31388
G1 X48.19 Y72.856 E12.34508
G1 X48.066 Y71.926 E12.37629
G1 X48.021 Y70.99 E12.40746
G1 X48.056 Y70.052 E12.43868
G1 X48.171 Y69.122 E12.46984
G1 X48.365 Y68.204 E12.50105
G1 X48.636 Y67.306 E12.53225
G1 X48.983 Y66.435 E12.56343
G1 X49.403 Y65.596 E12.59464
G1 X49.893 Y64.796 E12.62584
G1 X50.449 Y64.041 E12.65703
G1 X51.001 Y63.405 E12.68504
G1 X51.473 Y62.911 E12.70776
G1 X60.17 Y54.214 E13.11684
G0 F6000 X60.355 Y54.595
G1 F900 X60.932 Y54.031 E13.14368
G1 X61.618 Y53.417 E13.1743
G1 X62.355 Y52.866 E13.20491
G1 X63.137 Y52.38 E13.23553
G1 X63.959 Y51.964 E13.26617
G1 X64.813 Y51.621 E13.29678
G1 X65.694 Y51.353 E13.32741
G1 X66.595 Y51.163 E13.35803
G1 X67.509 Y51.052 E13.38866
G1 X68.429 Y51.02 E13.41928
G1 X69.348 Y51.069 E13.44988
G1 X70.26 Y51.197 E13.48052
G1 X71.493 Y51.502 E13.52276
G1 X72.265 Y51.743 E13.54966
G1 X74.708 Y52.47 E13.63444
G1 X77.17 Y53.127 E13.71919
G1 X79.611 Y53.704 E13.80261
G1 X82.116 Y54.223 E13.8877
G1 X82.833 Y54.353 E13.91194
G1 X83.868 Y54.556 E13.94702
G1 X84.763 Y54.772 E13.97764
G1 X85.636 Y55.066 E14.00828
G1 X86.48 Y55.433 E14.03889
G1 X87.289 Y55.873 E14.06952
G1 X88.057 Y56.381 E14.10014
G1 X89.111 Y57.257 E14.14573
G1 X89.581 Y57.707 E14.16737
G1 X132.737 Y100.862 E16.19727
G1 X134.164 Y102.298 E16.2646
G1 X134.831 Y102.957 E16.29579
G1 X178.034 Y146.16 E18.32793
G1 X179.273 Y147.435 E18.38706
G1 X181.145 Y149.308 E18.47514
G1 X182.155 Y150.28 E18.52176
G1 X182.947 Y151.072 E18.55901
G1 X183.455 Y151.594 E18.58324
G1 X184.067 Y152.281 E18.61384
G1 X184.618 Y153.019 E18.64447
G1 X185.103 Y153.802 E18.67511
G1 X185.518 Y154.623 E18.7057
G1 X185.86 Y155.478 E18.73633
G1 X186.127 Y156.359 E18.76695
G1 X186.316 Y157.26 E18.79757
G1 X186.427 Y158.174 E18.82819
G1 X186.457 Y159.094 E18.85881
G1 X186.408 Y160.014 E18.88945
G1 X186.279 Y160.925 E18.92005
G1 X186.072 Y161.822 E18.95067
G1 X185.787 Y162.698 E18.98131
G1 X185.428 Y163.545 E19.01191
G1 X184.996 Y164.359 E19.04256
G1 X184.496 Y165.131 E19.07315
G1 X183.93 Y165.858 E19.10379
G1 X183.559 Y166.271 E19.12226
G1 X183.091 Y166.759 E19.14475
G1 X169.356 Y180.494 E19.7908
G1 X168.881 Y180.957 E19.81286
G1 X168.194 Y181.57 E19.84348
G1 X167.457 Y182.121 E19.87409
G1 X166.675 Y182.607 E19.90471
G1 X165.853 Y183.023 E19.93536
G1 X164.999 Y183.366 E19.96596
G1 X164.118 Y183.633 E19.99658
G1 X163.217 Y183.823 E20.02721
G1 X162.303 Y183.934 E20.05783
G1 X161.383 Y183.966 E20.08845
G1 X160.464 Y183.917 E20.11906
G1 X159.552 Y183.789 E20.14969
G1 X158.655 Y183.582 E20.18031
G1 X157.779 Y183.298 E20.21094
G1 X156.931 Y182.939 E20.24157
G1 X156.118 Y182.508 E20.27217
G1 X155.345 Y182.009 E20.30277
G1 X154.753 Y181.556 E20.32757
G1 X154.54 Y181.381 E20.33673
G1 X153.774 Y180.686 E20.37114
G1 X51.934 Y78.849 E25.16131
G1 X51.431 Y78.333 E25.18527
G1 X50.817 Y77.647 E25.21589
G1 X50.266 Y76.909 E25.24653
G1 X49.78 Y76.127 E25.27715
G1 X49.364 Y75.306 E25.30776
G1 X49.022 Y74.451 E25.33839
G1 X48.754 Y73.57 E25.36902
G1 X48.564 Y72.67 E25.39961
G1 X48.453 Y71.756 E25.43024
G1 X48.421 Y70.836 E25.46085
G1 X48.47 Y69.916 E25.4915
G1 X48.598 Y69.004 E25.52213
G1 X48.805 Y68.107 E25.55274
G1 X49.089 Y67.232 E25.58334
G1 X49.447 Y66.384 E25.61396
G1 X49.878 Y65.57 E25.64459
G1 X50.378 Y64.797 E25.67521
G1 X50.943 Y64.07 E25.70584
G1 X51.523 Y63.434 E25.73446
G1 X60.355 Y54.595 E26.15006
G0 F6000 X60.729 Y54.787
G1 F900 X61.211 Y54.317 E26.17245
G1 X61.885 Y53.716 E26.20249
G1 X62.609 Y53.177 E26.23251
G1 X63.379 Y52.704 E26.26256
G1 X64.187 Y52.3 E26.29261
G1 X65.027 Y51.97 E26.32263
G1 X65.894 Y51.716 E26.35267
G1 X66.779 Y51.539 E26.38269
G1 X67.677 Y51.441 E26.41274
G1 X68.58 Y51.423 E26.44278
G1 X69.481 Y51.485 E26.47282
G1 X70.373 Y51.626 E26.50285
G1 X71.374 Y51.884 E26.53723
G1 X72.114 Y52.115 E26.56302
G1 X74.596 Y52.853 E26.64914
G1 X77.08 Y53.517 E26.73466
G1 X79.543 Y54.099 E26.81884
G1 X82.036 Y54.615 E26.90351
G1 X82.756 Y54.746 E26.92785
G1 X83.791 Y54.949 E26.96293
G1 X84.669 Y55.162 E26.99298
G1 X85.524 Y55.451 E27.023
G1 X86.351 Y55.815 E27.05305
G1 X87.142 Y56.251 E27.08309
G1 X87.891 Y56.755 E27.11312
G1 X88.837 Y57.547 E27.15415
G1 X89.298 Y57.99 E27.17542
G1 X132.453 Y101.144 E29.20527
G1 X133.883 Y102.583 E29.27275
G1 X134.548 Y103.239 E29.30382
G1 X177.747 Y146.439 E31.33579
G1 X178.986 Y147.714 E31.39492
G1 X180.867 Y149.597 E31.48344
G1 X181.872 Y150.563 E31.52981
G1 X182.66 Y151.351 E31.56687
G1 X183.168 Y151.873 E31.5911
G1 X183.768 Y152.548 E31.62114
G1 X184.307 Y153.273 E31.65119
G1 X184.779 Y154.042 E31.6812
G1 X185.182 Y154.851 E31.71126
G1 X185.511 Y155.692 E31.74129
G1 X185.765 Y156.559 E31.77134
G1 X185.941 Y157.444 E31.80135
G1 X186.038 Y158.342 E31.83139
G1 X186.055 Y159.245 E31.86143
G1 X185.992 Y160.146 E31.89147
G1 X185.85 Y161.038 E31.92152
G1 X185.629 Y161.914 E31.95156
G1 X185.332 Y162.766 E31.98157
G1 X184.961 Y163.59 E32.01163
G1 X184.518 Y164.377 E32.04167
G1 X184.007 Y165.122 E32.07172
G1 X183.268 Y165.996 E32.10978
G1 X182.808 Y166.476 E32.1319
G1 X169.077 Y180.207 E32.77776
G1 X168.602 Y180.67 E32.79982
G1 X167.928 Y181.271 E32.82986
G1 X167.203 Y181.81 E32.85991
G1 X166.434 Y182.283 E32.88993
G1 X165.626 Y182.686 E32.91996
G1 X164.785 Y183.016 E32.95001
G1 X163.918 Y183.271 E32.98007
G1 X163.033 Y183.447 E33.01008
G1 X162.135 Y183.545 E33.04013
G1 X161.232 Y183.563 E33.07017
G1 X160.331 Y183.501 E33.10021
G1 X159.439 Y183.359 E33.13025
G1 X158.563 Y183.139 E33.16029
G1 X157.71 Y182.843 E33.19032
G1 X156.887 Y182.472 E33.22034
G1 X156.099 Y182.03 E33.25039
G1 X155.007 Y181.247 E33.29509
G1 X154.794 Y181.072 E33.30426
G1 X154.057 Y180.404 E33.33734
G1 X52.22 Y78.57 E38.12737
G1 X51.717 Y78.054 E38.15134
G1 X51.116 Y77.38 E38.18137
G1 X50.577 Y76.655 E38.21142
G1 X50.104 Y75.886 E38.24145
G1 X49.701 Y75.078 E38.27148
G1 X49.371 Y74.237 E38.30153
G1 X49.116 Y73.371 E38.33155
G1 X48.94 Y72.485 E38.3616
G1 X48.842 Y71.587 E38.39164
G1 X48.824 Y70.684 E38.42168
G1 X48.886 Y69.783 E38.45172
G1 X49.028 Y68.891 E38.48176
G1 X49.247 Y68.015 E38.51179
G1 X49.544 Y67.162 E38.54183
G1 X49.915 Y66.339 E38.57186
G1 X50.357 Y65.551 E38.60191
G1 X50.867 Y64.806 E38.63194
G1 X51.584 Y63.953 E38.669
G1 X52.039 Y63.477 E38.6909
G1 X60.729 Y54.787 E39.09965
G1 F2700 E34.09965
;MESH:Right_Front_Spar_Inner.stl
G0 F6000 X81.214 Y64.615
G0 X81.826 Y65.227
;TYPE:WALL-OUTER
G1 F2700 E39.09965
G1 F900 X74.754 Y72.298 E39.43228
G1 X74.613 Y72.345 E39.43722
G1 X74.482 Y72.287 E39.44198
G1 X73.068 Y70.873 E39.50849
G1 X73.01 Y70.713 E39.51415
G1 X73.068 Y70.589 E39.51871
G1 X75.047 Y68.61 E39.61179
G1 X68.331 Y61.893 E39.92772
G1 X59.291 Y70.933 E40.35293
G1 X161.468 Y173.108 E45.15898
G1 X175.587 Y158.988 E45.82312
G1 X175.022 Y158.423 E45.84969
G1 X174.457 Y157.858 E45.87627
G1 X167.468 Y164.848 E46.20503
G1 X167.297 Y164.905 E46.21103
G1 X167.184 Y164.848 E46.21524
G1 X163.648 Y161.312 E46.38156
G1 X163.59 Y161.155 E46.38713
G1 X163.648 Y161.028 E46.39177
G1 X170.638 Y154.039 E46.72053
G1 X127.081 Y110.482 E48.76932
G1 X120.079 Y117.483 E49.09865
G1 X119.938 Y117.529 E49.10358
G1 X119.808 Y117.471 E49.10832
G1 X118.393 Y116.057 E49.17485
G1 X118.335 Y115.9 E49.18042
G1 X118.393 Y115.773 E49.18506
G1 X125.384 Y108.783 E49.51387
G1 X81.826 Y65.227 E51.56266
G1 F2700 E46.56266
G0 F6000 X82.437 Y64.614
G0 X126.592 Y108.783
G0 X119.95 Y116.405
G0 X120.133 Y117.901
;TYPE:WALL-INNER
G1 F2700 E51.56266
G1 F900 X119.834 Y117.918 E51.57262
G1 X119.595 Y117.813 E51.58131
G1 X119.525 Y117.754 E51.58435
G1 X118.11 Y116.34 E51.65088
G1 X117.968 Y116.114 E51.65976
G1 X117.936 Y115.871 E51.66791
G1 X118.013 Y115.618 E51.67671
G1 X118.11 Y115.49 E51.68205
G1 X124.818 Y108.783 E51.99755
G1 X81.826 Y65.793 E54.01972
G1 X75.049 Y72.57 E54.33849
G1 X74.812 Y72.716 E54.34774
G1 X74.511 Y72.735 E54.35777
G1 X74.279 Y72.637 E54.36615
G1 X74.199 Y72.57 E54.36962
G1 X72.785 Y71.156 E54.43613
G1 X72.64 Y70.921 E54.44532
G1 X72.612 Y70.678 E54.45345
G1 X72.694 Y70.423 E54.46236
G1 X72.785 Y70.306 E54.46729
G1 X74.481 Y68.61 E54.54707
G1 X68.331 Y62.459 E54.83637
G1 X59.857 Y70.933 E55.23496
G1 X68.4 Y79.475 E55.63677
G1 X161.468 Y172.542 E60.01438
G1 X166.9 Y167.109 E60.26991
G1 X167.609 Y166.402 E60.30321
G1 X175.021 Y158.988 E60.6519
G1 X174.739 Y158.706 E60.66516
G1 X174.457 Y158.424 E60.67842
G1 X167.751 Y165.131 E60.99388
G1 X167.241 Y165.301 E61.01176
G1 X166.901 Y165.131 E61.0244
G1 X163.365 Y161.595 E61.19072
G1 X163.223 Y161.368 E61.19963
G1 X163.191 Y161.126 E61.20775
G1 X163.268 Y160.873 E61.21654
G1 X163.365 Y160.745 E61.22189
G1 X170.072 Y154.039 E61.53734
G1 X127.081 Y111.048 E63.5595
G1 X120.371 Y117.758 E63.87512
G1 X120.133 Y117.901 E63.88436
G1 F2700 E58.88436
G0 F6000 X119.95 Y116.405
G0 X127.081 Y109.274
G0 X171.846 Y154.038
G0 X167.326 Y163.782
G0 X168.04 Y165.406
;TYPE:SKIN
G1 F2700 E63.88436
G1 F759.5 X170.179 Y163.267 E64.00358
G1 F757.9 X172.318 Y161.128 E64.12306
G1 X174.457 Y158.988 E64.24256
G1 F2700 E59.24256
G0 F6000 X173.28 Y157.812
G0 X171.846 Y154.038
G0 X81.826 Y64.019
G0 X74.134 Y70.731
G0 X72.539 Y70.043
G1 F2700 E64.24256
G1 F900 X73.971 Y68.611 E64.30992
G1 X68.331 Y62.969 E64.57526
G1 X60.367 Y70.933 E64.94986
G1 X161.468 Y172.031 E69.70527
G1 X167.497 Y166 E69.9889
G1 F871.7 X167.732 Y165.747 E70.00076
G1 F820 X167.967 Y165.493 E70.01339
G1 F777.5 X168.04 Y165.406 E70.01776
G1 X167.944 Y165.454 E70.02189
G1 F820 X167.612 Y165.55 E70.03451
G1 F871.7 X167.28 Y165.646 E70.04638
G1 F900 X167.126 Y165.635 E70.05151
G1 X166.692 Y165.419 E70.06764
G1 X166.64 Y165.381 E70.06978
G1 X163.11 Y161.848 E70.23589
G1 X162.956 Y161.644 E70.24439
G1 X162.838 Y161.268 E70.2575
G1 X162.865 Y160.914 E70.26931
G1 X163.031 Y160.586 E70.28153
G1 X163.064 Y160.542 E70.28336
G1 X169.562 Y154.04 E70.5891
G1 X127.08 Y111.558 E72.58733
G1 X120.611 Y118.027 E72.89161
G1 X120.374 Y118.189 E72.90116
G1 X120.05 Y118.282 E72.91237
G1 X119.67 Y118.245 E72.92507
G1 X119.303 Y118.036 E72.93911
G1 X119.268 Y118.008 E72.9406
G1 X117.855 Y116.593 E73.00711
G1 X117.701 Y116.389 E73.01562
G1 X117.583 Y116.013 E73.02872
G1 X117.61 Y115.659 E73.04053
G1 X117.776 Y115.331 E73.05276
G1 X117.809 Y115.287 E73.05459
G1 X124.308 Y108.784 E73.36037
G1 X81.826 Y66.302 E75.3586
G1 X75.292 Y72.836 E75.66594
G1 X75.034 Y73.014 E75.67636
G1 X74.731 Y73.097 E75.68681
G1 X74.35 Y73.062 E75.69954
G1 X73.978 Y72.851 E75.71376
G1 X73.942 Y72.823 E75.71528
G1 X72.53 Y71.409 E75.78174
G1 X72.368 Y71.192 E75.79075
G1 X72.256 Y70.804 E75.80418
G1 X72.296 Y70.443 E75.81626
G1 X72.512 Y70.076 E75.83042
G1 X72.539 Y70.043 E75.83184
G1 F2700 E70.83184
G0 F6000 X74.134 Y70.731
G0 X81.826 Y64.019
G0 X126.592 Y108.783
G0 X125.05 Y110.341
G0 X123.758 Y109.05
G1 F2700 E75.83184
G1 F900 X81.559 Y66.851 E77.81675
G0 F6000 X81.276 Y67.134
G1 F900 X123.475 Y109.333 E79.80167
G0 F6000 X123.192 Y109.616
G1 F900 X80.993 Y67.416 E81.7866
G0 F6000 X80.71 Y67.699
G1 F900 X122.91 Y109.899 E83.77156
G0 F6000 X122.627 Y110.182
G1 F900 X80.427 Y67.982 E85.75652
G0 F6000 X80.144 Y68.265
G1 F900 X122.345 Y110.465 E87.7415
G0 F6000 X122.062 Y110.748
G1 F900 X79.862 Y68.548 E89.72646
G0 F6000 X79.579 Y68.831
G1 F900 X121.779 Y111.031 E91.71142
G0 F6000 X121.496 Y111.314
G1 F900 X79.296 Y69.114 E93.69638
G0 F6000 X79.013 Y69.396
G1 F900 X121.214 Y111.597 E95.68138
G0 F6000 X120.931 Y111.88
G1 F900 X78.73 Y69.679 E97.66639
G0 F6000 X78.447 Y69.962
G1 F900 X120.648 Y112.163 E99.65139
G0 F6000 X120.365 Y112.446
G1 F900 X78.164 Y70.245 E101.6364
G0 F6000 X77.882 Y70.528
G1 F900 X120.083 Y112.729 E103.6214
G0 F6000 X119.8 Y113.012
G1 F900 X77.599 Y70.811 E105.60641
G0 F6000 X77.316 Y71.093
G1 F900 X119.518 Y113.295 E107.59146
G0 F6000 X119.235 Y113.578
G1 F900 X77.033 Y71.376 E109.57652
G0 F6000 X76.75 Y71.659
G1 F900 X118.952 Y113.861 E111.56157
G0 F6000 X118.67 Y114.144
G1 F900 X76.467 Y71.942 E113.54664
G0 F6000 X76.185 Y72.225
G1 F900 X118.387 Y114.427 E115.5317
G0 F6000 X118.104 Y114.71
G1 F900 X75.902 Y72.508 E117.51675
G0 F6000 X75.619 Y72.79
G1 F900 X117.821 Y114.993 E119.50183
G0 F6000 X117.566 Y115.303
G1 F900 X75.318 Y73.055 E121.48904
G0 F6000 X74.943 Y73.246
G1 F900 X117.415 Y115.718 E123.48679
G0 F6000 X117.466 Y116.335
G1 F900 X74.401 Y73.269 E125.51246
G0 F6000 X72.105 Y70.973
G1 F900 X66.357 Y65.225 E125.78283
G0 F6000 X66.639 Y64.942
G1 F900 X72.117 Y70.42 E126.0405
G0 F6000 X72.303 Y70.04
G1 F900 X66.922 Y64.659 E126.29361
G0 F6000 X67.205 Y64.377
G1 F900 X72.563 Y69.734 E126.54561
G0 F6000 X72.846 Y69.452
G1 F900 X67.488 Y64.094 E126.79763
G0 F6000 X67.771 Y63.811
G1 F900 X73.128 Y69.169 E127.04963
G0 F6000 X73.411 Y68.886
G1 F900 X68.054 Y63.528 E127.30163
G0 F6000 X66.074 Y65.508
G1 F900 X166.89 Y166.324 E132.04371
