;FLAVOR:Marlin
;TIME:2489
;Filament used: 1.46396m
;Layer height: 0.2
;MINX:48.539
;MINY:50.233
;MINZ:0.2
;MAXX:186.489
;MAXY:184.779
;MAXZ:2
;Generated with Cura_SteamEngine 5.0.0
M140 S70
M105
M190 S70
M104 S200
M105
M109 S200
M82 ;absolute extrusion mode
; Ender 3 Custom Start G-code
G28 ; Home all axes
M420 S1; Bed Leveling On
G92 E0 ; Reset Extruder
G1 Z2.0 F3000 ; Move Z Axis up little to prevent scratching of Heat Bed
G1 X0.1 Y20 Z0.3 F5000.0 ; Move to start position
G1 X0.1 Y200.0 Z0.3 F1500.0 E15 ; Draw the first line
G1 X0.4 Y200.0 Z0.3 F5000.0 ; Move to side a little
G1 X0.4 Y20 Z0.3 F1500.0 E30 ; Draw the second line
G92 E0 ; Reset Extruder
G1 Z2.0 F3000 ; Move Z Axis up little to prevent scratching of Heat Bed
G1 X5 Y20 Z0.3 F5000.0 ; Move over to prevent blob squish
G92 E0
G92 E0
G1 F2700 E-5
;LAYER_COUNT:10
;LAYER:0
M107
G0 F6000 X56.473 Y54.701 Z0.2
G0 X48.539 Y67.023
;TYPE:SKIRT
G1 F2700 E0
G1 F900 X48.594 Y66.087 E0.03119
G1 X48.729 Y65.159 E0.06238
G1 X48.943 Y64.246 E0.09356
G1 X49.234 Y63.354 E0.12477
G1 X49.599 Y62.491 E0.15594
G1 X50.037 Y61.661 E0.18715
G1 X50.544 Y60.872 E0.21834
G1 X51.117 Y60.129 E0.24955
G1 X51.601 Y59.59 E0.27365
G1 X52.123 Y59.05 E0.29863
G1 X52.969 Y58.207 E0.33835
G1 X53.736 Y57.462 E0.37391
G1 X55.608 Y55.59 E0.46197
G1 X56.473 Y54.701 E0.50322
G1 X57.358 Y53.818 E0.5448
G1 X57.847 Y53.343 E0.56748
G1 X58.547 Y52.718 E0.59869
G1 X59.297 Y52.156 E0.62986
G1 X60.093 Y51.66 E0.66105
G1 X60.928 Y51.233 E0.69225
G1 X61.797 Y50.879 E0.72346
G1 X62.692 Y50.6 E0.75464
G1 X63.608 Y50.399 E0.78583
G1 X64.538 Y50.276 E0.81703
G1 X65.475 Y50.233 E0.84823
G1 X66.412 Y50.27 E0.87941
G1 X67.342 Y50.387 E0.91059
G1 X68.26 Y50.582 E0.9418
G1 X69.157 Y50.855 E0.97299
G1 X70.028 Y51.203 E1.00419
G1 X70.866 Y51.624 E1.03538
G1 X71.665 Y52.115 E1.06657
G1 X72.419 Y52.673 E1.09777
G1 X72.881 Y53.067 E1.11796
G1 X73.374 Y53.517 E1.14016
G1 X134.039 Y111.136 E3.92295
G1 X145.758 Y122.295 E4.46116
G1 X150.851 Y127.169 E4.69563
G1 X153.751 Y129.97 E4.82973
G1 X154.23 Y130.446 E4.85219
G1 X156.216 Y132.366 E4.94406
G1 X159.573 Y135.654 E5.10035
G1 X163.736 Y139.778 E5.29525
G1 X166.837 Y142.887 E5.4413
G1 X169.902 Y146.004 E5.5867
G1 X172.715 Y148.907 E5.72115
G1 X174.007 Y150.257 E5.7833
G1 X175.606 Y151.953 E5.86082
G1 X177.669 Y154.182 E5.96184
G1 X178.111 Y154.684 E5.98409
G1 X178.7 Y155.414 E6.01528
G1 X179.225 Y156.191 E6.04647
G1 X179.775 Y157.2 E6.08469
G1 X180.137 Y157.958 E6.11263
G1 X180.682 Y159.137 E6.15583
G1 X181.825 Y161.436 E6.24123
G1 X183.002 Y163.642 E6.32439
G1 X184.255 Y165.843 E6.40863
G1 X184.752 Y166.697 E6.44149
G1 X184.895 Y166.958 E6.45139
G1 X185.424 Y168.065 E6.4922
G1 X185.603 Y168.501 E6.50787
G1 X185.922 Y169.383 E6.53907
G1 X186.131 Y170.143 E6.56528
G1 X186.181 Y170.354 E6.5725
G1 X186.358 Y171.275 E6.60369
G1 X186.451 Y172.137 E6.63253
G1 X186.465 Y172.341 E6.63933
G1 X186.489 Y173.278 E6.6705
G1 X186.38 Y174.65 E6.71628
G1 X186.349 Y174.867 E6.72357
G1 X186.177 Y175.789 E6.75476
G1 X185.927 Y176.693 E6.78596
G1 X185.601 Y177.572 E6.81714
G1 X185.201 Y178.42 E6.84833
G1 X184.731 Y179.231 E6.8795
G1 X184.284 Y179.887 E6.9059
G1 X183.713 Y180.631 E6.9371
G1 X183.081 Y181.324 E6.96829
G1 X182.392 Y181.961 E6.9995
G1 X181.652 Y182.536 E7.03067
G1 X180.865 Y183.047 E7.06188
G1 X180.038 Y183.488 E7.09305
G1 X179.397 Y183.771 E7.11636
G1 X178.986 Y183.937 E7.1311
G1 X178.102 Y184.251 E7.1623
G1 X177.194 Y184.489 E7.19352
G1 X175.933 Y184.686 E7.23597
G1 X175.502 Y184.728 E7.25038
G1 X174.565 Y184.779 E7.28159
G1 X173.824 Y184.763 E7.30624
G1 X173.213 Y184.729 E7.32659
G1 X171.9 Y184.576 E7.37056
G1 X170.871 Y184.389 E7.40534
G1 X170.133 Y184.236 E7.43041
G1 X167.63 Y183.75 E7.51522
G1 X165.137 Y183.34 E7.59925
G1 X162.671 Y183.005 E7.68202
G1 X160.015 Y182.721 E7.77086
G1 X159.105 Y182.639 E7.80125
G1 X158.175 Y182.515 E7.83246
G1 X157.259 Y182.313 E7.86366
G1 X156.364 Y182.033 E7.89485
G1 X155.434 Y181.649 E7.92831
G1 X154.701 Y181.303 E7.95527
G1 X152.977 Y180.446 E8.01931
G1 X151.308 Y179.575 E8.08192
G1 X149.586 Y178.635 E8.14717
G1 X148.895 Y178.244 E8.17358
G1 X147.631 Y177.508 E8.22223
G1 X145.552 Y176.263 E8.30283
G1 X143.989 Y175.292 E8.36403
G1 X141.954 Y173.981 E8.44454
G1 X140.524 Y173.03 E8.50166
G1 X138.112 Y171.373 E8.59899
G1 X136.957 Y170.555 E8.64606
G1 X134.566 Y168.818 E8.74436
G1 X133.435 Y167.974 E8.7913
G1 X131.012 Y166.12 E8.89277
G1 X129.972 Y165.304 E8.93674
G1 X127.358 Y163.207 E9.0482
G1 X126.51 Y162.51 E9.08471
G1 X123.839 Y160.27 E9.20065
G1 X122.974 Y159.529 E9.23853
G1 X120.27 Y157.164 E9.35802
G1 X119.455 Y156.436 E9.39436
G1 X116.722 Y153.952 E9.5172
G1 X115.957 Y153.244 E9.55187
G1 X113.096 Y150.549 E9.68259
G1 X112.487 Y149.964 E9.71068
G1 X108.983 Y146.537 E9.8737
G1 X105.939 Y143.467 E10.01749
G1 X101.984 Y139.356 E10.20723
G1 X98.411 Y135.518 E10.38163
G1 X94.901 Y131.639 E10.55563
G1 X91.445 Y127.712 E10.72962
G1 X88.058 Y123.761 E10.9027
G1 X84.675 Y119.715 E11.07812
G1 X81.489 Y115.815 E11.24561
G1 X78.208 Y111.705 E11.42053
G1 X74.982 Y107.573 E11.59488
G1 X71.96 Y103.628 E11.76017
G1 X68.898 Y99.55 E11.92978
G1 X65.961 Y95.57 E12.0943
G1 X63.068 Y91.578 E12.25827
G1 X60.306 Y87.704 E12.41652
G1 X57.607 Y83.864 E12.57263
G1 X55.071 Y80.206 E12.72067
G1 X52.702 Y76.747 E12.86011
G1 X50.694 Y73.781 E12.97925
G1 X50.338 Y73.238 E13.00084
G1 X49.857 Y72.433 E13.03203
G1 X49.448 Y71.589 E13.06322
G1 X49.111 Y70.714 E13.09441
G1 X48.85 Y69.813 E13.12561
G1 X48.667 Y68.893 E13.15681
G1 X48.563 Y67.961 E13.188
G1 X48.539 Y67.023 E13.21921
G0 F6000 X48.941 Y66.912
G1 F900 X49.007 Y65.993 E13.24985
G1 X49.152 Y65.084 E13.28047
G1 X49.375 Y64.191 E13.31108
G1 X49.675 Y63.321 E13.34169
G1 X50.05 Y62.48 E13.37232
G1 X50.495 Y61.674 E13.40294
G1 X51.01 Y60.911 E13.43356
G1 X51.89 Y59.867 E13.47897
G1 X52.406 Y59.333 E13.50367
G1 X53.247 Y58.493 E13.5432
G1 X54.084 Y57.68 E13.58201
G1 X55.895 Y55.869 E13.6672
G1 X56.756 Y54.984 E13.70826
G1 X57.636 Y54.105 E13.74963
G1 X58.125 Y53.63 E13.77231
G1 X58.813 Y53.017 E13.80295
G1 X59.551 Y52.467 E13.83357
G1 X60.334 Y51.983 E13.86418
G1 X61.156 Y51.569 E13.8948
G1 X62.011 Y51.227 E13.92542
G1 X62.893 Y50.961 E13.95606
G1 X63.794 Y50.773 E13.98668
G1 X64.708 Y50.663 E14.0173
G1 X65.628 Y50.634 E14.04791
G1 X66.547 Y50.684 E14.07852
G1 X67.459 Y50.814 E14.10916
G1 X68.356 Y51.022 E14.13979
G1 X69.231 Y51.307 E14.1704
G1 X70.078 Y51.667 E14.20101
G1 X70.891 Y52.1 E14.23164
G1 X71.663 Y52.601 E14.26225
G1 X72.613 Y53.364 E14.30278
G1 X73.099 Y53.807 E14.32465
G1 X87.735 Y67.712 E14.99611
G1 X89.29 Y69.197 E15.06763
G1 X89.916 Y69.782 E15.09612
G1 X133.763 Y111.426 E17.10741
G1 X145.482 Y122.584 E17.6456
G1 X150.573 Y127.457 E17.88
G1 X153.469 Y130.254 E18.01391
G1 X153.902 Y130.685 E18.03423
G1 X155.888 Y132.605 E18.1261
G1 X159.292 Y135.938 E18.28456
G1 X163.453 Y140.061 E18.47938
G1 X166.552 Y143.168 E18.62534
G1 X169.615 Y146.283 E18.77064
G1 X172.426 Y149.183 E18.90497
G1 X173.716 Y150.532 E18.96705
G1 X175.313 Y152.225 E19.04446
G1 X177.369 Y154.446 E19.14513
G1 X177.811 Y154.948 E19.16737
G1 X178.388 Y155.665 E19.19798
G1 X178.902 Y156.429 E19.22861
G1 X179.414 Y157.373 E19.26433
G1 X179.774 Y158.126 E19.29209
G1 X180.339 Y159.347 E19.33683
G1 X181.45 Y161.582 E19.41985
G1 X182.644 Y163.822 E19.50427
G1 X183.906 Y166.038 E19.58909
G1 X184.401 Y166.889 E19.62184
G1 X184.544 Y167.15 E19.63174
G1 X185.054 Y168.217 E19.67107
G1 X185.233 Y168.653 E19.68675
G1 X185.545 Y169.519 E19.71736
G1 X185.741 Y170.235 E19.74205
G1 X185.791 Y170.446 E19.74926
G1 X185.965 Y171.35 E19.77988
G1 X186.052 Y172.164 E19.80711
G1 X186.066 Y172.368 E19.81391
G1 X186.089 Y173.289 E19.84455
G1 X185.984 Y174.593 E19.88807
G1 X185.953 Y174.81 E19.89536
G1 X185.784 Y175.715 E19.92598
G1 X185.536 Y176.602 E19.95661
G1 X185.213 Y177.464 E19.98723
G1 X184.816 Y178.294 E20.01783
G1 X184.139 Y179.396 E20.06085
G1 X183.956 Y179.657 E20.07145
G1 X183.395 Y180.388 E20.1021
G1 X182.773 Y181.066 E20.1327
G1 X182.095 Y181.689 E20.16332
G1 X181.365 Y182.249 E20.19392
G1 X180.589 Y182.745 E20.22456
G1 X179.773 Y183.171 E20.25517
G1 X179.247 Y183.401 E20.27427
G1 X178.836 Y183.567 E20.28901
G1 X177.968 Y183.874 E20.31963
G1 X177.077 Y184.105 E20.35025
G1 X175.894 Y184.288 E20.39006
G1 X175.463 Y184.33 E20.40446
G1 X174.544 Y184.379 E20.43507
G1 X173.846 Y184.364 E20.45829
G1 X173.235 Y184.33 E20.47865
G1 X171.97 Y184.183 E20.521
G1 X170.952 Y183.997 E20.55542
G1 X170.285 Y183.858 E20.57808
G1 X167.666 Y183.35 E20.66682
G1 X165.224 Y182.948 E20.74913
G1 X162.691 Y182.605 E20.83415
G1 X160.101 Y182.328 E20.92078
G1 X159.14 Y182.241 E20.95288
G1 X158.228 Y182.119 E20.98348
G1 X157.33 Y181.917 E21.01409
G1 X156.452 Y181.639 E21.04473
G1 X155.603 Y181.286 E21.07531
G1 X154.878 Y180.944 E21.10197
G1 X153.161 Y180.091 E21.16574
G1 X151.499 Y179.224 E21.22808
G1 X149.782 Y178.287 E21.29314
G1 X149.096 Y177.899 E21.31935
G1 X147.837 Y177.165 E21.36783
G1 X145.763 Y175.923 E21.44823
G1 X144.205 Y174.955 E21.50924
G1 X142.175 Y173.648 E21.58954
G1 X140.75 Y172.7 E21.64646
G1 X138.343 Y171.046 E21.7436
G1 X137.192 Y170.232 E21.79049
G1 X134.805 Y168.497 E21.88864
G1 X133.678 Y167.657 E21.93539
G1 X131.259 Y165.805 E22.03672
G1 X130.222 Y164.992 E22.08054
G1 X127.612 Y162.897 E22.19186
G1 X126.767 Y162.204 E22.22821
G1 X124.099 Y159.966 E22.34403
G1 X123.238 Y159.228 E22.38175
G1 X120.536 Y156.865 E22.50114
G1 X119.724 Y156.14 E22.53734
G1 X116.994 Y153.658 E22.66006
G1 X116.232 Y152.952 E22.69461
G1 X113.373 Y150.261 E22.8252
G1 X112.766 Y149.678 E22.85319
G1 X109.267 Y146.256 E23.01597
G1 X106.227 Y143.189 E23.1596
G1 X102.274 Y139.08 E23.34924
G1 X98.708 Y135.25 E23.52329
G1 X95.202 Y131.374 E23.69712
G1 X91.749 Y127.451 E23.87095
G1 X88.365 Y123.505 E24.04384
G1 X84.984 Y119.462 E24.21914
G1 X81.802 Y115.565 E24.38647
G1 X78.523 Y111.459 E24.56124
G1 X75.3 Y107.329 E24.73548
G1 X72.28 Y103.388 E24.90062
G1 X69.22 Y99.312 E25.07014
G1 X66.285 Y95.335 E25.23454
G1 X63.393 Y91.346 E25.39841
G1 X60.633 Y87.474 E25.55657
G1 X57.936 Y83.636 E25.71258
G1 X55.401 Y79.98 E25.86055
G1 X53.033 Y76.522 E25.99995
G1 X51.028 Y73.562 E26.11886
G1 X50.672 Y73.019 E26.14046
G1 X50.201 Y72.228 E26.17108
G1 X49.801 Y71.399 E26.20169
G1 X49.474 Y70.538 E26.23232
G1 X49.223 Y69.652 E26.26295
G1 X49.05 Y68.748 E26.29356
G1 X48.955 Y67.832 E26.32419
G1 X48.941 Y66.912 E26.3548
G0 F6000 X49.345 Y66.802
G1 F900 X49.421 Y65.903 E26.3848
G1 X49.576 Y65.013 E26.41485
G1 X49.809 Y64.14 E26.4449
G1 X50.118 Y63.292 E26.47492
G1 X50.502 Y62.474 E26.50498
G1 X50.956 Y61.693 E26.53502
G1 X51.477 Y60.956 E26.56504
G1 X52.178 Y60.144 E26.60072
G1 X52.688 Y59.616 E26.62514
G1 X53.526 Y58.78 E26.66451
G1 X54.363 Y57.967 E26.70332
G1 X56.149 Y56.181 E26.78733
G1 X56.93 Y55.376 E26.82463
G1 X57.915 Y54.392 E26.87094
G1 X58.404 Y53.917 E26.89361
G1 X59.079 Y53.317 E26.92365
G1 X59.804 Y52.779 E26.95368
G1 X60.575 Y52.307 E26.98374
G1 X61.384 Y51.905 E27.01379
G1 X62.225 Y51.577 E27.04381
G1 X63.092 Y51.324 E27.07385
G1 X63.978 Y51.149 E27.10389
G1 X64.876 Y51.053 E27.13393
G1 X65.779 Y51.037 E27.16397
G1 X66.68 Y51.1 E27.19401
G1 X67.571 Y51.243 E27.22402
G1 X68.447 Y51.465 E27.25408
G1 X69.299 Y51.763 E27.2841
G1 X70.122 Y52.135 E27.31414
G1 X70.909 Y52.578 E27.34418
G1 X71.653 Y53.09 E27.37422
G1 X72.345 Y53.661 E27.40406
G1 X72.823 Y54.097 E27.42558
G1 X133.487 Y111.715 E30.20831
G1 X145.205 Y122.873 E30.74648
G1 X150.295 Y127.745 E30.98083
G1 X153.187 Y130.537 E31.11453
G1 X153.676 Y131.023 E31.13746
G1 X155.656 Y132.938 E31.22907
G1 X159.01 Y136.222 E31.3852
G1 X163.17 Y140.343 E31.57996
G1 X166.267 Y143.448 E31.72582
G1 X169.327 Y146.561 E31.871
G1 X172.137 Y149.46 E32.00529
G1 X173.425 Y150.806 E32.06725
G1 X175.019 Y152.498 E32.14456
G1 X177.068 Y154.711 E32.24487
G1 X177.51 Y155.213 E32.26712
G1 X178.077 Y155.916 E32.29716
G1 X178.578 Y156.667 E32.32719
G1 X179.054 Y157.546 E32.36043
G1 X179.411 Y158.294 E32.388
G1 X179.975 Y159.514 E32.4327
G1 X181.096 Y161.769 E32.51646
G1 X182.301 Y164.029 E32.60165
G1 X183.527 Y166.181 E32.68402
G1 X184.05 Y167.081 E32.71864
G1 X184.193 Y167.342 E32.72854
G1 X184.684 Y168.369 E32.7664
G1 X184.863 Y168.805 E32.78208
G1 X185.168 Y169.655 E32.81212
G1 X185.352 Y170.327 E32.83529
G1 X185.402 Y170.538 E32.8425
G1 X185.571 Y171.425 E32.87253
G1 X185.653 Y172.192 E32.89819
G1 X185.667 Y172.396 E32.90499
G1 X185.689 Y173.298 E32.935
G1 X185.588 Y174.536 E32.97631
G1 X185.557 Y174.753 E32.9836
G1 X185.39 Y175.641 E33.01366
G1 X185.145 Y176.51 E33.04369
G1 X184.824 Y177.354 E33.07372
G1 X184.43 Y178.167 E33.10377
G1 X183.812 Y179.167 E33.14287
G1 X183.629 Y179.428 E33.15347
G1 X183.078 Y180.144 E33.18352
G1 X182.466 Y180.808 E33.21355
G1 X181.798 Y181.415 E33.24357
G1 X181.079 Y181.961 E33.2736
G1 X180.314 Y182.442 E33.30366
G1 X179.097 Y183.03 E33.34861
G1 X178.686 Y183.196 E33.36335
G1 X177.834 Y183.497 E33.39341
G1 X176.96 Y183.721 E33.42342
G1 X175.855 Y183.89 E33.4606
G1 X175.424 Y183.932 E33.475
G1 X174.522 Y183.98 E33.50504
G1 X173.868 Y183.964 E33.5268
G1 X173.257 Y183.93 E33.54716
G1 X172.04 Y183.789 E33.5879
G1 X171.034 Y183.606 E33.62191
G1 X170.292 Y183.452 E33.64712
G1 X167.775 Y182.963 E33.7324
G1 X165.237 Y182.546 E33.81794
G1 X162.755 Y182.209 E33.90125
G1 X160.175 Y181.933 E33.98755
G1 X159.176 Y181.843 E34.02092
G1 X158.281 Y181.722 E34.05095
G1 X157.401 Y181.522 E34.08097
G1 X156.541 Y181.246 E34.11101
G1 X155.773 Y180.924 E34.13871
G1 X155.056 Y180.586 E34.16507
G1 X153.346 Y179.737 E34.22857
G1 X151.691 Y178.873 E34.29067
G1 X149.979 Y177.938 E34.35555
G1 X149.298 Y177.553 E34.38157
G1 X148.042 Y176.821 E34.42992
G1 X145.974 Y175.583 E34.51008
G1 X144.421 Y174.619 E34.57088
G1 X142.396 Y173.315 E34.65099
G1 X140.976 Y172.371 E34.7077
G1 X138.574 Y170.72 E34.80464
G1 X137.427 Y169.908 E34.85138
G1 X135.044 Y168.176 E34.94937
G1 X133.921 Y167.339 E34.99595
G1 X131.506 Y165.49 E35.09711
G1 X130.472 Y164.68 E35.1408
G1 X127.865 Y162.588 E35.25198
G1 X127.024 Y161.897 E35.28818
G1 X124.359 Y159.662 E35.40386
G1 X123.501 Y158.927 E35.44144
G1 X120.802 Y156.567 E35.56068
G1 X119.993 Y155.844 E35.59677
G1 X117.265 Y153.365 E35.71937
G1 X116.506 Y152.661 E35.7538
G1 X113.65 Y149.972 E35.88427
G1 X113.046 Y149.392 E35.91212
G1 X109.551 Y145.974 E36.07472
G1 X106.515 Y142.912 E36.21813
G1 X102.564 Y138.805 E36.40768
G1 X99.004 Y134.981 E36.58145
G1 X95.502 Y131.11 E36.75507
G1 X92.052 Y127.191 E36.92873
G1 X88.672 Y123.248 E37.10146
G1 X85.294 Y119.209 E37.27659
G1 X82.115 Y115.316 E37.44376
G1 X78.839 Y111.213 E37.61839
G1 X75.617 Y107.086 E37.79253
G1 X72.6 Y103.148 E37.95753
G1 X69.542 Y99.075 E38.12693
G1 X66.609 Y95.1 E38.29124
G1 X63.719 Y91.114 E38.45499
G1 X60.96 Y87.244 E38.61307
G1 X58.265 Y83.408 E38.76899
G1 X55.731 Y79.753 E38.91692
G1 X53.364 Y76.298 E39.05621
G1 X51.363 Y73.343 E39.17491
G1 X51.007 Y72.8 E39.19651
G1 X50.546 Y72.023 E39.22655
G1 X50.155 Y71.209 E39.25659
G1 X49.838 Y70.363 E39.28664
G1 X49.596 Y69.493 E39.31667
G1 X49.433 Y68.605 E39.3467
G1 X49.349 Y67.706 E39.37673
G1 X49.345 Y66.802 E39.4068
G1 F2700 E34.4068
;MESH:R_Rib_3.stl
G0 F6000 X73.077 Y77.6
;TYPE:WALL-OUTER
G1 F2700 E39.4068
G1 F900 X72.659 Y77.779 E39.42192
G1 X72.169 Y77.856 E39.43842
G1 X71.741 Y77.808 E39.45275
G1 X71.274 Y77.636 E39.4693
G1 X70.867 Y77.339 E39.48606
G1 X70.573 Y76.97 E39.50175
G1 X70.393 Y76.552 E39.51689
G1 X70.316 Y76.061 E39.53342
G1 X70.371 Y75.583 E39.54942
G1 X70.547 Y75.141 E39.56524
G1 X70.831 Y74.76 E39.58105
G1 X71.202 Y74.465 E39.59681
G1 X71.62 Y74.286 E39.61194
G1 X72.111 Y74.209 E39.62847
G1 X72.569 Y74.261 E39.6438
G1 X73.005 Y74.429 E39.65934
G1 X73.412 Y74.724 E39.67606
G1 X73.707 Y75.096 E39.69185
G1 X73.887 Y75.513 E39.70696
G1 X73.963 Y76.003 E39.72345
G1 X73.911 Y76.462 E39.73881
G1 X73.743 Y76.898 E39.75435
G1 X73.448 Y77.304 E39.77104
G1 X73.077 Y77.6 E39.78683
G1 F2700 E34.78683
G0 F6000 X70.627 Y77.659
;TYPE:WALL-INNER
G1 F2700 E39.78683
G1 F900 X70.256 Y77.214 E39.8061
G1 X70.023 Y76.705 E39.82472
G1 X69.964 Y76.422 E39.83433
G1 X69.92 Y76.117 E39.84458
