;FLAVOR:Marlin
;TIME:2540
;Filament used: 1.65497m
;Layer height: 0.2
;MINX:55.698
;MINY:55.672
;MINZ:0.2
;MAXX:179.311
;MAXY:179.287
;MAXZ:5.4
;Generated with Cura_SteamEngine 5.0.0
M140 S70
M105
M190 S70
M104 S200
M105
M109 S200
M82 ;absolute extrusion mode
; Ender 3 Custom Start G-code
G28 ; Home all axes
M420 S1; Bed Leveling On
G92 E0 ; Reset Extruder
G1 Z2.0 F3000 ; Move Z Axis up little to prevent scratching of Heat Bed
G1 X0.1 Y20 Z0.3 F5000.0 ; Move to start position
G1 X0.1 Y200.0 Z0.3 F1500.0 E15 ; Draw the first line
G1 X0.4 Y200.0 Z0.3 F5000.0 ; Move to side a little
G1 X0.4 Y20 Z0.3 F1500.0 E30 ; Draw the second line
G92 E0 ; Reset Extruder
G1 Z2.0 F3000 ; Move Z Axis up little to prevent scratching of Heat Bed
G1 X5 Y20 Z0.3 F5000.0 ; Move over to prevent blob squish
G92 E0
G92 E0
G1 F2700 E-5
;LAYER_COUNT:27
;LAYER:0
M107
G0 F6000 X60.933 Y60.809 Z0.2
G0 X55.705 Y72.703
;TYPE:SKIRT
G1 F2700 E0
G1 F900 X55.739 Y72.089 E0.02045
G1 X55.835 Y71.125 E0.05267
G1 X55.915 Y70.571 E0.07129
G1 X56.113 Y69.544 E0.10608
G1 X56.264 Y68.923 E0.12734
G1 X56.57 Y67.891 E0.16314
G1 X56.812 Y67.199 E0.18752
G1 X57.224 Y66.184 E0.22395
G1 X57.505 Y65.581 E0.24608
G1 X58.022 Y64.604 E0.28284
G1 X58.364 Y64.029 E0.3051
G1 X59.005 Y63.07 E0.34346
G1 X59.415 Y62.521 E0.36625
G1 X60.006 Y61.795 E0.39739
G1 X60.302 Y61.462 E0.41221
G1 X60.933 Y60.809 E0.44241
G1 X61.472 Y60.295 E0.46718
G1 X62.276 Y59.6 E0.50253
G1 X62.716 Y59.255 E0.52112
G1 X63.53 Y58.674 E0.55439
G1 X64.062 Y58.33 E0.57546
G1 X64.977 Y57.799 E0.61065
G1 X65.568 Y57.493 E0.63278
G1 X66.514 Y57.058 E0.66741
G1 X67.107 Y56.819 E0.68868
G1 X68.163 Y56.455 E0.72583
G1 X68.775 Y56.278 E0.74702
G1 X69.704 Y56.053 E0.77881
G1 X70.12 Y55.971 E0.79291
G1 X70.869 Y55.847 E0.81816
G1 X71.655 Y55.759 E0.84447
G1 X72.437 Y55.7 E0.87055
G1 X73.533 Y55.672 E0.90702
G1 X74.026 Y55.684 E0.92342
G1 X75.09 Y55.762 E0.9589
G1 X75.721 Y55.839 E0.98004
G1 X76.765 Y56.018 E1.01528
G1 X77.425 Y56.164 E1.03776
G1 X78.392 Y56.424 E1.07106
G1 X78.881 Y56.58 E1.08813
G1 X79.95 Y56.984 E1.12614
G1 X80.594 Y57.266 E1.14953
G1 X81.615 Y57.777 E1.1875
G1 X82.24 Y58.132 E1.21141
G1 X83.218 Y58.758 E1.25003
G1 X83.568 Y59.009 E1.26435
G1 X84.287 Y59.571 E1.29471
G1 X84.905 Y60.097 E1.3217
G1 X85.56 Y60.703 E1.35138
G1 X87.347 Y62.481 E1.43522
G1 X130.337 Y105.47 E3.45732
G1 X131.874 Y107.017 E3.52985
G1 X132.531 Y107.664 E3.56052
G1 X175.72 Y150.856 E5.59206
G1 X176.23 Y151.385 E5.6165
G1 X176.852 Y152.088 E5.64772
G1 X177.411 Y152.84 E5.67889
G1 X177.904 Y153.638 E5.71009
G1 X178.328 Y154.475 E5.74129
G1 X178.679 Y155.345 E5.7725
G1 X178.954 Y156.241 E5.80367
G1 X179.152 Y157.158 E5.83487
G1 X179.271 Y158.088 E5.86606
G1 X179.311 Y159.025 E5.89725
G1 X179.271 Y159.962 E5.92844
G1 X179.15 Y160.892 E5.95964
G1 X178.952 Y161.809 E5.99084
G1 X178.675 Y162.705 E6.02203
G1 X178.324 Y163.575 E6.05323
G1 X177.899 Y164.411 E6.08443
G1 X177.405 Y165.208 E6.11561
G1 X176.845 Y165.96 E6.1468
G1 X176.296 Y166.585 E6.17447
G1 X175.855 Y167.045 E6.19566
G1 X167.234 Y175.665 E6.60114
G1 X166.714 Y176.171 E6.62528
G1 X166.015 Y176.795 E6.65644
G1 X165.265 Y177.358 E6.68763
G1 X164.469 Y177.855 E6.71884
G1 X163.635 Y178.283 E6.75002
G1 X162.766 Y178.638 E6.78124
G1 X161.871 Y178.917 E6.81242
G1 X160.955 Y179.119 E6.84362
G1 X160.026 Y179.243 E6.8748
G1 X159.089 Y179.287 E6.90599
G1 X158.152 Y179.251 E6.93718
G1 X157.221 Y179.135 E6.96839
G1 X156.304 Y178.94 E6.99957
G1 X155.406 Y178.668 E7.03078
G1 X154.535 Y178.321 E7.06196
G1 X153.697 Y177.9 E7.09315
G1 X152.897 Y177.41 E7.12435
G1 X152.142 Y176.853 E7.15556
G1 X151.494 Y176.288 E7.18415
G1 X151.017 Y175.831 E7.20613
G1 X146.203 Y171.017 E7.43256
G1 X143.75 Y168.635 E7.54629
G1 X61.103 Y85.987 E11.43377
G1 X60.389 Y85.246 E11.468
G1 X59.831 Y84.623 E11.49581
G1 X59.546 Y84.284 E11.51054
G1 X58.961 Y83.522 E11.5425
G1 X58.672 Y83.11 E11.55923
G1 X58.286 Y82.521 E11.58266
G1 X57.929 Y81.915 E11.60605
G1 X57.716 Y81.528 E11.62074
G1 X57.364 Y80.834 E11.64662
G1 X57.001 Y80.013 E11.67648
G1 X56.693 Y79.216 E11.7049
G1 X56.41 Y78.345 E11.73536
G1 X56.16 Y77.404 E11.76774
G1 X56.051 Y76.905 E11.78473
G1 X55.901 Y76.063 E11.81318
G1 X55.818 Y75.462 E11.83336
G1 X55.725 Y74.416 E11.86828
G1 X55.698 Y73.77 E11.88979
G1 X55.705 Y72.703 E11.92528
G0 F6000 X56.097 Y73.754
G1 F900 X56.104 Y72.725 E11.9595
G1 X56.138 Y72.111 E11.97996
G1 X56.231 Y71.182 E12.01101
G1 X56.311 Y70.628 E12.02963
G1 X56.502 Y69.639 E12.06313
G1 X56.653 Y69.018 E12.08438
G1 X56.947 Y68.023 E12.11889
G1 X57.189 Y67.331 E12.14328
G1 X57.587 Y66.353 E12.17839
G1 X57.868 Y65.75 E12.20052
G1 X58.366 Y64.808 E12.23596
G1 X58.708 Y64.233 E12.25821
G1 X59.325 Y63.309 E12.29517
G1 X59.735 Y62.76 E12.31796
G1 X60.305 Y62.061 E12.34796
G1 X60.601 Y61.728 E12.36277
G1 X61.209 Y61.099 E12.39187
G1 X61.748 Y60.585 E12.41664
G1 X62.522 Y59.914 E12.45071
G1 X62.962 Y59.569 E12.46931
G1 X63.747 Y59.01 E12.50136
G1 X64.279 Y58.666 E12.52243
G1 X65.161 Y58.154 E12.55635
G1 X65.752 Y57.848 E12.57849
G1 X66.664 Y57.429 E12.61187
G1 X67.257 Y57.19 E12.63314
G1 X68.274 Y56.839 E12.66892
G1 X68.886 Y56.662 E12.69011
G1 X69.781 Y56.445 E12.72074
G1 X70.197 Y56.363 E12.73484
G1 X70.928 Y56.243 E12.75948
G1 X71.686 Y56.158 E12.78485
G1 X72.468 Y56.099 E12.81093
G1 X73.523 Y56.072 E12.84603
G1 X74.016 Y56.084 E12.86244
G1 X75.042 Y56.159 E12.89665
G1 X75.673 Y56.236 E12.91779
G1 X76.678 Y56.408 E12.95171
G1 X77.338 Y56.554 E12.97419
G1 X78.271 Y56.805 E13.00632
G1 X78.76 Y56.961 E13.0234
G1 X79.79 Y57.35 E13.06002
G1 X80.434 Y57.632 E13.0834
G1 X81.417 Y58.125 E13.11997
G1 X82.042 Y58.48 E13.14388
G1 X82.984 Y59.083 E13.18108
G1 X83.334 Y59.334 E13.19541
G1 X84.027 Y59.876 E13.22467
G1 X84.645 Y60.402 E13.25166
G1 X85.277 Y60.986 E13.28028
G1 X87.064 Y62.764 E13.36412
G1 X130.053 Y105.752 E15.38617
G1 X131.546 Y107.255 E15.45663
G1 X132.248 Y107.947 E15.48942
G1 X175.432 Y151.134 E17.52073
G1 X175.942 Y151.663 E17.54517
G1 X176.552 Y152.353 E17.5758
G1 X177.099 Y153.093 E17.60641
G1 X177.58 Y153.878 E17.63703
G1 X177.992 Y154.702 E17.66767
G1 X178.33 Y155.558 E17.69828
G1 X178.592 Y156.44 E17.72889
G1 X178.777 Y157.342 E17.75951
G1 X178.883 Y158.257 E17.79015
G1 X178.91 Y159.177 E17.82076
G1 X178.856 Y160.096 E17.85138
G1 X178.723 Y161.007 E17.882
G1 X178.511 Y161.903 E17.91262
G1 X178.223 Y162.777 E17.94323
G1 X177.859 Y163.623 E17.97386
G1 X177.424 Y164.434 E18.00447
G1 X176.92 Y165.205 E18.03511
G1 X176.351 Y165.928 E18.06571
G1 X175.772 Y166.557 E18.09414
G1 X166.955 Y175.378 E18.50896
G1 X166.435 Y175.884 E18.53309
G1 X165.748 Y176.497 E18.56372
G1 X165.011 Y177.048 E18.59432
G1 X164.228 Y177.532 E18.62494
G1 X163.406 Y177.947 E18.65557
G1 X162.551 Y178.29 E18.68621
G1 X161.67 Y178.556 E18.71682
G1 X160.769 Y178.745 E18.74744
G1 X159.855 Y178.856 E18.77806
G1 X158.935 Y178.886 E18.80867
G1 X158.016 Y178.837 E18.83928
G1 X157.104 Y178.708 E18.86992
G1 X156.207 Y178.501 E18.90054
G1 X155.332 Y178.216 E18.93114
G1 X154.484 Y177.857 E18.96177
G1 X153.671 Y177.425 E18.99239
G1 X152.898 Y176.924 E19.02303
G1 X152.172 Y176.359 E19.05363
G1 X151.768 Y175.997 E19.07167
G1 X151.3 Y175.548 E19.09324
G1 X146.482 Y170.73 E19.31987
G1 X144.033 Y168.352 E19.4334
G1 X61.39 Y85.709 E23.32068
G1 X60.684 Y84.975 E23.35455
G1 X60.137 Y84.365 E23.3818
G1 X59.852 Y84.026 E23.39653
G1 X59.288 Y83.292 E23.42732
G1 X58.999 Y82.88 E23.44406
G1 X58.627 Y82.312 E23.46664
G1 X58.28 Y81.722 E23.4894
G1 X58.067 Y81.335 E23.5041
G1 X57.725 Y80.661 E23.52924
G1 X57.369 Y79.855 E23.55854
G1 X57.069 Y79.08 E23.58618
G1 X56.792 Y78.225 E23.61607
G1 X56.551 Y77.319 E23.64726
G1 X56.442 Y76.82 E23.66424
G1 X56.298 Y76.008 E23.69167
G1 X56.215 Y75.407 E23.71185
G1 X56.124 Y74.4 E23.74548
G1 X56.097 Y73.754 E23.76699
G0 F6000 X56.497 Y73.737
G1 F900 X56.504 Y72.747 E23.79991
G1 X56.538 Y72.133 E23.82037
G1 X56.627 Y71.239 E23.85025
G1 X56.707 Y70.685 E23.86887
G1 X56.891 Y69.733 E23.90112
G1 X57.042 Y69.112 E23.92237
G1 X57.325 Y68.155 E23.95556
G1 X57.567 Y67.463 E23.97995
G1 X57.95 Y66.522 E24.01374
G1 X58.231 Y65.919 E24.03587
G1 X58.709 Y65.013 E24.06994
G1 X59.051 Y64.438 E24.09219
G1 X59.646 Y63.549 E24.12777
G1 X60.056 Y63 E24.15056
G1 X60.604 Y62.326 E24.17945
G1 X60.9 Y61.993 E24.19427
G1 X61.485 Y61.388 E24.22226
G1 X62.024 Y60.874 E24.24703
G1 X62.769 Y60.229 E24.27981
G1 X63.209 Y59.884 E24.2984
G1 X63.965 Y59.346 E24.32926
G1 X64.497 Y59.002 E24.35034
G1 X65.345 Y58.509 E24.38296
G1 X65.936 Y58.203 E24.4051
G1 X66.813 Y57.8 E24.4372
G1 X67.406 Y57.561 E24.45846
G1 X68.385 Y57.224 E24.4929
G1 X68.997 Y57.047 E24.51409
G1 X69.858 Y56.838 E24.54356
G1 X70.751 Y56.673 E24.57376
G1 X70.987 Y56.638 E24.5817
G1 X71.716 Y56.557 E24.60609
G1 X72.498 Y56.498 E24.63218
G1 X73.513 Y56.472 E24.66595
G1 X74.006 Y56.484 E24.68235
G1 X74.994 Y56.556 E24.7153
G1 X75.625 Y56.633 E24.73644
G1 X76.592 Y56.799 E24.76907
G1 X77.252 Y56.945 E24.79155
G1 X78.149 Y57.187 E24.82245
G1 X78.638 Y57.343 E24.83953
G1 X79.629 Y57.717 E24.87476
G1 X80.273 Y57.999 E24.89814
G1 X81.22 Y58.473 E24.93336
G1 X81.845 Y58.828 E24.95727
G1 X82.751 Y59.408 E24.99305
G1 X83.101 Y59.659 E25.00737
G1 X83.768 Y60.181 E25.03554
G1 X84.386 Y60.707 E25.06254
G1 X84.994 Y61.268 E25.09005
G1 X85.994 Y62.27 E25.13714
G1 X86.781 Y63.046 E25.1739
G1 X129.77 Y106.034 E27.19594
G1 X131.265 Y107.538 E27.26648
G1 X131.966 Y108.23 E27.29924
G1 X175.144 Y151.412 E29.33029
G1 X175.654 Y151.941 E29.35473
G1 X176.252 Y152.618 E29.38478
G1 X176.787 Y153.345 E29.4148
G1 X177.255 Y154.117 E29.44482
G1 X177.654 Y154.928 E29.47489
G1 X177.979 Y155.77 E29.5049
G1 X178.229 Y156.638 E29.53495
G1 X178.401 Y157.525 E29.565
G1 X178.494 Y158.423 E29.59503
G1 X178.506 Y159.326 E29.62506
G1 X178.439 Y160.227 E29.65511
G1 X178.293 Y161.118 E29.68514
G1 X178.068 Y161.992 E29.71516
G1 X177.767 Y162.844 E29.74521
G1 X177.392 Y163.665 E29.77523
G1 X176.945 Y164.45 E29.80528
G1 X176.431 Y165.193 E29.83533
G1 X175.716 Y166.035 E29.87207
G1 X175.289 Y166.479 E29.89256
G1 X166.676 Y175.091 E30.29766
G1 X166.156 Y175.597 E30.3218
G1 X165.482 Y176.198 E30.35183
G1 X164.757 Y176.736 E30.38186
G1 X163.987 Y177.209 E30.41191
G1 X163.179 Y177.611 E30.44193
G1 X162.338 Y177.94 E30.47197
G1 X161.471 Y178.194 E30.50202
G1 X160.585 Y178.37 E30.53206
G1 X159.687 Y178.467 E30.5621
G1 X158.784 Y178.484 E30.59214
G1 X157.883 Y178.421 E30.62218
G1 X156.992 Y178.279 E30.65219
G1 X156.116 Y178.058 E30.68224
G1 X155.263 Y177.761 E30.71228
G1 X154.44 Y177.389 E30.74232
G1 X153.653 Y176.946 E30.77236
G1 X152.908 Y176.436 E30.80239
G1 X152.043 Y175.706 E30.84003
G1 X151.583 Y175.265 E30.86123
G1 X146.76 Y170.442 E31.08809
G1 X144.316 Y168.07 E31.20136
G1 X61.677 Y85.43 E35.08847
G1 X60.978 Y84.705 E35.12197
G1 X60.444 Y84.108 E35.14861
G1 X60.159 Y83.769 E35.16334
G1 X59.616 Y83.062 E35.19299
G1 X59.327 Y82.65 E35.20973
G1 X58.969 Y82.104 E35.23144
G1 X58.63 Y81.529 E35.25364
G1 X58.417 Y81.142 E35.26834
G1 X58.085 Y80.488 E35.29273
G1 X57.736 Y79.698 E35.32146
G1 X57.446 Y78.945 E35.34829
G1 X57.173 Y78.106 E35.37764
G1 X56.942 Y77.234 E35.40764
G1 X56.833 Y76.735 E35.42463
G1 X56.694 Y75.953 E35.45105
G1 X56.611 Y75.352 E35.47123
G1 X56.524 Y74.383 E35.50359
G1 X56.497 Y73.737 E35.52509
G1 F2700 E30.52509
G0 F6000 X151.866 Y162.119
G0 X158.166 Y161.024
G0 X158.354 Y161.212
G0 X157.841 Y161.725
G1 F2700 E35.52509
G1 F900 X158.354 Y161.212 E35.54922
G1 X158.529 Y161.128 E35.55568
G1 X159.686 Y162.285 E35.6101
G1 X159.043 Y162.927 E35.64032
G1 X157.841 Y161.725 E35.69686
G0 F6000 X157.275 Y161.725
G1 F900 X158.11 Y160.897 E35.73597
G1 X158.585 Y160.618 E35.75429
G1 X160.252 Y162.284 E35.83268
G1 X159.043 Y163.493 E35.88955
G1 X157.275 Y161.725 E35.97271
G0 F6000 X156.71 Y161.726
G1 F900 X157.887 Y160.549 E36.02807
G1 X158.148 Y160.425 E36.03768
G1 X158.551 Y160.146 E36.05398
G1 X158.618 Y160.085 E36.057
G1 X160.818 Y162.284 E36.16046
G1 X159.043 Y164.059 E36.24395
G1 X156.71 Y161.726 E36.35368
G0 F6000 X156.144 Y161.726
G1 F900 X157.653 Y160.217 E36.42466
G1 X158.16 Y159.942 E36.44385
G1 X158.483 Y159.668 E36.45793
G1 X158.625 Y159.526 E36.46461
G1 X161.384 Y162.285 E36.59439
G1 X159.043 Y164.625 E36.70448
G1 X156.144 Y161.726 E36.84084
G0 F6000 X155.579 Y161.725
G1 F900 X157.415 Y159.889 E36.9272
G1 X157.801 Y159.701 E36.94148
G1 X158.2 Y159.385 E36.95841
G1 X158.624 Y158.961 E36.97835
G1 X161.949 Y162.285 E37.13472
G1 X159.044 Y165.19 E37.27137
G1 X155.579 Y161.725 E37.43435
G0 F6000 X155.013 Y161.725
G1 F900 X157.207 Y159.531 E37.53755
G1 X157.482 Y159.423 E37.54737
G1 X157.917 Y159.102 E37.56536
G1 X158.624 Y158.395 E37.59861
G1 X162.515 Y162.285 E37.78161
G1 X159.043 Y165.755 E37.94487
G1 X155.013 Y161.725 E38.13443
G0 F6000 X154.447 Y161.725
G1 F900 X156.998 Y159.175 E38.2544
G1 X157.208 Y159.111 E38.2617
G1 X157.496 Y158.941 E38.27282
G1 X157.635 Y158.819 E38.27898
G1 X158.625 Y157.83 E38.32552
G1 X163.081 Y162.285 E38.53509
G1 X159.043 Y166.321 E38.72498
G1 X154.447 Y161.725 E38.94116
G0 F6000 X153.881 Y161.725
G1 F900 X156.798 Y158.809 E39.07835
G1 X156.988 Y158.768 E39.08481
G1 X157.237 Y158.635 E39.0942
G1 X157.352 Y158.536 E39.09925
G1 X158.625 Y157.264 E39.1591
G1 X163.647 Y162.285 E39.3953
G1 X159.043 Y166.887 E39.61181
G1 X153.881 Y161.725 E39.85461
G0 F6000 X153.315 Y161.725
G1 F900 X156.615 Y158.428 E40.00976
G1 X156.831 Y158.399 E40.01701
G1 X157.069 Y158.253 E40.0263
G1 X158.625 Y156.698 E40.09947
G1 X164.213 Y162.285 E40.36228
G1 X159.043 Y167.453 E40.60542
G1 X153.315 Y161.725 E40.87485
G0 F6000 X152.749 Y161.725
G1 F900 X156.504 Y157.971 E41.05145
G1 X156.616 Y158.027 E41.05561
G1 X156.786 Y157.97 E41.06157
G1 X158.625 Y156.132 E41.14805
G1 X164.779 Y162.285 E41.43749
G1 X159.043 Y168.019 E41.70725
G1 X152.749 Y161.725 E42.0033
G1 F2700 E37.0033
G0 F6000 X157.842 Y161.348
G0 X158.36 Y161.866
;TYPE:SUPPORT
G1 F2700 E42.0033
G1 F962.6 X159.043 Y162.549 E42.03334
G1 X159.175 Y162.417 E42.03914
G1 X159.307 Y162.285 E42.04495
G1 X158.624 Y161.602 E42.07499
G1 X158.36 Y161.866 E42.0866
G1 F2700 E37.0866
;MESH:Right_Rear_Spar_Outer.stl
G0 F6000 X157.842 Y161.348
G0 X151.866 Y162.119
G0 X67.99 Y78.26
G0 X67.275 Y77.363
G0 X66.784 Y76.588
G0 X67.534 Y76.159
;TYPE:WALL-OUTER
G1 F2700 E42.0866
G1 F900 X67.834 Y76.684 E42.10671
G1 X68.199 Y77.192 E42.12751
G1 X68.62 Y77.665 E42.14858
G1 X151.866 Y160.911 E46.06421
G1 X156.363 Y156.414 E46.27574
G1 X156.443 Y156.366 E46.27884
G1 X156.644 Y156.414 E46.28571
G1 X158.483 Y154.576 E46.37219
G1 X158.631 Y154.518 E46.37748
G1 X158.767 Y154.576 E46.3824
G1 X165.626 Y161.435 E46.70502
G1 X166.834 Y160.226 E46.76187
G1 X168.043 Y159.017 E46.81873
G1 X124.487 Y115.46 E48.8675
G1 X119.877 Y120.071 E49.08436
G1 X119.721 Y120.129 E49.0899
G1 X119.593 Y120.071 E49.09457
G1 X118.178 Y118.656 E49.16113
G1 X118.12 Y118.528 E49.1658
G1 X118.178 Y118.372 E49.17134
G1 X122.789 Y113.762 E49.3882
G1 X79.232 Y70.206 E51.43697
G1 X74.622 Y74.816 E51.65381
G1 X74.466 Y74.874 E51.65934
G1 X74.338 Y74.816 E51.66402
G1 X72.909 Y73.387 E51.73123
G1 X72.868 Y73.221 E51.73692
G1 X73.026 Y73.015 E51.74555
G1 X77.527 Y68.515 E51.95724
G1 X77.171 Y68.196 E51.97314
G1 X76.682 Y67.843 E51.9932
G1 X76.18 Y67.553 E52.01248
G1 X75.656 Y67.31 E52.03169
G1 X75.421 Y67.223 E52.04003
G1 X75.033 Y67.096 E52.05361
G1 X74.459 Y66.961 E52.07322
G1 X73.909 Y66.886 E52.09168
G1 X73.649 Y66.869 E52.10035
G1 X73.245 Y66.86 E52.11379
G1 X72.685 Y66.894 E52.13245
G1 X72.38 Y66.933 E52.14268
G1 X71.901 Y67.025 E52.1589
G1 X71.499 Y67.134 E52.17275
G1 X71.248 Y67.213 E52.1815
G1 X70.767 Y67.404 E52.19872
G1 X70.217 Y67.68 E52.21918
G1 X69.704 Y68 E52.23929
G1 X69.246 Y68.348 E52.25843
G1 X68.774 Y68.779 E52.27968
G1 X68.375 Y69.223 E52.29954
G1 X68.164 Y69.499 E52.31109
G1 X67.97 Y69.768 E52.32213
G1 X67.676 Y70.254 E52.34102
G1 X67.408 Y70.804 E52.36137
G1 X67.224 Y71.298 E52.3789
G1 X67.13 Y71.593 E52.3892
G1 X67.017 Y72.023 E52.40399
G1 X66.942 Y72.488 E52.41965
G1 X66.91 Y72.762 E52.42883
G1 X66.878 Y73.231 E52.44446
G1 X66.891 Y73.828 E52.46432
G1 X66.958 Y74.389 E52.48311
G1 X67.095 Y75.015 E52.50443
