;FLAVOR:Marlin
;TIME:6187
;Filament used: 3.87374m
;Layer height: 0.2
;MINX:35.311
;MINY:35.559
;MINZ:0.2
;MAXX:199.697
;MAXY:199.442
;MAXZ:17
;Generated with Cura_SteamEngine 5.0.0
M140 S70
M105
M190 S70
M104 S200
M105
M109 S200
M82 ;absolute extrusion mode
; Ender 3 Custom Start G-code
G28 ; Home all axes
M420 S1; Bed Leveling On
G92 E0 ; Reset Extruder
G1 Z2.0 F3000 ; Move Z Axis up little to prevent scratching of Heat Bed
G1 X0.1 Y20 Z0.3 F5000.0 ; Move to start position
G1 X0.1 Y200.0 Z0.3 F1500.0 E15 ; Draw the first line
G1 X0.4 Y200.0 Z0.3 F5000.0 ; Move to side a little
G1 X0.4 Y20 Z0.3 F1500.0 E30 ; Draw the second line
G92 E0 ; Reset Extruder
G1 Z2.0 F3000 ; Move Z Axis up little to prevent scratching of Heat Bed
G1 X5 Y20 Z0.3 F5000.0 ; Move over to prevent blob squish
G92 E0
G92 E0
G1 F2700 E-5
;LAYER_COUNT:85
;LAYER:0
M107
G0 F6000 X38.547 Y39.085 Z0.2
G0 X35.311 Y47.336
;TYPE:SKIRT
G1 F2700 E0
G1 F900 X35.313 Y46.398 E0.0312
G1 X35.394 Y45.464 E0.06238
G1 X35.555 Y44.54 E0.09358
G1 X35.794 Y43.633 E0.12477
G1 X36.11 Y42.75 E0.15596
G1 X36.499 Y41.897 E0.18715
G1 X36.96 Y41.08 E0.21835
G1 X37.489 Y40.305 E0.24956
G1 X38.081 Y39.578 E0.28074
G1 X38.547 Y39.085 E0.3033
G1 X38.878 Y38.756 E0.31882
G1 X39.571 Y38.124 E0.35002
G1 X40.315 Y37.553 E0.38121
G1 X41.105 Y37.048 E0.4124
G1 X41.936 Y36.611 E0.44363
G1 X42.8 Y36.247 E0.47481
G1 X43.692 Y35.958 E0.506
G1 X44.606 Y35.746 E0.5372
G1 X45.534 Y35.613 E0.56838
G1 X46.47 Y35.559 E0.59957
G1 X47.408 Y35.585 E0.63078
G1 X48.34 Y35.691 E0.66197
G1 X49.259 Y35.876 E0.69315
G1 X50.16 Y36.139 E0.72437
G1 X51.034 Y36.477 E0.75554
G1 X51.877 Y36.888 E0.78673
G1 X52.682 Y37.37 E0.81794
G1 X53.512 Y37.975 E0.8521
G1 X54.511 Y38.776 E0.89469
G1 X56.371 Y40.237 E0.97336
G1 X59.444 Y42.485 E1.09999
G1 X61.78 Y44.12 E1.19483
G1 X66.312 Y47.226 E1.37757
G1 X68.768 Y48.899 E1.4764
G1 X76.057 Y53.822 E1.76895
G1 X86.724 Y60.999 E2.19657
G1 X90.356 Y63.463 E2.34254
G1 X93.576 Y65.673 E2.47244
G1 X96.936 Y68.006 E2.60849
G1 X100.702 Y70.654 E2.76161
G1 X104.599 Y73.436 E2.92087
G1 X106.821 Y75.044 E3.01209
G1 X111.144 Y78.213 E3.19037
G1 X115.435 Y81.419 E3.36853
G1 X119.993 Y84.897 E3.55922
G1 X124.474 Y88.394 E3.74827
G1 X129.118 Y92.109 E3.94607
G1 X133.712 Y95.883 E4.14382
G1 X138.166 Y99.641 E4.33764
G1 X142.35 Y103.267 E4.52179
G1 X146.468 Y106.937 E4.70526
G1 X149.859 Y110.045 E4.85825
G1 X153.593 Y113.56 E5.02881
G1 X154.315 Y114.251 E5.06205
G1 X157.947 Y117.796 E5.23086
G1 X160.832 Y120.698 E5.36696
G1 X161.462 Y121.34 E5.39687
G1 X164.207 Y124.197 E5.52865
G1 X164.886 Y124.915 E5.56152
G1 X167.4 Y127.622 E5.68439
G1 X168.105 Y128.395 E5.71919
G1 X170.576 Y131.159 E5.8425
G1 X171.171 Y131.838 E5.87253
G1 X173.435 Y134.468 E5.98795
G1 X174.129 Y135.29 E6.02373
G1 X176.207 Y137.805 E6.13224
G1 X176.882 Y138.639 E6.16792
G1 X178.829 Y141.097 E6.27222
G1 X179.572 Y142.058 E6.31262
G1 X181.331 Y144.384 E6.40961
G1 X182.053 Y145.362 E6.45005
G1 X183.728 Y147.687 E6.54535
G1 X184.465 Y148.739 E6.58808
G1 X185.994 Y150.973 E6.67812
G1 X186.848 Y152.263 E6.72957
G1 X188.194 Y154.358 E6.81239
G1 X189.097 Y155.814 E6.86938
G1 X190.261 Y157.761 E6.94483
G1 X191.246 Y159.477 E7.01063
G1 X192.191 Y161.192 E7.07576
G1 X193.227 Y163.167 E7.14994
G1 X194.097 Y164.908 E7.21467
G1 X194.516 Y165.781 E7.24688
G1 X195.355 Y167.634 E7.31453
G1 X196.19 Y169.608 E7.38582
G1 X196.584 Y170.599 E7.42129
G1 X197.109 Y171.993 E7.47084
G1 X197.567 Y173.321 E7.51756
G1 X197.867 Y174.246 E7.5499
G1 X198.134 Y175.148 E7.58119
G1 X198.435 Y176.218 E7.61816
G1 X198.727 Y177.34 E7.65672
G1 X198.87 Y177.978 E7.67847
G1 X199.126 Y179.239 E7.72126
G1 X199.242 Y179.853 E7.74205
G1 X199.342 Y180.485 E7.76333
G1 X199.484 Y181.608 E7.80098
G1 X199.614 Y182.849 E7.84248
G1 X199.665 Y183.538 E7.86546
G1 X199.691 Y184.28 E7.89015
G1 X199.697 Y184.726 E7.90499
G1 X199.687 Y185.364 E7.92621
G1 X199.64 Y186.293 E7.95715
G1 X199.614 Y186.634 E7.96852
G1 X199.52 Y187.477 E7.99673
G1 X199.444 Y187.963 E8.01309
G1 X199.337 Y188.563 E8.03337
G1 X199.185 Y189.279 E8.05771
G1 X199.008 Y189.953 E8.08089
G1 X198.85 Y190.495 E8.09967
G1 X198.441 Y191.654 E8.14054
G1 X198.307 Y191.975 E8.15211
G1 X197.909 Y192.824 E8.1833
G1 X197.432 Y193.649 E8.215
G1 X197.244 Y193.944 E8.22663
G1 X196.707 Y194.712 E8.2578
G1 X196.106 Y195.433 E8.28902
G1 X195.31 Y196.223 E8.32632
G1 X195.117 Y196.396 E8.33494
G1 X194.393 Y196.992 E8.36613
G1 X193.589 Y197.543 E8.39855
G1 X193.385 Y197.67 E8.40654
G1 X192.568 Y198.132 E8.43776
G1 X191.715 Y198.522 E8.46895
G1 X190.832 Y198.838 E8.50015
G1 X190.119 Y199.033 E8.52473
G1 X189.657 Y199.143 E8.54053
G1 X188.736 Y199.321 E8.57173
G1 X187.803 Y199.42 E8.60293
G1 X187.075 Y199.442 E8.62716
G1 X186.747 Y199.441 E8.63807
G1 X185.811 Y199.398 E8.66923
G1 X185.026 Y199.3 E8.69554
G1 X184.149 Y199.153 E8.72512
G1 X183.908 Y199.106 E8.73329
G1 X182.667 Y198.788 E8.77589
G1 X181.812 Y198.509 E8.80581
G1 X181.482 Y198.392 E8.81745
G1 X180.914 Y198.172 E8.83771
G1 X180.175 Y197.85 E8.86452
G1 X179.594 Y197.574 E8.88592
G1 X178.966 Y197.251 E8.90941
G1 X178.371 Y196.92 E8.93205
G1 X177.854 Y196.613 E8.95205
G1 X176.644 Y195.843 E8.99975
G1 X176.026 Y195.415 E9.02476
G1 X174.614 Y194.376 E9.08306
G1 X173.422 Y193.454 E9.13318
G1 X172.316 Y192.55 E9.18069
G1 X171.113 Y191.54 E9.23294
G1 X169.765 Y190.376 E9.29218
G1 X168.453 Y189.211 E9.35053
G1 X165.882 Y186.867 E9.46625
G1 X164.397 Y185.48 E9.53383
G1 X161.684 Y182.901 E9.65833
G1 X158.742 Y180.05 E9.79459
G1 X155.737 Y177.093 E9.93481
G1 X150.09 Y171.44 E10.20057
G1 X147.135 Y168.439 E10.34065
G1 X144.971 Y166.225 E10.44362
G1 X144.509 Y165.738 E10.46595
G1 X142.54 Y163.721 E10.5597
G1 X140.001 Y161.088 E10.68136
G1 X132.739 Y153.49 E11.03093
G1 X119.112 Y139.165 E11.68853
G1 X82.378 Y100.488 E13.46267
G1 X82.144 Y100.234 E13.47415
G1 X80.628 Y98.648 E13.54713
G1 X66.249 Y83.512 E14.2415
G1 X66.061 Y83.325 E14.25032
G1 X65.509 Y82.747 E14.2769
G1 X65.346 Y82.561 E14.28513
G1 X43.19 Y59.241 E15.35501
G1 X41.443 Y57.457 E15.43805
G1 X38.705 Y54.842 E15.56398
G1 X38.055 Y54.166 E15.59517
G1 X37.465 Y53.437 E15.62637
G1 X36.939 Y52.66 E15.65757
G1 X36.481 Y51.842 E15.68875
G1 X36.095 Y50.987 E15.71996
G1 X35.783 Y50.103 E15.75114
G1 X35.547 Y49.195 E15.78234
G1 X35.389 Y48.271 E15.81352
G1 X35.311 Y47.336 E15.84472
G0 F6000 X35.706 Y47.168
G1 F900 X35.721 Y46.247 E15.87536
G1 X35.817 Y45.331 E15.90599
G1 X35.991 Y44.427 E15.93661
G1 X36.244 Y43.542 E15.96723
G1 X36.572 Y42.682 E15.99784
G1 X36.973 Y41.853 E16.02847
G1 X37.445 Y41.063 E16.05908
G1 X37.984 Y40.316 E16.08972
G1 X38.829 Y39.369 E16.13193
G1 X39.16 Y39.04 E16.14745
G1 X39.841 Y38.42 E16.17808
G1 X40.573 Y37.861 E16.20872
G1 X41.35 Y37.368 E16.23932
G1 X42.168 Y36.944 E16.26997
G1 X43.019 Y36.593 E16.30058
G1 X43.897 Y36.317 E16.3312
G1 X44.796 Y36.118 E16.36182
G1 X45.709 Y35.998 E16.39245
G1 X46.628 Y35.958 E16.42304
G1 X47.548 Y35.998 E16.45367
G1 X48.461 Y36.117 E16.48429
G1 X49.36 Y36.315 E16.51491
G1 X50.239 Y36.59 E16.54554
G1 X51.09 Y36.941 E16.57616
G1 X51.908 Y37.364 E16.60679
G1 X52.686 Y37.856 E16.63741
G1 X53.262 Y38.287 E16.66133
G1 X54.264 Y39.09 E16.70404
G1 X56.141 Y40.565 E16.78344
G1 X59.211 Y42.81 E16.90994
G1 X61.594 Y44.478 E17.00669
G1 X66.06 Y47.539 E17.18677
G1 X68.544 Y49.231 E17.28673
G1 X75.817 Y54.143 E17.57863
G1 X86.5 Y61.33 E18.00687
G1 X90.129 Y63.792 E18.15273
G1 X93.348 Y66.001 E18.28258
G1 X96.706 Y68.333 E18.41856
G1 X100.47 Y70.98 E18.57161
G1 X104.365 Y73.76 E18.73077
G1 X106.585 Y75.367 E18.82192
G1 X110.904 Y78.534 E19.00005
G1 X115.193 Y81.737 E19.17809
G1 X119.747 Y85.212 E19.36862
G1 X124.224 Y88.707 E19.55753
G1 X128.864 Y92.419 E19.75516
G1 X133.454 Y96.188 E19.9527
G1 X137.904 Y99.943 E20.14636
G1 X142.084 Y103.565 E20.33032
G1 X146.197 Y107.232 E20.51359
G1 X149.585 Y110.336 E20.66642
G1 X153.317 Y113.849 E20.83689
G1 X154.036 Y114.538 E20.87001
G1 X157.663 Y118.079 E21.0386
G1 X161.101 Y121.543 E21.20093
G1 X163.917 Y124.472 E21.33607
G1 X164.593 Y125.187 E21.3688
G1 X167.104 Y127.891 E21.49153
G1 X167.807 Y128.662 E21.52623
G1 X170.276 Y131.422 E21.6494
G1 X170.868 Y132.099 E21.67931
G1 X173.13 Y134.726 E21.79461
G1 X173.821 Y135.545 E21.83025
G1 X175.896 Y138.057 E21.93862
G1 X176.568 Y138.888 E21.97417
G1 X178.513 Y141.342 E22.07832
G1 X179.253 Y142.299 E22.11855
G1 X181.009 Y144.622 E22.21541
G1 X181.728 Y145.596 E22.25567
G1 X183.401 Y147.917 E22.35083
G1 X184.135 Y148.965 E22.39339
G1 X185.661 Y151.194 E22.48323
G1 X186.512 Y152.48 E22.53452
G1 X187.854 Y154.569 E22.61711
G1 X188.754 Y156.02 E22.6739
G1 X189.914 Y157.961 E22.74911
G1 X190.896 Y159.67 E22.81466
G1 X191.837 Y161.378 E22.87952
G1 X192.87 Y163.346 E22.95345
G1 X193.737 Y165.082 E23.01799
G1 X194.152 Y165.946 E23.04987
G1 X194.986 Y167.79 E23.11718
G1 X195.818 Y169.757 E23.18821
G1 X196.21 Y170.741 E23.22344
G1 X196.731 Y172.124 E23.2726
G1 X197.187 Y173.446 E23.31911
G1 X197.484 Y174.36 E23.35107
G1 X197.749 Y175.257 E23.38218
G1 X198.049 Y176.322 E23.41898
G1 X198.337 Y177.429 E23.45703
G1 X198.478 Y178.059 E23.4785
G1 X198.733 Y179.313 E23.52106
G1 X198.849 Y179.927 E23.54185
G1 X198.946 Y180.537 E23.56239
G1 X199.086 Y181.65 E23.5997
G1 X199.216 Y182.891 E23.6412
G1 X199.265 Y183.555 E23.66335
G1 X199.291 Y184.285 E23.68764
G1 X199.297 Y184.731 E23.70248
G1 X199.287 Y185.346 E23.72293
G1 X199.241 Y186.263 E23.75347
G1 X199.215 Y186.604 E23.76485
G1 X199.123 Y187.424 E23.79229
G1 X199.05 Y187.893 E23.80808
G1 X198.943 Y188.493 E23.82835
G1 X198.796 Y189.183 E23.85181
G1 X198.624 Y189.841 E23.87443
G1 X198.466 Y190.383 E23.89321
G1 X198.072 Y191.499 E23.93257
G1 X197.938 Y191.82 E23.94414
G1 X197.547 Y192.654 E23.97478
G1 X197.095 Y193.434 E24.00476
G1 X196.907 Y193.729 E24.0164
G1 X196.379 Y194.483 E24.04701
G1 X195.788 Y195.188 E24.07761
G1 X195.043 Y195.925 E24.11247
G1 X194.85 Y196.098 E24.12109
G1 X194.139 Y196.682 E24.15169
G1 X193.377 Y197.204 E24.18241
G1 X193.173 Y197.331 E24.1904
G1 X192.371 Y197.783 E24.22102
G1 X191.533 Y198.164 E24.25164
G1 X190.665 Y198.47 E24.28225
G1 X190.026 Y198.644 E24.30428
G1 X189.564 Y198.754 E24.32007
G1 X188.66 Y198.928 E24.35069
G1 X187.744 Y199.023 E24.38132
G1 X187.077 Y199.042 E24.40352
G1 X186.749 Y199.041 E24.41443
G1 X185.829 Y198.998 E24.44506
G1 X185.09 Y198.905 E24.46983
G1 X184.226 Y198.76 E24.49897
G1 X183.985 Y198.713 E24.50714
G1 X182.789 Y198.406 E24.54821
G1 X181.946 Y198.132 E24.57769
G1 X181.616 Y198.015 E24.58933
G1 X181.068 Y197.803 E24.60888
G1 X180.347 Y197.489 E24.63503
G1 X179.766 Y197.213 E24.65643
G1 X179.161 Y196.901 E24.67907
G1 X178.566 Y196.57 E24.70171
G1 X178.068 Y196.275 E24.72096
G1 X176.869 Y195.512 E24.76823
G1 X176.262 Y195.092 E24.79278
G1 X174.858 Y194.059 E24.85076
G1 X173.675 Y193.144 E24.9005
G1 X172.573 Y192.243 E24.94785
G1 X171.374 Y191.237 E24.9999
G1 X170.03 Y190.077 E25.05895
G1 X168.722 Y188.916 E25.11712
G1 X166.155 Y186.575 E25.23267
G1 X164.673 Y185.19 E25.30014
G1 X161.962 Y182.613 E25.42454
G1 X159.023 Y179.765 E25.56066
G1 X156.02 Y176.81 E25.70079
G1 X150.375 Y171.159 E25.96645
G1 X147.421 Y168.16 E26.10646
G1 X145.261 Y165.95 E26.20925
G1 X144.732 Y165.392 E26.23482
G1 X142.828 Y163.443 E26.32544
G1 X140.29 Y160.812 E26.44703
G1 X133.029 Y153.215 E26.79656
G1 X119.402 Y138.89 E27.45415
G1 X82.672 Y100.217 E29.2281
G1 X66.446 Y83.139 E30.01162
G1 X66.35 Y83.049 E30.01599
G1 X65.798 Y82.471 E30.04258
G1 X65.629 Y82.277 E30.05113
G1 X43.515 Y59.002 E31.11896
G1 X41.722 Y57.17 E31.20422
G1 X38.981 Y54.553 E31.33027
G1 X38.344 Y53.889 E31.36087
G1 X37.766 Y53.172 E31.3915
G1 X37.253 Y52.407 E31.42214
G1 X36.808 Y51.601 E31.45276
G1 X36.435 Y50.76 E31.48336
G1 X36.136 Y49.889 E31.51399
G1 X35.914 Y48.995 E31.54463
G1 X35.77 Y48.086 E31.57524
G1 X35.706 Y47.168 E31.60584
G0 F6000 X36.103 Y47.002
G1 F900 X36.132 Y46.1 E31.63586
G1 X36.242 Y45.203 E31.66592
G1 X36.43 Y44.32 E31.69594
G1 X36.696 Y43.457 E31.72598
G1 X37.037 Y42.621 E31.75601
G1 X37.451 Y41.818 E31.78606
G1 X37.934 Y41.055 E31.81609
G1 X38.483 Y40.337 E31.84615
G1 X39.111 Y39.653 E31.87704
G1 X39.442 Y39.324 E31.89256
G1 X40.11 Y38.716 E31.9226
G1 X40.83 Y38.17 E31.95266
G1 X41.594 Y37.689 E31.98269
G1 X42.399 Y37.278 E32.01275
G1 X43.236 Y36.94 E32.04277
G1 X44.1 Y36.678 E32.0728
G1 X44.984 Y36.492 E32.10285
G1 X45.881 Y36.386 E32.13289
G1 X46.783 Y36.359 E32.1629
G1 X47.685 Y36.412 E32.19295
G1 X48.578 Y36.545 E32.22298
G1 X49.456 Y36.757 E32.25302
G1 X50.312 Y37.045 E32.28306
G1 X51.139 Y37.407 E32.31309
G1 X51.931 Y37.842 E32.34314
G1 X53.012 Y38.599 E32.38704
G1 X54.049 Y39.43 E32.43124
G1 X55.894 Y40.879 E32.50926
G1 X58.969 Y43.128 E32.63597
G1 X61.382 Y44.818 E32.73396
G1 X65.859 Y47.886 E32.91447
G1 X68.32 Y49.562 E33.0135
G1 X75.609 Y54.486 E33.30607
G1 X86.275 Y61.661 E33.73362
G1 X89.903 Y64.122 E33.87943
G1 X93.12 Y66.33 E34.00921
G1 X96.476 Y68.66 E34.14509
G1 X100.237 Y71.305 E34.29802
G1 X104.13 Y74.084 E34.45711
G1 X106.348 Y75.689 E34.54817
G1 X110.665 Y78.854 E34.72621
G1 X114.95 Y82.055 E34.9041
G1 X119.501 Y85.527 E35.09449
G1 X123.975 Y89.019 E35.28325
G1 X128.611 Y92.728 E35.48072
G1 X133.196 Y96.494 E35.67807
G1 X137.643 Y100.245 E35.87157
G1 X141.818 Y103.864 E36.05534
G1 X145.927 Y107.527 E36.23842
G1 X149.311 Y110.627 E36.39106
G1 X153.04 Y114.138 E36.56141
G1 X153.757 Y114.824 E36.59442
G1 X157.38 Y118.361 E36.76282
G1 X160.261 Y121.258 E36.89871
G1 X160.885 Y121.895 E36.92837
G1 X163.627 Y124.747 E37.05996
G1 X164.3 Y125.459 E37.09254
G1 X166.809 Y128.161 E37.21518
G1 X167.508 Y128.929 E37.24972
G1 X169.975 Y131.686 E37.37277
G1 X170.565 Y132.36 E37.40256
G1 X172.824 Y134.984 E37.51773
G1 X173.512 Y135.8 E37.55323
G1 X175.585 Y138.309 E37.66147
G1 X176.255 Y139.136 E37.69687
G1 X178.196 Y141.586 E37.80083
G1 X178.934 Y142.54 E37.84095
G1 X180.688 Y144.86 E37.93769
G1 X181.404 Y145.83 E37.97779
G1 X183.073 Y148.147 E38.07276
G1 X183.805 Y149.191 E38.11517
G1 X185.327 Y151.415 E38.2048
G1 X186.176 Y152.696 E38.25592
G1 X187.514 Y154.78 E38.33829
G1 X188.411 Y156.225 E38.39486
G1 X189.568 Y158.16 E38.46984
G1 X190.546 Y159.863 E38.53516
G1 X191.483 Y161.564 E38.59975
G1 X192.512 Y163.525 E38.67341
G1 X193.377 Y165.256 E38.73777
G1 X193.788 Y166.112 E38.76935
G1 X194.618 Y167.947 E38.83634
G1 X195.447 Y169.906 E38.90709
G1 X195.837 Y170.883 E38.94208
G1 X196.353 Y172.255 E38.99083
G1 X196.808 Y173.572 E39.03717
G1 X197.1 Y174.474 E39.06871
G1 X197.364 Y175.366 E39.09965
G1 X197.662 Y176.425 E39.13624
G1 X197.947 Y177.518 E39.17381
G1 X198.086 Y178.139 E39.19497
G1 X198.34 Y179.387 E39.23733
G1 X198.456 Y180.001 E39.25811
G1 X198.549 Y180.588 E39.27788
G1 X198.688 Y181.691 E39.31486
G1 X198.818 Y182.932 E39.35636
G1 X198.865 Y183.571 E39.37767
G1 X198.891 Y184.291 E39.40163
G1 X198.897 Y184.737 E39.41647
G1 X198.888 Y185.328 E39.43613
G1 X198.842 Y186.232 E39.46623
G1 X198.816 Y186.573 E39.47761
G1 X198.727 Y187.372 E39.50435
G1 X198.657 Y187.823 E39.51953
G1 X198.55 Y188.423 E39.5398
G1 X198.408 Y189.087 E39.56238
G1 X198.24 Y189.729 E39.58445
G1 X198.082 Y190.271 E39.60323
G1 X197.703 Y191.345 E39.64111
G1 X197.569 Y191.666 E39.65268
G1 X197.184 Y192.484 E39.68275
G1 X196.758 Y193.219 E39.71101
G1 X196.57 Y193.514 E39.72264
G1 X196.051 Y194.253 E39.75268
G1 X195.469 Y194.944 E39.78272
G1 X194.776 Y195.627 E39.81509
G1 X194.583 Y195.8 E39.82371
G1 X193.885 Y196.373 E39.85374
G1 X193.166 Y196.864 E39.8827
G1 X192.962 Y196.991 E39.89069
G1 X192.175 Y197.434 E39.92073
G1 X191.352 Y197.806 E39.95077
G1 X190.499 Y198.103 E39.98081
G1 X189.934 Y198.255 E40.00027
G1 X189.472 Y198.365 E40.01607
G1 X188.585 Y198.535 E40.04611
G1 X187.686 Y198.626 E40.07616
G1 X187.078 Y198.642 E40.09639
G1 X186.75 Y198.641 E40.1073
G1 X185.848 Y198.598 E40.13733
G1 X185.154 Y198.51 E40.1606
G1 X184.303 Y198.367 E40.1893
G1 X184.062 Y198.32 E40.19747
G1 X182.911 Y198.025 E40.23699
G1 X182.08 Y197.755 E40.26605
G1 X181.75 Y197.638 E40.2777
G1 X181.222 Y197.434 E40.29652
G1 X180.518 Y197.127 E40.32207
G1 X179.937 Y196.851 E40.34346
G1 X179.355 Y196.552 E40.36522
G1 X178.76 Y196.221 E40.38787
