;FLAVOR:Marlin
;TIME:1996
;Filament used: 1.33519m
;Layer height: 0.2
;MINX:50.62
;MINY:51.979
;MINZ:0.2
;MAXX:184.371
;MAXY:183.03
;MAXZ:2
;Generated with Cura_SteamEngine 5.0.0
M140 S70
M105
M190 S70
M104 S200
M105
M109 S200
M82 ;absolute extrusion mode
; Ender 3 Custom Start G-code
G28 ; Home all axes
M420 S1; Bed Leveling On
G92 E0 ; Reset Extruder
G1 Z2.0 F3000 ; Move Z Axis up little to prevent scratching of Heat Bed
G1 X0.1 Y20 Z0.3 F5000.0 ; Move to start position
G1 X0.1 Y200.0 Z0.3 F1500.0 E15 ; Draw the first line
G1 X0.4 Y200.0 Z0.3 F5000.0 ; Move to side a little
G1 X0.4 Y20 Z0.3 F1500.0 E30 ; Draw the second line
G92 E0 ; Reset Extruder
G1 Z2.0 F3000 ; Move Z Axis up little to prevent scratching of Heat Bed
G1 X5 Y20 Z0.3 F5000.0 ; Move over to prevent blob squish
G92 E0
G92 E0
G1 F2700 E-5
;LAYER_COUNT:10
;LAYER:0
M107
G0 F6000 X60.048 Y55.588 Z0.2
;TYPE:SKIRT
G1 F2700 E0
G1 F900 X60.557 Y55.093 E0.02361
G1 X61.257 Y54.469 E0.0548
G1 X62.007 Y53.906 E0.086
G1 X62.802 Y53.409 E0.11718
G1 X63.637 Y52.982 E0.14837
G1 X64.506 Y52.627 E0.17959
G1 X65.401 Y52.348 E0.21077
G1 X66.317 Y52.146 E0.24197
G1 X67.247 Y52.023 E0.27317
G1 X68.183 Y51.979 E0.30434
G1 X69.121 Y52.015 E0.33556
G1 X70.051 Y52.131 E0.36673
G1 X70.969 Y52.326 E0.39795
G1 X71.866 Y52.599 E0.42913
G1 X72.737 Y52.947 E0.46033
G1 X73.79 Y53.49 E0.49973
G1 X74.347 Y53.817 E0.52122
G1 X76.607 Y55.099 E0.60764
G1 X78.843 Y56.285 E0.69182
G1 X81.092 Y57.397 E0.77527
G1 X83.432 Y58.474 E0.86094
G1 X83.775 Y58.625 E0.87341
G1 X84.616 Y59.04 E0.9046
G1 X85.419 Y59.525 E0.9358
G1 X86.177 Y60.076 E0.96697
G1 X86.889 Y60.693 E0.9983
G1 X87.366 Y61.15 E1.02028
G1 X130.593 Y104.377 E3.05354
G1 X131.938 Y105.731 E3.11702
G1 X132.64 Y106.423 E3.1498
G1 X175.808 Y149.593 E5.18034
G1 X177.122 Y150.944 E5.24302
G1 X178.958 Y152.779 E5.32936
G1 X179.972 Y153.755 E5.37617
G1 X180.797 Y154.581 E5.415
G1 X181.27 Y155.069 E5.4376
G1 X181.893 Y155.77 E5.4688
G1 X182.455 Y156.521 E5.49999
G1 X182.95 Y157.317 E5.53117
G1 X183.376 Y158.153 E5.56238
G1 X183.729 Y159.022 E5.59357
G1 X184.007 Y159.918 E5.62478
G1 X184.207 Y160.834 E5.65596
G1 X184.329 Y161.764 E5.68716
G1 X184.371 Y162.701 E5.71835
G1 X184.333 Y163.638 E5.74954
G1 X184.215 Y164.568 E5.78072
G1 X184.019 Y165.485 E5.81191
G1 X183.745 Y166.382 E5.84311
G1 X183.396 Y167.253 E5.87432
G1 X182.974 Y168.09 E5.90549
G1 X182.482 Y168.889 E5.9367
G1 X181.924 Y169.642 E5.96787
G1 X181.373 Y170.273 E5.99574
G1 X180.916 Y170.75 E6.01771
G1 X172.194 Y179.47 E6.42792
G1 X171.703 Y179.944 E6.45062
G1 X171.001 Y180.566 E6.48181
G1 X170.249 Y181.126 E6.513
G1 X169.451 Y181.62 E6.54421
G1 X168.615 Y182.044 E6.57539
G1 X167.745 Y182.395 E6.60659
G1 X166.849 Y182.671 E6.63777
G1 X165.932 Y182.87 E6.66898
G1 X165.002 Y182.99 E6.70017
G1 X164.065 Y183.03 E6.73137
G1 X163.128 Y182.99 E6.76256
G1 X162.198 Y182.871 E6.79374
G1 X161.281 Y182.672 E6.82495
G1 X160.385 Y182.397 E6.85613
G1 X159.515 Y182.046 E6.88733
G1 X158.678 Y181.622 E6.91853
G1 X157.881 Y181.128 E6.94972
G1 X157.128 Y180.569 E6.98091
G1 X156.492 Y180.01 E7.00908
G1 X156.051 Y179.586 E7.02942
G1 X54.178 Y77.711 E11.82126
G1 X53.712 Y77.229 E11.84356
G1 X53.089 Y76.527 E11.87478
G1 X52.529 Y75.775 E11.90597
G1 X52.034 Y74.978 E11.93717
G1 X51.609 Y74.142 E11.96836
G1 X51.257 Y73.273 E11.99955
G1 X50.981 Y72.377 E12.03073
G1 X50.781 Y71.46 E12.06195
G1 X50.661 Y70.53 E12.09313
G1 X50.62 Y69.593 E12.12433
G1 X50.659 Y68.656 E12.15552
G1 X50.778 Y67.726 E12.18671
G1 X50.975 Y66.809 E12.2179
G1 X51.25 Y65.913 E12.24907
G1 X51.601 Y65.043 E12.28028
G1 X52.024 Y64.206 E12.31147
G1 X52.517 Y63.408 E12.34267
G1 X53.076 Y62.655 E12.37386
G1 X53.692 Y61.958 E12.4048
G1 X54.169 Y61.464 E12.42764
G1 X60.048 Y55.588 E12.7041
G0 F6000 X60.327 Y55.875
G1 F900 X60.836 Y55.38 E12.72771
G1 X61.523 Y54.767 E12.75833
G1 X62.261 Y54.217 E12.78895
G1 X63.044 Y53.732 E12.81958
G1 X63.866 Y53.317 E12.85021
G1 X64.721 Y52.975 E12.88084
G1 X65.602 Y52.709 E12.91144
G1 X66.503 Y52.52 E12.94206
G1 X67.417 Y52.41 E12.97268
G1 X68.337 Y52.38 E13.0033
G1 X69.256 Y52.429 E13.03391
G1 X70.168 Y52.558 E13.06454
G1 X71.065 Y52.766 E13.09517
G1 X71.94 Y53.051 E13.12578
G1 X72.788 Y53.411 E13.15642
G1 X73.588 Y53.835 E13.18653
G1 X74.154 Y54.167 E13.20836
G1 X76.429 Y55.458 E13.29536
G1 X78.643 Y56.632 E13.37871
G1 X80.912 Y57.754 E13.4629
G1 X83.614 Y58.991 E13.56174
G1 X84.439 Y59.399 E13.59235
G1 X85.226 Y59.877 E13.62297
G1 X85.968 Y60.421 E13.65358
G1 X86.614 Y60.984 E13.68208
G1 X87.083 Y61.433 E13.70367
G1 X130.309 Y104.659 E15.73689
G1 X131.633 Y105.991 E15.79936
G1 X132.357 Y106.706 E15.8332
G1 X175.522 Y149.872 E17.86357
G1 X176.871 Y151.259 E17.92792
G1 X178.682 Y153.069 E18.01308
G1 X179.689 Y154.038 E18.05957
G1 X180.509 Y154.86 E18.09818
G1 X180.982 Y155.348 E18.12079
G1 X181.594 Y156.036 E18.15141
G1 X182.143 Y156.775 E18.18203
G1 X182.627 Y157.558 E18.21265
G1 X183.04 Y158.381 E18.24328
G1 X183.38 Y159.236 E18.27388
G1 X183.645 Y160.118 E18.30451
G1 X183.833 Y161.019 E18.33512
G1 X183.941 Y161.933 E18.36573
G1 X183.97 Y162.854 E18.39638
G1 X183.919 Y163.773 E18.42699
G1 X183.788 Y164.684 E18.45761
G1 X183.579 Y165.581 E18.48824
G1 X183.293 Y166.456 E18.51886
G1 X182.932 Y167.303 E18.54948
G1 X182.498 Y168.115 E18.5801
G1 X181.996 Y168.887 E18.61073
G1 X181.429 Y169.612 E18.64134
G1 X181.082 Y169.999 E18.65863
G1 X180.633 Y170.467 E18.6802
G1 X171.916 Y179.182 E19.09018
G1 X171.425 Y179.656 E19.11288
G1 X170.736 Y180.266 E19.14348
G1 X169.996 Y180.814 E19.17411
G1 X169.211 Y181.296 E19.20475
G1 X168.388 Y181.708 E19.23536
G1 X167.532 Y182.046 E19.26597
G1 X166.649 Y182.31 E19.29662
G1 X165.748 Y182.495 E19.32721
G1 X164.833 Y182.602 E19.35786
G1 X163.913 Y182.629 E19.38847
G1 X162.994 Y182.576 E19.41908
G1 X162.083 Y182.443 E19.44971
G1 X161.187 Y182.232 E19.48032
G1 X160.312 Y181.944 E19.51096
G1 X159.466 Y181.581 E19.54158
G1 X158.655 Y181.146 E19.57219
G1 X157.884 Y180.643 E19.60281
G1 X157.16 Y180.074 E19.63343
G1 X156.767 Y179.72 E19.65103
G1 X156.334 Y179.303 E19.67102
G1 X54.465 Y77.433 E24.46265
G1 X53.999 Y76.951 E24.48495
G1 X53.389 Y76.262 E24.51556
G1 X52.84 Y75.522 E24.5462
G1 X52.358 Y74.738 E24.57681
G1 X51.946 Y73.915 E24.60742
G1 X51.606 Y73.059 E24.63806
G1 X51.342 Y72.177 E24.66868
G1 X51.156 Y71.275 E24.69931
G1 X51.049 Y70.361 E24.72992
G1 X51.021 Y69.441 E24.76053
G1 X51.073 Y68.522 E24.79115
G1 X51.205 Y67.611 E24.82176
G1 X51.416 Y66.714 E24.85241
G1 X51.703 Y65.84 E24.88301
G1 X52.065 Y64.993 E24.91364
G1 X52.5 Y64.181 E24.94428
G1 X53.003 Y63.41 E24.9749
G1 X53.571 Y62.686 E25.00551
G1 X53.98 Y62.235 E25.02576
G1 X54.452 Y61.747 E25.04834
G1 X60.327 Y55.875 E25.32461
G0 F6000 X60.606 Y56.162
G1 F900 X61.115 Y55.667 E25.34822
G1 X61.789 Y55.066 E25.37826
G1 X62.515 Y54.528 E25.40831
G1 X63.284 Y54.056 E25.43832
G1 X64.093 Y53.654 E25.46837
G1 X64.934 Y53.325 E25.49841
G1 X65.801 Y53.071 E25.52846
G1 X66.687 Y52.896 E25.55849
G1 X67.585 Y52.799 E25.58853
G1 X68.488 Y52.782 E25.61857
G1 X69.389 Y52.845 E25.64861
G1 X70.28 Y52.988 E25.67863
G1 X71.156 Y53.209 E25.70868
G1 X72.009 Y53.506 E25.73872
G1 X72.832 Y53.878 E25.76876
G1 X73.385 Y54.18 E25.78972
G1 X73.96 Y54.517 E25.81188
G1 X76.209 Y55.793 E25.89789
G1 X78.486 Y57.001 E25.98362
G1 X80.718 Y58.105 E26.06644
G1 X83.452 Y59.357 E26.16645
G1 X84.261 Y59.758 E26.19648
G1 X85.032 Y60.228 E26.22652
G1 X85.758 Y60.765 E26.25655
G1 X86.339 Y61.274 E26.28224
G1 X86.8 Y61.716 E26.30348
G1 X130.025 Y104.941 E28.33666
G1 X131.352 Y106.276 E28.39926
G1 X132.075 Y106.989 E28.43303
G1 X175.235 Y150.151 E30.4632
G1 X176.549 Y151.502 E30.52588
G1 X178.406 Y153.358 E30.6132
G1 X179.406 Y154.321 E30.65938
G1 X180.222 Y155.138 E30.69778
G1 X180.695 Y155.626 E30.72039
G1 X181.294 Y156.302 E30.75043
G1 X181.832 Y157.028 E30.78048
G1 X182.302 Y157.798 E30.81049
G1 X182.703 Y158.608 E30.84055
G1 X183.031 Y159.449 E30.87057
G1 X183.283 Y160.317 E30.90063
G1 X183.457 Y161.203 E30.93067
G1 X183.552 Y162.101 E30.9607
G1 X183.567 Y163.004 E30.99074
G1 X183.503 Y163.905 E31.02078
G1 X183.359 Y164.796 E31.0508
G1 X183.136 Y165.671 E31.08083
G1 X182.837 Y166.524 E31.1109
G1 X182.464 Y167.346 E31.14092
G1 X182.02 Y168.132 E31.17094
G1 X181.508 Y168.876 E31.20098
G1 X180.791 Y169.724 E31.23792
G1 X180.35 Y170.184 E31.25911
G1 X171.638 Y178.894 E31.66885
G1 X171.147 Y179.368 E31.69155
G1 X170.47 Y179.966 E31.72159
G1 X169.743 Y180.502 E31.75164
G1 X168.972 Y180.971 E31.78165
G1 X168.162 Y181.37 E31.81168
G1 X167.319 Y181.696 E31.84174
G1 X166.452 Y181.946 E31.87176
G1 X165.565 Y182.119 E31.90181
G1 X164.667 Y182.212 E31.93184
G1 X163.764 Y182.226 E31.96188
G1 X162.863 Y182.159 E31.99193
G1 X161.972 Y182.013 E32.02196
G1 X161.097 Y181.789 E32.052
G1 X160.245 Y181.489 E32.08204
G1 X159.424 Y181.114 E32.11206
G1 X158.638 Y180.668 E32.14212
G1 X157.896 Y180.154 E32.17214
G1 X157.043 Y179.43 E32.20936
G1 X156.617 Y179.02 E32.22902
G1 X54.753 Y77.155 E37.02041
G1 X54.287 Y76.673 E37.04271
G1 X53.688 Y75.996 E37.07278
G1 X53.152 Y75.27 E37.10279
G1 X52.682 Y74.498 E37.13285
G1 X52.283 Y73.689 E37.16286
G1 X51.956 Y72.847 E37.1929
G1 X51.705 Y71.979 E37.22295
G1 X51.532 Y71.093 E37.25298
G1 X51.438 Y70.194 E37.28304
G1 X51.424 Y69.291 E37.31308
G1 X51.49 Y68.391 E37.34309
G1 X51.635 Y67.499 E37.37315
G1 X51.859 Y66.624 E37.40319
G1 X52.159 Y65.772 E37.43323
G1 X52.533 Y64.95 E37.46327
G1 X52.978 Y64.165 E37.49328
G1 X53.491 Y63.422 E37.52331
G1 X54.268 Y62.512 E37.56311
G1 X54.735 Y62.03 E37.58543
G1 X60.606 Y56.162 E37.86152
G1 F2700 E32.86152
;MESH:Right_Rear_Spar_Inner.stl
G0 F6000 X78.727 Y68.353
G0 X79.339 Y68.964
;TYPE:WALL-OUTER
G1 F2700 E37.86152
G1 F900 X74.639 Y73.662 E38.08254
G1 X74.503 Y73.702 E38.08726
G1 X74.375 Y73.644 E38.09193
G1 X72.961 Y72.23 E38.15844
G1 X72.903 Y72.089 E38.16351
G1 X72.961 Y71.946 E38.16865
G1 X74.94 Y69.968 E38.26171
G1 X68.224 Y63.251 E38.57763
G1 X61.889 Y69.585 E38.87559
G1 X164.065 Y171.761 E43.68163
G1 X173.101 Y162.725 E44.10666
G1 X172.536 Y162.16 E44.13324
G1 X171.971 Y161.595 E44.15981
G1 X167.361 Y166.205 E44.37665
G1 X167.19 Y166.262 E44.38265
G1 X167.077 Y166.205 E44.38686
G1 X163.541 Y162.669 E44.55318
G1 X163.483 Y162.541 E44.55785
G1 X163.541 Y162.385 E44.56339
G1 X168.151 Y157.775 E44.78023
G1 X124.594 Y114.218 E46.82902
G1 X119.984 Y118.829 E47.04588
G1 X119.828 Y118.887 E47.05142
G1 X119.7 Y118.829 E47.05609
G1 X118.286 Y117.414 E47.12262
G1 X118.228 Y117.286 E47.1273
G1 X118.286 Y117.13 E47.13283
G1 X122.896 Y112.52 E47.34967
G1 X79.339 Y68.964 E49.39844
G1 F2700 E44.39844
G0 F6000 X79.951 Y68.351
G0 X168.48 Y156.88
G0 X167.585 Y157.775
;TYPE:WALL-INNER
G1 F2700 E49.39844
G1 F900 X124.594 Y114.784 E51.4206
G1 X120.267 Y119.112 E51.62416
G1 X120.038 Y119.255 E51.63313
G1 X119.801 Y119.286 E51.64108
G1 X119.535 Y119.203 E51.65035
G1 X119.417 Y119.112 E51.65531
G1 X118.003 Y117.697 E51.72184
G1 X117.853 Y117.447 E51.73154
G1 X117.833 Y117.187 E51.74021
G1 X117.95 Y116.908 E51.75027
G1 X118.094 Y116.756 E51.75724
G1 X122.33 Y112.52 E51.95649
G1 X79.339 Y69.53 E53.97863
G1 X74.942 Y73.927 E54.18545
G1 X74.713 Y74.07 E54.19443
G1 X74.475 Y74.101 E54.20241
G1 X74.21 Y74.018 E54.21165
G1 X74.092 Y73.927 E54.2166
G1 X72.678 Y72.513 E54.28312
G1 X72.521 Y72.237 E54.29368
G1 X72.517 Y71.957 E54.30299
G1 X72.601 Y71.758 E54.31017
G1 X72.678 Y71.663 E54.31424
G1 X74.374 Y69.968 E54.39399
G1 X68.224 Y63.817 E54.68329
G1 X62.455 Y69.585 E54.95463
G1 X66.56 Y73.689 E55.14769
G1 X68.411 Y75.542 E55.2348
G1 X70.444 Y77.573 E55.33038
G1 X73.815 Y80.945 E55.48897
G1 X111.43 Y118.56 E57.25826
G1 X156.686 Y163.816 E59.38696
G1 X158.968 Y166.099 E59.49433
G1 X162.207 Y169.336 E59.64663
G1 X164.065 Y171.195 E59.73405
G1 X166.793 Y168.466 E59.86239
G1 X167.501 Y167.76 E59.89564
G1 X172.252 Y163.007 E60.11916
G1 X172.535 Y162.725 E60.13245
G1 X172.253 Y162.443 E60.14572
G1 X171.971 Y162.161 E60.15898
G1 X167.644 Y166.488 E60.36251
G1 X167.134 Y166.658 E60.38039
G1 X166.794 Y166.488 E60.39303
G1 X163.258 Y162.952 E60.55936
G1 X163.109 Y162.702 E60.56904
G1 X163.088 Y162.442 E60.57771
G1 X163.205 Y162.163 E60.58777
G1 X163.349 Y162.011 E60.59474
G1 X167.585 Y157.775 E60.79399
G1 F2700 E55.79399
G0 F6000 X168.48 Y158.67
G0 X170.793 Y161.548
G0 X171.971 Y162.725
;TYPE:SKIN
G1 F2700 E60.79399
G1 F757.9 X169.952 Y164.744 E60.90676
G1 F759.5 X167.933 Y166.763 E61.0193
G0 F6000 X166.585 Y166.776
G1 F900 X166.533 Y166.738 E61.02144
G1 X162.997 Y163.198 E61.18786
G1 X162.844 Y162.996 E61.19628
G1 X162.754 Y162.761 E61.20465
G1 X162.73 Y162.433 E61.21559
G1 X162.824 Y162.102 E61.22704
G1 X162.989 Y161.866 E61.23661
G1 X163.096 Y161.756 E61.24172
G1 X167.075 Y157.776 E61.4289
G1 X124.593 Y115.293 E63.42715
G1 X120.445 Y119.435 E63.62212
G1 X120.18 Y119.584 E63.63223
G1 X119.816 Y119.645 E63.6445
G1 X119.386 Y119.529 E63.65932
G1 X119.17 Y119.374 E63.66816
G1 X117.757 Y117.96 E63.73465
G1 X117.589 Y117.741 E63.74383
G1 X117.499 Y117.506 E63.7522
G1 X117.475 Y117.178 E63.76313
G1 X117.569 Y116.847 E63.77458
G1 X117.734 Y116.611 E63.78416
G1 X117.841 Y116.501 E63.78926
G1 X121.82 Y112.521 E63.97644
G1 X79.339 Y70.04 E65.97462
G1 X75.193 Y74.185 E66.16961
G1 X74.855 Y74.399 E66.18292
G1 X74.491 Y74.46 E66.19519
G1 X74.061 Y74.344 E66.21001
G1 X73.845 Y74.189 E66.21885
G1 X72.435 Y72.779 E66.28517
G1 X72.253 Y72.535 E66.29529
G1 X72.168 Y72.304 E66.30348
G1 X72.148 Y72.046 E66.31209
G1 X72.214 Y71.733 E66.32273
G1 X72.402 Y71.434 E66.33447
G1 X72.425 Y71.407 E66.33565
G1 X73.864 Y69.968 E66.40334
G1 X68.224 Y64.327 E66.66865
G1 X62.965 Y69.585 E66.916
G1 X164.065 Y170.685 E71.67143
G1 X167.391 Y167.357 E71.82792
G1 F871.7 X167.625 Y167.104 E71.83976
G1 F820 X167.86 Y166.85 E71.85239
G1 F777.5 X167.933 Y166.763 E71.85676
G1 X167.837 Y166.811 E71.86089
G1 F820 X167.505 Y166.907 E71.87351
G1 F871.7 X167.173 Y167.003 E71.88538
G1 F900 X167.019 Y166.992 E71.89051
G1 X166.585 Y166.776 E71.90664
G1 F2700 E66.90664
G0 F6000 X167.219 Y165.139
G0 X169.359 Y157.775
G0 X124.595 Y113.01
G0 X122.563 Y114.077
G0 X121.271 Y112.786
G1 F2700 E71.90664
G1 F900 X79.073 Y70.588 E73.8915
G0 F6000 X78.79 Y70.871
G1 F900 X120.988 Y113.069 E75.87636
G0 F6000 X120.706 Y113.352
G1 F900 X78.507 Y71.154 E77.86125
G0 F6000 X78.225 Y71.436
G1 F900 X120.423 Y113.635 E79.84614
G0 F6000 X120.14 Y113.918
G1 F900 X77.942 Y71.719 E81.83103
G0 F6000 X77.659 Y72.002
G1 F900 X119.858 Y114.201 E83.81594
G0 F6000 X119.575 Y114.484
G1 F900 X77.376 Y72.285 E85.80085
G0 F6000 X77.093 Y72.568
G1 F900 X119.293 Y114.767 E87.78579
G0 F6000 X119.011 Y115.051
G1 F900 X76.81 Y72.851 E89.77077
G0 F6000 X76.528 Y73.133
G1 F900 X118.728 Y115.334 E91.75575
G0 F6000 X118.445 Y115.616
G1 F900 X76.245 Y73.416 E93.74071
G0 F6000 X75.962 Y73.699
G1 F900 X118.163 Y115.9 E95.72572
G0 F6000 X117.88 Y116.183
G1 F900 X75.679 Y73.982 E97.71072
G0 F6000 X75.391 Y74.259
G1 F900 X117.597 Y116.466 E99.69599
G0 F6000 X117.374 Y116.809
G1 F900 X75.069 Y74.504 E101.68588
G0 F6000 X74.64 Y74.64
G1 F900 X117.297 Y117.297 E103.69234
G0 F6000 X119.842 Y119.842
G1 F900 X162.552 Y162.552 E105.70128
G0 F6000 X162.63 Y162.064
G1 F900 X120.298 Y119.732 E107.69245
G0 F6000 X120.641 Y119.51
G1 F900 X162.853 Y161.721 E109.67795
G0 F6000 X163.135 Y161.438
G1 F900 X120.93 Y119.233 E111.66315
G0 F6000 X121.212 Y118.95
G1 F900 X163.418 Y161.155 E113.64836
G0 F6000 X163.7 Y160.872
G1 F900 X121.495 Y118.667 E115.63356
G0 F6000 X121.779 Y118.385
G1 F900 X163.983 Y160.589 E117.6187
G0 F6000 X164.266 Y160.306
G1 F900 X122.062 Y118.102 E119.60385
G0 F6000 X122.345 Y117.82
G1 F900 X164.548 Y160.023 E121.58895
G0 F6000 X164.831 Y159.74
G1 F900 X122.628 Y117.537 E123.57405
G0 F6000 X122.911 Y117.254
G1 F900 X165.114 Y159.457 E125.55915
G0 F6000 X165.396 Y159.173
G1 F900 X123.194 Y116.972 E127.54418
G0 F6000 X123.477 Y116.689
G1 F900 X165.679 Y158.891 E129.52923
G0 F6000 X165.962 Y158.608
G1 F900 X123.76 Y116.406 E131.51428
G0 F6000 X124.044 Y116.124
G1 F900 X166.244 Y158.324 E133.49924
G0 F6000 X166.527 Y158.041
G1 F900 X124.327 Y115.841 E135.4842
G1 F2700 E130.4842
G0 F6000 X123.037 Y114.552
