;FLAVOR:Marlin
;TIME:2362
;Filament used: 1.38036m
;Layer height: 0.2
;MINX:52.466
;MINY:55.356
;MINZ:0.2
;MAXX:182.442
;MAXY:179.73
;MAXZ:2
;Generated with Cura_SteamEngine 5.0.0
M140 S70
M105
M190 S70
M104 S200
M105
M109 S200
M82 ;absolute extrusion mode
; Ender 3 Custom Start G-code
G28 ; Home all axes
M420 S1; Bed Leveling On
G92 E0 ; Reset Extruder
G1 Z2.0 F3000 ; Move Z Axis up little to prevent scratching of Heat Bed
G1 X0.1 Y20 Z0.3 F5000.0 ; Move to start position
G1 X0.1 Y200.0 Z0.3 F1500.0 E15 ; Draw the first line
G1 X0.4 Y200.0 Z0.3 F5000.0 ; Move to side a little
G1 X0.4 Y20 Z0.3 F1500.0 E30 ; Draw the second line
G92 E0 ; Reset Extruder
G1 Z2.0 F3000 ; Move Z Axis up little to prevent scratching of Heat Bed
G1 X5 Y20 Z0.3 F5000.0 ; Move over to prevent blob squish
G92 E0
G92 E0
G1 F2700 E-5
;LAYER_COUNT:10
;LAYER:0
M107
G0 F6000 X56.724 Y58.784 Z0.2
G0 X52.52 Y67.561
;TYPE:SKIRT
G1 F2700 E0
G1 F900 X52.572 Y67.046 E0.01722
G1 X52.706 Y66.118 E0.0484
G1 X52.866 Y65.399 E0.0729
G1 X52.997 Y64.892 E0.09032
G1 X53.27 Y63.995 E0.1215
G1 X53.771 Y62.8 E0.1646
G1 X53.951 Y62.433 E0.1782
G1 X54.399 Y61.609 E0.20939
G1 X54.916 Y60.827 E0.24057
G1 X55.44 Y60.149 E0.26907
G1 X56.053 Y59.439 E0.30027
G1 X56.724 Y58.784 E0.33146
G1 X57.184 Y58.393 E0.35154
G1 X57.502 Y58.138 E0.36509
G1 X58.259 Y57.583 E0.39631
G1 X59.059 Y57.095 E0.42748
G1 X59.831 Y56.699 E0.45634
G1 X60.687 Y56.316 E0.48753
G1 X61.684 Y55.976 E0.52257
G1 X62.061 Y55.867 E0.53562
G1 X62.972 Y55.645 E0.56681
G1 X63.596 Y55.539 E0.58786
G1 X64.105 Y55.468 E0.60495
G1 X65.417 Y55.365 E0.64872
G1 X65.894 Y55.356 E0.66459
G1 X67.013 Y55.392 E0.70183
G1 X67.795 Y55.457 E0.72793
G1 X68.757 Y55.58 E0.76018
G1 X69.301 Y55.674 E0.77854
G1 X69.787 Y55.769 E0.79501
G1 X70.692 Y55.974 E0.82588
G1 X71.077 Y56.072 E0.83909
G1 X71.634 Y56.229 E0.85834
G1 X72.819 Y56.598 E0.89962
G1 X73.221 Y56.732 E0.91371
G1 X74.421 Y57.163 E0.95612
G1 X75.598 Y57.628 E0.99821
G1 X76.809 Y58.145 E1.04201
G1 X78.028 Y58.699 E1.08654
G1 X79.377 Y59.346 E1.1363
G1 X80.51 Y59.917 E1.1785
G1 X81.097 Y60.228 E1.2006
G1 X81.906 Y60.702 E1.23178
G1 X82.672 Y61.243 E1.26297
G1 X83.38 Y61.839 E1.29376
G1 X84.121 Y62.522 E1.32727
G1 X85.55 Y63.887 E1.393
G1 X86.179 Y64.475 E1.42164
G1 X129.992 Y106.087 E3.43137
G1 X141.711 Y117.246 E3.96959
G1 X146.805 Y122.121 E4.2041
G1 X149.697 Y124.915 E4.33785
G1 X150.161 Y125.375 E4.35958
G1 X152.14 Y127.288 E4.45112
G1 X155.579 Y130.656 E4.61122
G1 X159.697 Y134.735 E4.80401
G1 X162.79 Y137.838 E4.94973
G1 X165.855 Y140.955 E5.09512
G1 X168.668 Y143.858 E5.22957
G1 X169.96 Y145.208 E5.29172
G1 X171.561 Y146.906 E5.36934
G1 X173.615 Y149.126 E5.46994
G1 X174.057 Y149.627 E5.49216
G1 X174.647 Y150.356 E5.52335
G1 X175.172 Y151.133 E5.55454
G1 X175.729 Y152.153 E5.59319
G1 X176.1 Y152.931 E5.62186
G1 X176.617 Y154.049 E5.66283
G1 X177.754 Y156.341 E5.74793
G1 X178.932 Y158.552 E5.83125
G1 X180.177 Y160.74 E5.91498
G1 X180.705 Y161.648 E5.94992
G1 X180.849 Y161.911 E5.95989
G1 X181.377 Y163.016 E6.00062
G1 X181.556 Y163.452 E6.0163
G1 X181.875 Y164.334 E6.04749
G1 X182.084 Y165.094 E6.07371
G1 X182.134 Y165.305 E6.08092
G1 X182.311 Y166.226 E6.11211
G1 X182.404 Y167.088 E6.14095
G1 X182.418 Y167.292 E6.14775
G1 X182.442 Y168.229 E6.17893
G1 X182.387 Y169.166 E6.21014
G1 X182.245 Y170.129 E6.24252
G1 X182.196 Y170.383 E6.25112
G1 X181.979 Y171.295 E6.2823
G1 X181.685 Y172.186 E6.31351
G1 X181.317 Y173.048 E6.34468
G1 X180.876 Y173.876 E6.37589
G1 X180.419 Y174.59 E6.40408
G1 X180.274 Y174.798 E6.41252
G1 X179.705 Y175.543 E6.44369
G1 X179.075 Y176.238 E6.47489
G1 X178.388 Y176.877 E6.5061
G1 X177.649 Y177.454 E6.53728
G1 X176.864 Y177.967 E6.56847
G1 X176.037 Y178.411 E6.59969
G1 X175.529 Y178.641 E6.61824
G1 X175.098 Y178.823 E6.6338
G1 X174.219 Y179.15 E6.66499
G1 X173.316 Y179.402 E6.69618
G1 X172.394 Y179.576 E6.72738
G1 X171.886 Y179.637 E6.7444
G1 X171.455 Y179.679 E6.7588
G1 X170.518 Y179.73 E6.79001
G1 X169.777 Y179.714 E6.81467
G1 X169.166 Y179.68 E6.83502
G1 X167.854 Y179.528 E6.87895
G1 X166.857 Y179.346 E6.91266
G1 X166.126 Y179.194 E6.93749
G1 X163.63 Y178.709 E7.02206
G1 X161.14 Y178.298 E7.106
G1 X158.64 Y177.958 E7.18991
G1 X156.064 Y177.68 E7.27609
G1 X155.08 Y177.593 E7.30895
G1 X154.15 Y177.47 E7.34015
G1 X153.234 Y177.269 E7.37134
G1 X152.339 Y176.99 E7.40252
G1 X151.318 Y176.565 E7.4393
G1 X150.497 Y176.172 E7.46958
G1 X149.183 Y175.518 E7.51839
G1 X147.374 Y174.577 E7.58621
G1 X145.87 Y173.76 E7.64314
G1 X144.398 Y172.931 E7.69933
G1 X142.83 Y172.014 E7.75975
G1 X141.424 Y171.164 E7.81439
G1 X139.657 Y170.064 E7.88362
G1 X138.538 Y169.346 E7.92784
G1 X136.639 Y168.094 E8.00349
G1 X135.508 Y167.328 E8.04893
G1 X133.587 Y165.991 E8.12677
G1 X132.501 Y165.218 E8.17111
G1 X130.561 Y163.804 E8.25095
G1 X129.54 Y163.043 E8.29331
G1 X127.474 Y161.469 E8.37969
G1 X126.566 Y160.762 E8.41797
G1 X124.368 Y159.017 E8.51131
G1 X123.595 Y158.39 E8.54441
G1 X121.353 Y156.54 E8.64109
G1 X120.552 Y155.867 E8.67589
G1 X118.293 Y153.934 E8.77478
G1 X117.577 Y153.309 E8.80639
G1 X115.324 Y151.315 E8.90646
G1 X114.518 Y150.589 E8.94254
G1 X112.284 Y148.545 E9.04325
G1 X111.481 Y147.798 E9.07972
G1 X108.537 Y145.01 E9.21458
G1 X105.619 Y142.166 E9.35011
G1 X102.494 Y139.033 E9.49729
G1 X99.49 Y135.938 E9.64074
G1 X96.524 Y132.801 E9.78433
G1 X93.524 Y129.552 E9.93141
G1 X90.608 Y126.316 E10.07629
G1 X87.675 Y122.983 E10.22396
G1 X84.929 Y119.792 E10.36398
G1 X79.456 Y113.238 E10.64798
G1 X78.778 Y112.409 E10.6836
G1 X73.846 Y106.252 E10.94598
G1 X73.18 Y105.404 E10.98184
G1 X68.38 Y99.188 E11.24306
G1 X67.854 Y98.496 E11.27197
G1 X62.709 Y91.604 E11.55802
G1 X60.391 Y88.427 E11.68883
G1 X58.445 Y85.721 E11.79969
G1 X58.096 Y85.222 E11.81994
G1 X57.41 Y84.106 E11.86351
G1 X56.78 Y82.916 E11.90829
G1 X56.259 Y81.862 E11.9474
G1 X55.658 Y80.595 E11.99404
G1 X55.124 Y79.403 E12.03748
G1 X54.627 Y78.214 E12.08034
G1 X54.148 Y76.977 E12.12446
G1 X53.857 Y76.157 E12.1534
G1 X53.724 Y75.756 E12.16746
G1 X53.35 Y74.558 E12.2092
G1 X53.133 Y73.788 E12.23581
G1 X52.927 Y72.909 E12.26583
G1 X52.759 Y72.053 E12.29485
G1 X52.679 Y71.584 E12.31067
G1 X52.619 Y71.175 E12.32442
G1 X52.541 Y70.489 E12.34738
G1 X52.513 Y70.152 E12.35863
G1 X52.477 Y69.451 E12.38198
G1 X52.466 Y68.876 E12.40111
G1 X52.52 Y67.561 E12.44488
G0 F6000 X52.866 Y68.869
G1 F900 X52.918 Y67.601 E12.48709
G1 X52.97 Y67.086 E12.5043
G1 X53.102 Y66.175 E12.53492
G1 X53.253 Y65.499 E12.55796
G1 X53.384 Y64.992 E12.57538
G1 X53.653 Y64.112 E12.60598
G1 X54.13 Y62.976 E12.64696
G1 X54.31 Y62.609 E12.66056
G1 X54.751 Y61.801 E12.69117
G1 X55.515 Y60.699 E12.73577
G1 X55.754 Y60.397 E12.74858
G1 X56.356 Y59.701 E12.77919
G1 X57.016 Y59.059 E12.80981
G1 X57.435 Y58.705 E12.82806
G1 X57.753 Y58.45 E12.84161
G1 X58.495 Y57.906 E12.87222
G1 X59.654 Y57.234 E12.91677
G1 X60.009 Y57.057 E12.92997
G1 X60.85 Y56.682 E12.96059
G1 X61.795 Y56.36 E12.9938
G1 X62.172 Y56.251 E13.00685
G1 X63.067 Y56.034 E13.03748
G1 X63.652 Y55.936 E13.05721
G1 X64.161 Y55.865 E13.0743
G1 X65.425 Y55.765 E13.11648
G1 X65.902 Y55.756 E13.13234
G1 X66.98 Y55.79 E13.16822
G1 X67.762 Y55.855 E13.19432
G1 X68.689 Y55.974 E13.2254
G1 X69.233 Y56.068 E13.24376
G1 X69.702 Y56.16 E13.25966
G1 X70.594 Y56.362 E13.29008
G1 X70.979 Y56.46 E13.30329
G1 X71.516 Y56.611 E13.32185
G1 X72.701 Y56.98 E13.36313
G1 X73.088 Y57.109 E13.37669
G1 X74.276 Y57.536 E13.41868
G1 X75.443 Y57.997 E13.46041
G1 X76.644 Y58.509 E13.50384
G1 X77.855 Y59.06 E13.54809
G1 X79.198 Y59.704 E13.59763
G1 X80.323 Y60.27 E13.63951
G1 X80.91 Y60.581 E13.66161
G1 X81.704 Y61.047 E13.69223
G1 X82.454 Y61.58 E13.72283
G1 X83.11 Y62.134 E13.75139
G1 X83.845 Y62.811 E13.78463
G1 X85.322 Y64.222 E13.85257
G1 X85.904 Y64.765 E13.87904
G1 X129.716 Y106.377 E15.88875
G1 X141.434 Y117.535 E16.42692
G1 X146.527 Y122.408 E16.66136
G1 X149.415 Y125.199 E16.79494
G1 X149.836 Y125.617 E16.81467
G1 X151.86 Y127.574 E16.90831
G1 X155.297 Y130.941 E17.06834
G1 X159.413 Y135.018 E17.26103
G1 X162.505 Y138.119 E17.40668
G1 X165.568 Y141.234 E17.55198
G1 X168.379 Y144.134 E17.68631
G1 X169.669 Y145.483 E17.74839
G1 X171.267 Y147.178 E17.82587
G1 X173.315 Y149.39 E17.92614
G1 X173.757 Y149.891 E17.94836
G1 X174.335 Y150.608 E17.97899
G1 X174.849 Y151.371 E18.00959
G1 X175.368 Y152.325 E18.04571
G1 X175.737 Y153.099 E18.07423
G1 X176.267 Y154.246 E18.11625
G1 X177.386 Y156.5 E18.19995
G1 X178.574 Y158.732 E18.28405
G1 X179.859 Y160.988 E18.3704
G1 X180.355 Y161.84 E18.40319
G1 X180.499 Y162.103 E18.41316
G1 X181.007 Y163.168 E18.45241
G1 X181.186 Y163.604 E18.46809
G1 X181.498 Y164.47 E18.4987
G1 X181.694 Y165.186 E18.52339
G1 X181.744 Y165.397 E18.5306
G1 X181.918 Y166.301 E18.56122
G1 X182.005 Y167.115 E18.58845
G1 X182.019 Y167.319 E18.59525
G1 X182.042 Y168.24 E18.62589
G1 X181.985 Y169.159 E18.65652
G1 X181.852 Y170.053 E18.68658
G1 X181.803 Y170.307 E18.69519
G1 X181.59 Y171.202 E18.72578
G1 X181.299 Y172.076 E18.75642
G1 X180.934 Y172.921 E18.78704
G1 X180.497 Y173.732 E18.81768
G1 X180.091 Y174.361 E18.84258
G1 X179.946 Y174.569 E18.85101
G1 X179.387 Y175.301 E18.88165
G1 X178.767 Y175.981 E18.91225
G1 X178.09 Y176.605 E18.94287
G1 X177.361 Y177.168 E18.97351
G1 X176.587 Y177.666 E19.00412
G1 X175.374 Y178.272 E19.04922
G1 X174.943 Y178.454 E19.06478
G1 X174.08 Y178.775 E19.09541
G1 X173.192 Y179.02 E19.12605
G1 X171.847 Y179.239 E19.17137
G1 X171.416 Y179.281 E19.18577
G1 X170.497 Y179.33 E19.21638
G1 X169.799 Y179.315 E19.2396
G1 X169.188 Y179.281 E19.25996
G1 X167.924 Y179.134 E19.30228
G1 X166.939 Y178.954 E19.33558
G1 X166.276 Y178.816 E19.35811
G1 X163.666 Y178.309 E19.44654
G1 X161.193 Y177.901 E19.5299
G1 X158.701 Y177.562 E19.61355
G1 X156.139 Y177.286 E19.69926
G1 X155.116 Y177.195 E19.73342
G1 X154.203 Y177.073 E19.76405
G1 X153.304 Y176.874 E19.79468
G1 X152.426 Y176.597 E19.8253
G1 X151.49 Y176.204 E19.85906
G1 X150.675 Y175.814 E19.88911
G1 X149.367 Y175.163 E19.93771
G1 X147.564 Y174.225 E20.00531
G1 X146.066 Y173.412 E20.06199
G1 X144.6 Y172.585 E20.11798
G1 X143.036 Y171.671 E20.17823
G1 X141.635 Y170.825 E20.23266
G1 X139.873 Y169.727 E20.30171
G1 X138.758 Y169.012 E20.34577
G1 X136.863 Y167.762 E20.42127
G1 X135.737 Y167 E20.46649
G1 X133.818 Y165.665 E20.54425
G1 X132.737 Y164.895 E20.58839
G1 X130.8 Y163.483 E20.66811
G1 X129.782 Y162.725 E20.71033
G1 X127.72 Y161.153 E20.79657
G1 X126.814 Y160.449 E20.83473
G1 X124.62 Y158.707 E20.92791
G1 X123.849 Y158.081 E20.96094
G1 X121.61 Y156.234 E21.05748
G1 X120.812 Y155.563 E21.09215
G1 X118.556 Y153.632 E21.19092
G1 X117.842 Y153.01 E21.22242
G1 X115.591 Y151.017 E21.32241
G1 X114.788 Y150.293 E21.35837
G1 X112.556 Y148.252 E21.45897
G1 X111.756 Y147.507 E21.49533
G1 X108.816 Y144.723 E21.63
G1 X105.902 Y141.884 E21.76531
G1 X102.781 Y138.754 E21.91232
G1 X99.781 Y135.663 E22.05559
G1 X96.818 Y132.53 E22.19902
G1 X93.821 Y129.284 E22.34596
G1 X90.909 Y126.052 E22.49065
G1 X87.978 Y122.722 E22.6382
G1 X85.236 Y119.536 E22.77801
G1 X79.766 Y112.985 E23.06186
G1 X79.091 Y112.159 E23.09734
G1 X74.16 Y106.004 E23.35965
G1 X73.497 Y105.16 E23.39535
G1 X68.698 Y98.946 E23.65649
G1 X68.174 Y98.256 E23.68531
G1 X63.032 Y91.368 E23.9712
G1 X60.716 Y88.194 E24.10188
G1 X58.773 Y85.492 E24.21257
G1 X58.424 Y84.993 E24.23283
G1 X57.763 Y83.917 E24.27483
G1 X57.138 Y82.739 E24.31918
G1 X56.62 Y81.691 E24.35806
G1 X56.023 Y80.431 E24.40444
G1 X55.493 Y79.248 E24.44755
G1 X54.999 Y78.068 E24.4901
G1 X54.525 Y76.843 E24.53379
G1 X54.234 Y76.023 E24.56273
G1 X54.106 Y75.637 E24.57625
G1 X53.732 Y74.439 E24.61799
G1 X53.52 Y73.684 E24.64408
G1 X53.318 Y72.822 E24.67352
G1 X53.152 Y71.977 E24.70217
G1 X53.015 Y71.117 E24.73113
G1 X52.939 Y70.456 E24.75326
G1 X52.911 Y70.119 E24.76451
G1 X52.877 Y69.444 E24.78699
G1 X52.866 Y68.869 E24.80611
G0 F6000 X53.266 Y68.861
G1 F900 X53.316 Y67.641 E24.84673
G1 X53.368 Y67.126 E24.86394
G1 X53.498 Y66.233 E24.89396
G1 X53.64 Y65.599 E24.91557
G1 X53.771 Y65.092 E24.93298
G1 X54.036 Y64.229 E24.96301
G1 X54.489 Y63.152 E25.00187
G1 X54.669 Y62.785 E25.01547
G1 X55.102 Y61.993 E25.04549
G1 X55.829 Y60.947 E25.08786
G1 X56.068 Y60.645 E25.10066
G1 X56.659 Y59.963 E25.13068
G1 X57.308 Y59.335 E25.16072
G1 X57.685 Y59.017 E25.17712
G1 X58.003 Y58.762 E25.19068
G1 X58.732 Y58.229 E25.22071
G1 X59.833 Y57.592 E25.26302
G1 X60.188 Y57.415 E25.27622
G1 X61.013 Y57.048 E25.30625
G1 X61.906 Y56.744 E25.33762
G1 X62.283 Y56.635 E25.35068
G1 X63.161 Y56.423 E25.38072
G1 X63.707 Y56.332 E25.39913
G1 X64.216 Y56.261 E25.41622
G1 X65.433 Y56.165 E25.45682
G1 X65.91 Y56.156 E25.47269
G1 X66.947 Y56.189 E25.5072
G1 X67.729 Y56.254 E25.5333
G1 X68.621 Y56.368 E25.56321
G1 X69.165 Y56.462 E25.58157
G1 X69.616 Y56.55 E25.59685
G1 X70.495 Y56.749 E25.62683
G1 X70.88 Y56.847 E25.64004
G1 X71.397 Y56.993 E25.65791
G1 X72.582 Y57.362 E25.69919
G1 X72.954 Y57.486 E25.71223
G1 X74.13 Y57.908 E25.75379
G1 X75.287 Y58.365 E25.79516
G1 X76.479 Y58.873 E25.83826
G1 X77.683 Y59.421 E25.88226
G1 X79.019 Y60.062 E25.93154
G1 X80.135 Y60.624 E25.9731
G1 X80.722 Y60.935 E25.9952
G1 X81.501 Y61.393 E26.02525
G1 X82.236 Y61.917 E26.05528
G1 X82.839 Y62.429 E26.08159
G1 X83.569 Y63.101 E26.11459
G1 X85.017 Y64.484 E26.18119
G1 X85.628 Y65.055 E26.209
G1 X129.44 Y106.666 E28.21868
G1 X141.158 Y117.824 E28.75685
G1 X146.249 Y122.696 E28.99123
G1 X149.134 Y125.483 E29.12464
G1 X149.607 Y125.952 E29.1468
G1 X151.58 Y127.86 E29.23808
G1 X155.016 Y131.225 E29.39804
G1 X159.13 Y135.3 E29.59064
G1 X162.22 Y138.399 E29.73619
G1 X165.28 Y141.512 E29.88138
G1 X168.09 Y144.411 E30.01566
G1 X169.378 Y145.757 E30.07762
G1 X170.974 Y147.45 E30.15501
G1 X173.015 Y149.655 E30.25494
G1 X173.457 Y150.156 E30.27717
G1 X174.024 Y150.859 E30.3072
G1 X174.526 Y151.609 E30.33722
G1 X175.007 Y152.498 E30.37084
G1 X175.374 Y153.266 E30.39915
G1 X175.903 Y154.412 E30.44113
G1 X177.04 Y156.701 E30.52614
G1 X178.231 Y158.939 E30.61046
G1 X179.509 Y161.183 E30.69635
G1 X180.004 Y162.032 E30.72904
G1 X180.148 Y162.295 E30.73901
G1 X180.637 Y163.32 E30.77678
G1 X180.816 Y163.756 E30.79246
G1 X181.121 Y164.606 E30.82249
G1 X181.305 Y165.278 E30.84567
G1 X181.355 Y165.489 E30.85288
G1 X181.524 Y166.376 E30.88291
G1 X181.606 Y167.143 E30.90857
G1 X181.62 Y167.347 E30.91537
G1 X181.642 Y168.249 E30.94538
G1 X181.584 Y169.151 E30.97544
G1 X181.459 Y169.977 E31.00323
G1 X181.41 Y170.231 E31.01183
G1 X181.2 Y171.109 E31.04186
G1 X180.913 Y171.966 E31.07192
G1 X180.552 Y172.793 E31.10193
G1 X180.118 Y173.586 E31.132
G1 X179.762 Y174.132 E31.15368
G1 X179.617 Y174.34 E31.16211
G1 X179.069 Y175.057 E31.19212
G1 X178.459 Y175.723 E31.22216
G1 X177.792 Y176.333 E31.25223
G1 X177.074 Y176.881 E31.28227
G1 X176.311 Y177.363 E31.31228
G1 X175.218 Y177.904 E31.35285
G1 X174.787 Y178.086 E31.36841
G1 X173.94 Y178.4 E31.39845
G1 X173.069 Y178.638 E31.42848
G1 X171.808 Y178.841 E31.47097
G1 X171.377 Y178.883 E31.48537
G1 X170.475 Y178.931 E31.51541
G1 X169.821 Y178.915 E31.53717
G1 X169.21 Y178.881 E31.55752
G1 X167.994 Y178.74 E31.59824
G1 X167.02 Y178.562 E31.63117
G1 X166.355 Y178.424 E31.65376
G1 X163.77 Y177.922 E31.74134
G1 X161.241 Y177.504 E31.8266
G1 X158.726 Y177.162 E31.91102
G1 X156.167 Y176.886 E31.99663
G1 X155.151 Y176.796 E32.03055
G1 X154.256 Y176.677 E32.06058
G1 X153.375 Y176.478 E32.09062
G1 X152.515 Y176.203 E32.12065
G1 X151.662 Y175.843 E32.15144
G1 X150.853 Y175.456 E32.18127
G1 X149.552 Y174.808 E32.22961
G1 X147.755 Y173.873 E32.29699
G1 X146.262 Y173.063 E32.35348
G1 X144.801 Y172.24 E32.40926
G1 X143.243 Y171.329 E32.46928
G1 X141.847 Y170.485 E32.52354
G1 X140.089 Y169.391 E32.59241
G1 X138.978 Y168.678 E32.63632
G1 X137.087 Y167.431 E32.71166
G1 X135.965 Y166.671 E32.75673
G1 X134.05 Y165.339 E32.83432
G1 X132.972 Y164.572 E32.87832
G1 X131.039 Y163.162 E32.9579
G1 X130.025 Y162.407 E32.99995
G1 X127.965 Y160.837 E33.08609
G1 X127.063 Y160.135 E33.12411
G1 X124.872 Y158.396 E33.21714
G1 X124.104 Y157.772 E33.25006
G1 X121.867 Y155.928 E33.34648
G1 X121.072 Y155.259 E33.38104
G1 X118.819 Y153.33 E33.47969
G1 X118.107 Y152.71 E33.51109
