;FLAVOR:Marlin
;TIME:2703
;Filament used: 1.88126m
;Layer height: 0.2
;MINX:73.502
;MINY:109.289
;MINZ:0.2
;MAXX:161.498
;MAXY:132.234
;MAXZ:15
;Generated with Cura_SteamEngine 5.0.0
M140 S70
M105
M190 S70
M104 S200
M105
M109 S200
M82 ;absolute extrusion mode
; Ender 3 Custom Start G-code
G28 ; Home all axes
M420 S1; Bed Leveling On
G92 E0 ; Reset Extruder
G1 Z2.0 F3000 ; Move Z Axis up little to prevent scratching of Heat Bed
G1 X0.1 Y20 Z0.3 F5000.0 ; Move to start position
G1 X0.1 Y200.0 Z0.3 F1500.0 E15 ; Draw the first line
G1 X0.4 Y200.0 Z0.3 F5000.0 ; Move to side a little
G1 X0.4 Y20 Z0.3 F1500.0 E30 ; Draw the second line
G92 E0 ; Reset Extruder
G1 Z2.0 F3000 ; Move Z Axis up little to prevent scratching of Heat Bed
G1 X5 Y20 Z0.3 F5000.0 ; Move over to prevent blob squish
G92 E0
G92 E0
G1 F2700 E-5
;LAYER_COUNT:75
;LAYER:0
M107
G0 F6000 X78.133 Y111.336 Z0.2
G0 X73.502 Y120.774
;TYPE:SKIRT
G1 F2700 E0
G1 F900 X73.511 Y120.142 E0.02102
G1 X73.564 Y119.206 E0.0522
G1 X73.697 Y118.278 E0.08338
G1 X73.909 Y117.364 E0.11459
G1 X74.197 Y116.472 E0.14577
G1 X74.561 Y115.607 E0.17698
G1 X74.997 Y114.777 E0.20816
G1 X75.502 Y113.986 E0.23938
G1 X76.072 Y113.242 E0.27055
G1 X76.704 Y112.549 E0.30175
G1 X77.393 Y111.912 E0.33295
G1 X78.133 Y111.336 E0.36414
G1 X78.92 Y110.825 E0.39535
G1 X79.747 Y110.384 E0.42653
G1 X80.609 Y110.014 E0.45773
G1 X81.499 Y109.719 E0.48891
G1 X82.411 Y109.501 E0.5201
G1 X83.339 Y109.362 E0.55131
G1 X84.201 Y109.303 E0.58005
G1 X84.83 Y109.29 E0.60097
G1 X149.792 Y109.289 E2.76162
G1 X150.648 Y109.3 E2.79009
G1 X151.585 Y109.354 E2.82131
G1 X152.513 Y109.486 E2.85248
G1 X153.427 Y109.698 E2.88369
G1 X154.319 Y109.987 E2.91488
G1 X155.184 Y110.35 E2.94608
G1 X156.014 Y110.786 E2.97726
G1 X156.804 Y111.291 E3.00844
G1 X157.549 Y111.862 E3.03966
G1 X158.242 Y112.494 E3.07086
G1 X158.879 Y113.182 E3.10204
G1 X159.454 Y113.923 E3.13324
G1 X159.965 Y114.709 E3.16442
G1 X160.407 Y115.537 E3.19564
G1 X160.776 Y116.398 E3.22679
G1 X161.071 Y117.289 E3.25801
G1 X161.289 Y118.201 E3.2892
G1 X161.429 Y119.128 E3.32038
G1 X161.486 Y119.973 E3.34855
G1 X161.498 Y120.72 E3.3734
G1 X161.489 Y121.376 E3.39522
G1 X161.436 Y122.312 E3.4264
G1 X161.304 Y123.241 E3.45761
G1 X161.093 Y124.155 E3.48881
G1 X160.805 Y125.047 E3.51998
G1 X160.442 Y125.912 E3.55119
G1 X160.006 Y126.743 E3.5824
G1 X159.502 Y127.533 E3.61357
G1 X158.931 Y128.278 E3.64478
G1 X158.3 Y128.971 E3.67596
G1 X157.612 Y129.608 E3.70714
G1 X156.872 Y130.185 E3.73835
G1 X156.085 Y130.696 E3.76956
G1 X155.258 Y131.138 E3.80075
G1 X154.397 Y131.508 E3.83192
G1 X153.506 Y131.803 E3.86314
G1 X152.594 Y132.022 E3.89433
G1 X151.667 Y132.162 E3.92551
G1 X150.817 Y132.22 E3.95385
G1 X150.187 Y132.234 E3.97481
G1 X85.019 Y132.233 E6.14231
G1 X84.32 Y132.221 E6.16556
G1 X83.384 Y132.165 E6.19675
G1 X82.456 Y132.03 E6.22794
G1 X81.543 Y131.816 E6.25913
G1 X80.651 Y131.524 E6.29034
G1 X79.788 Y131.158 E6.32152
G1 X78.959 Y130.72 E6.35271
G1 X78.17 Y130.213 E6.3839
G1 X77.427 Y129.64 E6.41511
G1 X76.736 Y129.006 E6.4463
G1 X76.101 Y128.316 E6.47749
G1 X75.528 Y127.574 E6.50867
G1 X75.019 Y126.786 E6.53987
G1 X74.58 Y125.957 E6.57107
G1 X74.213 Y125.094 E6.60226
G1 X73.92 Y124.203 E6.63345
G1 X73.705 Y123.29 E6.66465
G1 X73.568 Y122.362 E6.69585
G1 X73.513 Y121.524 E6.72378
G1 X73.502 Y120.774 E6.74873
G0 F6000 X73.902 Y120.78
G1 F900 X73.911 Y120.148 E6.76975
G1 X73.964 Y119.229 E6.80037
G1 X74.097 Y118.318 E6.83099
G1 X74.308 Y117.422 E6.86161
G1 X74.596 Y116.547 E6.89225
G1 X74.959 Y115.701 E6.92287
G1 X75.394 Y114.89 E6.95348
G1 X75.898 Y114.119 E6.98411
G1 X76.466 Y113.395 E7.01472
G1 X77.096 Y112.723 E7.04536
G1 X77.781 Y112.109 E7.07595
G1 X78.517 Y111.556 E7.10657
G1 X79.299 Y111.069 E7.13721
G1 X80.119 Y110.651 E7.16782
G1 X80.973 Y110.307 E7.19845
G1 X81.853 Y110.037 E7.22906
G1 X82.754 Y109.846 E7.25969
G1 X83.667 Y109.733 E7.29029
G1 X84.212 Y109.703 E7.30845
G1 X84.83 Y109.69 E7.32901
G1 X149.792 Y109.689 E9.48965
G1 X150.643 Y109.7 E9.51796
G1 X151.562 Y109.753 E9.54857
G1 X152.473 Y109.886 E9.5792
G1 X153.369 Y110.097 E9.60981
G1 X154.243 Y110.385 E9.64042
G1 X155.089 Y110.748 E9.67104
G1 X155.901 Y111.183 E9.70168
G1 X156.671 Y111.687 E9.73229
G1 X157.395 Y112.256 E9.76291
G1 X158.067 Y112.885 E9.79353
G1 X158.682 Y113.571 E9.82417
G1 X159.235 Y114.307 E9.85479
G1 X159.722 Y115.088 E9.8854
G1 X160.139 Y115.909 E9.91603
G1 X160.484 Y116.763 E9.94666
G1 X160.753 Y117.643 E9.97727
G1 X160.945 Y118.543 E10.00788
G1 X161.058 Y119.457 E10.03851
G1 X161.094 Y120.255 E10.06508
G1 X161.098 Y120.714 E10.08034
G1 X161.089 Y121.37 E10.10216
G1 X161.036 Y122.29 E10.13281
G1 X160.904 Y123.201 E10.16343
G1 X160.694 Y124.097 E10.19404
G1 X160.406 Y124.971 E10.22465
G1 X160.043 Y125.818 E10.2553
G1 X159.609 Y126.629 E10.28589
G1 X159.105 Y127.4 E10.31653
G1 X158.537 Y128.125 E10.34716
G1 X157.908 Y128.797 E10.37777
G1 X157.223 Y129.412 E10.40839
G1 X156.487 Y129.965 E10.43901
G1 X155.706 Y130.453 E10.46964
G1 X154.886 Y130.871 E10.50025
G1 X154.032 Y131.216 E10.53089
G1 X153.152 Y131.485 E10.56149
G1 X152.252 Y131.678 E10.59211
G1 X151.338 Y131.791 E10.62274
G1 X150.502 Y131.829 E10.65057
G1 X85.208 Y131.835 E12.82226
G1 X84.327 Y131.821 E12.85157
G1 X83.408 Y131.766 E12.88219
G1 X82.497 Y131.63 E12.91282
G1 X81.602 Y131.417 E12.94342
G1 X80.728 Y131.126 E12.97406
G1 X79.883 Y130.76 E13.00469
G1 X79.073 Y130.323 E13.0353
G1 X78.304 Y129.817 E13.06592
G1 X77.582 Y129.246 E13.09653
G1 X76.912 Y128.615 E13.12714
G1 X76.299 Y127.928 E13.15777
G1 X75.748 Y127.19 E13.1884
G1 X75.263 Y126.407 E13.21903
G1 X74.848 Y125.586 E13.24963
G1 X74.506 Y124.731 E13.28026
G1 X74.24 Y123.85 E13.31087
G1 X74.05 Y122.949 E13.34149
G1 X73.94 Y122.035 E13.37211
G1 X73.905 Y121.221 E13.39921
G1 X73.902 Y120.78 E13.41388
G0 F6000 X74.302 Y120.786
G1 F900 X74.311 Y120.154 E13.4349
G1 X74.364 Y119.252 E13.46495
G1 X74.496 Y118.359 E13.49498
G1 X74.707 Y117.481 E13.52501
G1 X74.995 Y116.625 E13.55505
G1 X75.357 Y115.797 E13.58511
G1 X75.791 Y115.005 E13.61515
G1 X76.294 Y114.255 E13.64518
G1 X76.86 Y113.552 E13.6752
G1 X77.487 Y112.902 E13.70524
G1 X78.169 Y112.31 E13.73527
G1 X78.901 Y111.78 E13.76533
G1 X79.676 Y111.317 E13.79536
G1 X80.489 Y110.925 E13.82538
G1 X81.334 Y110.606 E13.85542
G1 X82.204 Y110.363 E13.88546
G1 X83.092 Y110.198 E13.9155
G1 X84.223 Y110.103 E13.95325
G1 X84.83 Y110.09 E13.97345
G1 X149.792 Y110.089 E16.13409
G1 X150.637 Y110.1 E16.1622
G1 X151.538 Y110.153 E16.19222
G1 X152.432 Y110.285 E16.22228
G1 X153.31 Y110.496 E16.25231
G1 X154.166 Y110.784 E16.28235
G1 X154.993 Y111.146 E16.31237
G1 X155.785 Y111.58 E16.34241
G1 X156.536 Y112.083 E16.37248
G1 X157.239 Y112.65 E16.40251
G1 X157.889 Y113.277 E16.43255
G1 X158.481 Y113.959 E16.46259
G1 X159.01 Y114.69 E16.4926
G1 X159.473 Y115.466 E16.52266
G1 X159.865 Y116.279 E16.55268
G1 X160.184 Y117.124 E16.58272
G1 X160.427 Y117.994 E16.61276
G1 X160.592 Y118.882 E16.6428
G1 X160.687 Y119.997 E16.68002
G1 X160.698 Y120.709 E16.7037
G1 X160.689 Y121.365 E16.72553
G1 X160.637 Y122.267 E16.75558
G1 X160.505 Y123.16 E16.7856
G1 X160.294 Y124.038 E16.81563
G1 X160.007 Y124.894 E16.84566
G1 X159.645 Y125.722 E16.87572
G1 X159.212 Y126.514 E16.90574
G1 X158.71 Y127.265 E16.93578
G1 X158.143 Y127.968 E16.96582
G1 X157.517 Y128.619 E16.99586
G1 X156.835 Y129.211 E17.0259
G1 X156.104 Y129.741 E17.05593
G1 X155.329 Y130.204 E17.08596
G1 X154.515 Y130.597 E17.11602
G1 X153.671 Y130.916 E17.14603
G1 X152.801 Y131.16 E17.17608
G1 X151.913 Y131.325 E17.20612
G1 X150.793 Y131.421 E17.24351
G1 X150.187 Y131.434 E17.26367
G1 X85.033 Y131.433 E19.4307
G1 X84.334 Y131.421 E19.45396
G1 X83.433 Y131.366 E19.48398
G1 X82.54 Y131.231 E19.51402
G1 X81.662 Y131.018 E19.54407
G1 X80.807 Y130.727 E19.57411
G1 X79.981 Y130.363 E19.60413
G1 X79.19 Y129.926 E19.63419
G1 X78.441 Y129.422 E19.66421
G1 X77.74 Y128.853 E19.69424
G1 X77.091 Y128.224 E19.7243
G1 X76.501 Y127.541 E19.75432
G1 X75.974 Y126.808 E19.78435
G1 X75.513 Y126.031 E19.8144
G1 X75.123 Y125.216 E19.84445
G1 X74.807 Y124.37 E19.87448
G1 X74.566 Y123.5 E19.90451
G1 X74.404 Y122.611 E19.93457
G1 X74.313 Y121.502 E19.97158
G1 X74.302 Y120.786 E19.99539
G1 F2700 E14.99539
;MESH:R_LE_Start.stl
G0 F6000 X83.847 Y119.637
G0 X150.263 Y119.625
G0 X150.264 Y120.762
;TYPE:WALL-OUTER
G1 F2700 E19.99539
G1 F762.7 X150.264 Y120.526 E20.00465
G1 X142.983 Y120.526 E20.29041
G1 X135.702 Y120.526 E20.57617
G1 X128.421 Y120.526 E20.86193
G1 X121.14 Y120.526 E21.14768
G1 X113.859 Y120.526 E21.43344
G1 X106.578 Y120.526 E21.7192
G1 X99.297 Y120.526 E22.00495
G1 X92.016 Y120.526 E22.29071
G1 X84.735 Y120.526 E22.57647
G1 F761.1 X84.736 Y120.999 E22.59507
G1 F762.7 X92.017 Y120.999 E22.88083
G1 X99.298 Y120.999 E23.16659
G1 X106.579 Y120.999 E23.45234
G1 X113.86 Y120.999 E23.7381
G1 X121.141 Y120.999 E24.02386
G1 X128.422 Y120.999 E24.30961
G1 X135.703 Y120.999 E24.59537
G1 X142.984 Y120.999 E24.88113
G1 X150.265 Y120.998 E25.16689
G1 X150.264 Y120.762 E25.17615
G1 F2700 E20.17615
;MESH:NONMESH
G0 F300 X150.264 Y120.762 Z0.4
G0 F6000 X150.3 Y120.696
;TIME_ELAPSED:56.922409
;LAYER:1
M140 S60
M106 S85
;TYPE:WALL-OUTER
;MESH:R_LE_Start.stl
G1 F2700 E25.17615
G1 F1200 X150.3 Y120.043 E25.19787
G1 X84.7 Y120.044 E27.37973
G1 X84.7 Y121.35 E27.42317
G1 X150.3 Y121.349 E29.60503
G1 X150.3 Y120.696 E29.62675
G0 F7500 X149.874 Y120.923
;TYPE:WALL-INNER
G1 F1059.6 X149.874 Y120.696 E29.6353
G1 X149.874 Y120.469 E29.64385
G1 X85.126 Y120.47 E32.08272
G1 X85.126 Y120.924 E32.09982
G1 X149.874 Y120.923 E34.53869
G1 F2700 E29.53869
;MESH:NONMESH
G0 F300 X149.874 Y120.923 Z0.6
G0 F7500 X150.3 Y120.622
;TIME_ELAPSED:71.693805
;LAYER:2
M106 S170
;TYPE:WALL-OUTER
;MESH:R_LE_Start.stl
G1 F2700 E34.53869
G1 F1500 X150.3 Y119.688 E34.56976
G1 X84.7 Y119.688 E36.75162
G1 X84.7 Y121.557 E36.81379
G1 X150.3 Y121.556 E38.99565
G1 X150.3 Y120.622 E39.02672
G0 F9000 X149.9 Y121.156
;TYPE:WALL-INNER
G1 F1500 X149.9 Y120.622 E39.04448
G1 X149.9 Y120.088 E39.06224
G1 X85.1 Y120.088 E41.2175
G1 X85.1 Y121.157 E41.25305
G1 X149.9 Y121.156 E43.40831
G1 F2700 E38.40831
G0 F9000 X149.901 Y122.421
G0 X85.448 Y122.421
G0 X85.447 Y120.81
;TYPE:SKIN
G1 F2700 E43.40831
G1 F1604.3 X93.437 Y120.81 E43.65678
G1 X101.427 Y120.81 E43.90526
G1 X109.417 Y120.81 E44.15373
G1 X117.407 Y120.81 E44.40221
G1 X125.397 Y120.81 E44.65068
G1 X133.387 Y120.81 E44.89916
G1 X141.377 Y120.81 E45.14763
G1 X149.367 Y120.809 E45.39611
G1 X149.366 Y120.809 E45.39614
G1 X149.553 Y120.809 E45.40195
G1 X149.553 Y120.435 E45.41358
G1 X142.43 Y120.435 E45.6351
G1 X135.307 Y120.435 E45.85661
G1 X128.184 Y120.435 E46.07812
G1 X121.061 Y120.435 E46.29963
G1 X113.938 Y120.435 E46.52115
G1 X106.815 Y120.435 E46.74266
G1 X99.692 Y120.435 E46.96417
G1 X92.569 Y120.435 E47.18568
G1 X85.446 Y120.435 E47.4072
G1 F1600 X85.447 Y120.81 E47.41889
G1 F2700 E42.41889
;MESH:NONMESH
G0 F300 X85.447 Y120.81 Z0.8
G0 F9000 X84.7 Y119.373
;TIME_ELAPSED:89.392767
;LAYER:3
M106 S255
;TYPE:WALL-OUTER
;MESH:R_LE_Start.stl
G1 F2700 E47.41889
G1 F1500 X84.7 Y121.728 E47.49722
G1 X150.3 Y121.727 E49.67908
G1 X150.3 Y119.373 E49.75738
G1 X84.7 Y119.373 E51.93924
G1 F2700 E46.93924
G0 F9000 X84.699 Y118.508
G0 X83.847 Y118.52
G0 X83.847 Y122.581
G0 X149.901 Y122.592
G0 X149.9 Y121.327
;TYPE:WALL-INNER
G1 F2700 E51.93924
G1 F1500 X149.9 Y119.773 E51.99093
G1 X85.1 Y119.773 E54.14618
G1 X85.1 Y121.328 E54.1979
G1 X149.9 Y121.327 E56.35316
G0 F9000 X149.54 Y120.967
;TYPE:SKIN
G1 F1500 X149.54 Y120.55 E56.36703
G1 X149.54 Y120.133 E56.3809
G1 X85.46 Y120.133 E58.51221
G1 X85.46 Y120.968 E58.53998
G1 X149.54 Y120.967 E60.67129
G0 F9000 X149.339 Y120.492
G1 F1500 X149.064 Y120.767 E60.68423
G0 F9000 X148.933 Y120.332
G1 F1500 X148.498 Y120.767 E60.70469
G0 F9000 X148.367 Y120.332
G1 F1500 X147.933 Y120.767 E60.72512
G0 F9000 X147.802 Y120.332
G1 F1500 X147.367 Y120.767 E60.74559
G0 F9000 X147.236 Y120.332
G1 F1500 X146.801 Y120.767 E60.76605
G0 F9000 X146.67 Y120.332
G1 F1500 X146.236 Y120.767 E60.78648
G0 F9000 X146.105 Y120.332
G1 F1500 X145.67 Y120.767 E60.80695
G0 F9000 X145.539 Y120.332
G1 F1500 X145.104 Y120.767 E60.82741
G0 F9000 X144.973 Y120.332
G1 F1500 X144.538 Y120.767 E60.84787
G0 F9000 X144.408 Y120.332
G1 F1500 X143.973 Y120.767 E60.86833
G0 F9000 X143.842 Y120.332
G1 F1500 X143.407 Y120.767 E60.88879
G0 F9000 X143.276 Y120.332
G1 F1500 X142.841 Y120.767 E60.90925
G0 F9000 X142.711 Y120.332
G1 F1500 X142.276 Y120.767 E60.92971
G0 F9000 X142.145 Y120.332
G1 F1500 X141.71 Y120.767 E60.95017
G0 F9000 X141.579 Y120.332
G1 F1500 X141.144 Y120.767 E60.97063
G0 F9000 X141.014 Y120.332
G1 F1500 X140.579 Y120.767 E60.9911
G0 F9000 X140.448 Y120.332
G1 F1500 X140.013 Y120.767 E61.01156
G0 F9000 X139.882 Y120.332
G1 F1500 X139.447 Y120.767 E61.03202
G0 F9000 X139.317 Y120.332
G1 F1500 X138.882 Y120.767 E61.05248
G0 F9000 X138.751 Y120.332
G1 F1500 X138.316 Y120.767 E61.07294
G0 F9000 X138.185 Y120.332
G1 F1500 X137.75 Y120.767 E61.0934
G0 F9000 X137.619 Y120.332
G1 F1500 X137.185 Y120.767 E61.11384
G0 F9000 X137.054 Y120.332
G1 F1500 X136.619 Y120.767 E61.1343
G0 F9000 X136.488 Y120.332
G1 F1500 X136.053 Y120.767 E61.15476
G0 F9000 X135.922 Y120.332
G1 F1500 X135.488 Y120.767 E61.1752
G0 F9000 X135.357 Y120.332
G1 F1500 X134.922 Y120.767 E61.19566
G0 F9000 X134.791 Y120.332
G1 F1500 X134.356 Y120.767 E61.21612
G0 F9000 X134.225 Y120.332
G1 F1500 X133.79 Y120.767 E61.23658
G0 F9000 X133.66 Y120.332
G1 F1500 X133.225 Y120.767 E61.25704
G0 F9000 X133.094 Y120.332
G1 F1500 X132.659 Y120.767 E61.2775
G0 F9000 X132.528 Y120.332
G1 F1500 X132.093 Y120.767 E61.29796
G0 F9000 X131.963 Y120.332
G1 F1500 X131.528 Y120.767 E61.31843
G0 F9000 X131.397 Y120.332
G1 F1500 X130.962 Y120.767 E61.33889
G0 F9000 X130.831 Y120.332
G1 F1500 X130.396 Y120.767 E61.35935
G0 F9000 X130.266 Y120.332
G1 F1500 X129.831 Y120.767 E61.37981
G0 F9000 X129.7 Y120.332
G1 F1500 X129.265 Y120.767 E61.40027
G0 F9000 X129.134 Y120.332
G1 F1500 X128.699 Y120.767 E61.42073
G0 F9000 X128.568 Y120.332
G1 F1500 X128.134 Y120.767 E61.44117
G0 F9000 X128.003 Y120.332
G1 F1500 X127.568 Y120.767 E61.46163
G0 F9000 X127.437 Y120.332
G1 F1500 X127.002 Y120.767 E61.48209
G0 F9000 X126.871 Y120.332
G1 F1500 X126.437 Y120.767 E61.50253
G0 F9000 X126.306 Y120.332
G1 F1500 X125.871 Y120.767 E61.52299
G0 F9000 X125.74 Y120.332
G1 F1500 X125.305 Y120.767 E61.54345
G0 F9000 X125.174 Y120.332
G1 F1500 X124.74 Y120.767 E61.56389
G0 F9000 X124.609 Y120.332
G1 F1500 X124.174 Y120.767 E61.58435
G0 F9000 X124.043 Y120.332
G1 F1500 X123.608 Y120.767 E61.60481
G0 F9000 X123.477 Y120.332
G1 F1500 X123.042 Y120.767 E61.62527
G0 F9000 X122.912 Y120.332
G1 F1500 X122.477 Y120.767 E61.64573
G0 F9000 X122.346 Y120.332
G1 F1500 X121.911 Y120.767 E61.66619
G0 F9000 X121.78 Y120.332
G1 F1500 X121.345 Y120.767 E61.68665
G0 F9000 X121.215 Y120.332
G1 F1500 X120.78 Y120.767 E61.70712
G0 F9000 X120.649 Y120.332
G1 F1500 X120.214 Y120.767 E61.72758
G0 F9000 X120.083 Y120.332
G1 F1500 X119.648 Y120.767 E61.74804
G0 F9000 X119.518 Y120.332
G1 F1500 X119.083 Y120.767 E61.7685
G0 F9000 X118.952 Y120.332
G1 F1500 X118.517 Y120.767 E61.78896
G0 F9000 X118.386 Y120.332
G1 F1500 X117.951 Y120.767 E61.80942
G0 F9000 X117.82 Y120.332
G1 F1500 X117.386 Y120.767 E61.82986
G0 F9000 X117.255 Y120.332
G1 F1500 X116.82 Y120.767 E61.85032
G0 F9000 X116.689 Y120.332
G1 F1500 X116.254 Y120.767 E61.87078
G0 F9000 X116.123 Y120.332
G1 F1500 X115.689 Y120.767 E61.89122
G0 F9000 X115.558 Y120.332
G1 F1500 X115.123 Y120.767 E61.91168
G0 F9000 X114.992 Y120.332
G1 F1500 X114.557 Y120.767 E61.93214
G0 F9000 X114.426 Y120.332
G1 F1500 X113.991 Y120.767 E61.9526
G0 F9000 X113.861 Y120.332
G1 F1500 X113.426 Y120.767 E61.97306
G0 F9000 X113.295 Y120.332
G1 F1500 X112.86 Y120.767 E61.99352
G0 F9000 X112.729 Y120.332
G1 F1500 X112.294 Y120.767 E62.01398
G0 F9000 X112.164 Y120.332
G1 F1500 X111.729 Y120.767 E62.03445
G0 F9000 X111.598 Y120.332
G1 F1500 X111.163 Y120.767 E62.05491
G0 F9000 X111.032 Y120.332
G1 F1500 X110.597 Y120.767 E62.07537
G0 F9000 X110.467 Y120.332
