;FLAVOR:Marlin
;TIME:5473
;Filament used: 3.21388m
;Layer height: 0.2
;MINX:102.285
;MINY:84.51
;MINZ:0.2
;MAXX:132.725
;MAXY:150.5
;MAXZ:71
;Generated with Cura_SteamEngine 5.0.0
M140 S70
M105
M190 S70
M104 S200
M105
M109 S200
M82 ;absolute extrusion mode
; Ender 3 Custom Start G-code
G28 ; Home all axes
M420 S1; Bed Leveling On
G92 E0 ; Reset Extruder
G1 Z2.0 F3000 ; Move Z Axis up little to prevent scratching of Heat Bed
G1 X0.1 Y20 Z0.3 F5000.0 ; Move to start position
G1 X0.1 Y200.0 Z0.3 F1500.0 E15 ; Draw the first line
G1 X0.4 Y200.0 Z0.3 F5000.0 ; Move to side a little
G1 X0.4 Y20 Z0.3 F1500.0 E30 ; Draw the second line
G92 E0 ; Reset Extruder
G1 Z2.0 F3000 ; Move Z Axis up little to prevent scratching of Heat Bed
G1 X5 Y20 Z0.3 F5000.0 ; Move over to prevent blob squish
G92 E0
G92 E0
G1 F2700 E-5
;LAYER_COUNT:355
;LAYER:0
M107
G0 F6000 X106.032 Y88.254 Z0.2
G0 X103.281 Y95.804
;TYPE:SKIRT
G1 F2700 E0
G1 F900 X103.308 Y95.092 E0.0237
G1 X103.383 Y94.157 E0.0549
G1 X103.538 Y93.232 E0.08609
G1 X103.771 Y92.324 E0.11727
G1 X104.081 Y91.439 E0.14846
G1 X104.465 Y90.583 E0.17966
G1 X104.92 Y89.763 E0.21085
G1 X105.444 Y88.985 E0.24205
G1 X106.032 Y88.254 E0.27325
G1 X106.68 Y87.576 E0.30445
G1 X107.383 Y86.956 E0.33562
G1 X108.137 Y86.398 E0.36682
G1 X108.935 Y85.906 E0.398
G1 X109.773 Y85.484 E0.42921
G1 X110.643 Y85.135 E0.46039
G1 X111.54 Y84.861 E0.49158
G1 X112.457 Y84.664 E0.52278
G1 X113.388 Y84.547 E0.55399
G1 X114.443 Y84.51 E0.5891
G1 X114.674 Y84.513 E0.59678
G1 X115.61 Y84.565 E0.62796
G1 X116.539 Y84.697 E0.65917
G1 X117.453 Y84.907 E0.69036
G1 X118.346 Y85.195 E0.72157
G1 X119.211 Y85.557 E0.75276
G1 X120.042 Y85.992 E0.78395
G1 X120.832 Y86.496 E0.81512
G1 X121.578 Y87.065 E0.84633
G1 X122.272 Y87.696 E0.87752
G1 X122.909 Y88.384 E0.90871
G1 X123.486 Y89.124 E0.93992
G1 X123.997 Y89.91 E0.9711
G1 X124.44 Y90.736 E1.00228
G1 X124.811 Y91.598 E1.03349
G1 X125.107 Y92.488 E1.06468
G1 X125.326 Y93.4 E1.09588
G1 X125.469 Y94.343 E1.1276
G1 X125.606 Y95.625 E1.17049
G1 X125.91 Y98.138 E1.25468
G1 X126.295 Y100.703 E1.34095
G1 X126.564 Y102.262 E1.39356
G1 X127.276 Y106.231 E1.52768
G1 X127.915 Y109.661 E1.64373
G1 X129.274 Y116.758 E1.88406
G1 X132.426 Y132.846 E2.42932
G1 X132.555 Y133.571 E2.45382
G1 X132.68 Y134.501 E2.48503
G1 X132.725 Y135.437 E2.51619
G1 X132.69 Y136.375 E2.54741
G1 X132.575 Y137.305 E2.57858
G1 X132.382 Y138.223 E2.60978
G1 X132.111 Y139.121 E2.64098
G1 X131.765 Y139.993 E2.67218
G1 X131.308 Y140.898 E2.7059
G1 X129.57 Y143.982 E2.82364
G1 X129.156 Y144.744 E2.85249
G1 X128.673 Y145.548 E2.88368
G1 X128.124 Y146.308 E2.91487
G1 X127.512 Y147.019 E2.94607
G1 X126.841 Y147.675 E2.97728
G1 X126.117 Y148.271 E3.00847
G1 X125.345 Y148.804 E3.03967
G1 X124.531 Y149.269 E3.07085
G1 X123.68 Y149.662 E3.10203
G1 X122.798 Y149.982 E3.13323
G1 X121.892 Y150.226 E3.16444
G1 X120.969 Y150.391 E3.19563
G1 X119.799 Y150.487 E3.23467
G1 X119.17 Y150.5 E3.2556
G1 X116.05 Y150.499 E3.35937
G1 X115.349 Y150.489 E3.38269
G1 X114.413 Y150.436 E3.41387
G1 X113.484 Y150.303 E3.44508
G1 X112.571 Y150.091 E3.47626
G1 X111.678 Y149.803 E3.50746
G1 X110.814 Y149.439 E3.53865
G1 X109.983 Y149.003 E3.56986
G1 X109.193 Y148.498 E3.60104
G1 X108.449 Y147.928 E3.63222
G1 X107.756 Y147.296 E3.66341
G1 X107.119 Y146.607 E3.69462
G1 X106.543 Y145.867 E3.72581
G1 X105.908 Y144.865 E3.76527
G1 X105.564 Y144.247 E3.78879
G1 X104.791 Y142.817 E3.84286
G1 X103.949 Y141.359 E3.89886
G1 X103.685 Y140.887 E3.91684
G1 X103.262 Y140.049 E3.94807
G1 X102.912 Y139.179 E3.97926
G1 X102.638 Y138.282 E4.01045
G1 X102.441 Y137.365 E4.04165
G1 X102.323 Y136.435 E4.07283
G1 X102.285 Y135.454 E4.10548
G1 X102.295 Y134.18 E4.14785
G1 X103.281 Y95.804 E5.42467
G0 F6000 X103.681 Y95.819
G1 F900 X103.708 Y95.107 E5.44836
G1 X103.782 Y94.19 E5.47896
G1 X103.937 Y93.282 E5.5096
G1 X104.169 Y92.391 E5.54022
G1 X104.478 Y91.524 E5.57084
G1 X104.86 Y90.687 E5.60144
G1 X105.315 Y89.886 E5.63208
G1 X105.836 Y89.127 E5.6627
G1 X106.422 Y88.417 E5.69332
G1 X107.067 Y87.76 E5.72394
G1 X107.767 Y87.162 E5.75456
G1 X108.516 Y86.626 E5.78519
G1 X109.308 Y86.158 E5.81579
G1 X110.139 Y85.76 E5.84644
G1 X111 Y85.436 E5.87703
G1 X111.887 Y85.187 E5.90767
G1 X112.792 Y85.017 E5.9383
G1 X113.708 Y84.926 E5.96892
G1 X114.438 Y84.91 E5.9932
G1 X114.669 Y84.913 E6.00089
G1 X115.588 Y84.965 E6.0315
G1 X116.499 Y85.096 E6.06211
G1 X117.395 Y85.306 E6.09272
G1 X118.27 Y85.593 E6.12335
G1 X119.117 Y85.955 E6.15399
G1 X119.929 Y86.389 E6.18461
G1 X120.7 Y86.892 E6.21523
G1 X121.425 Y87.46 E6.24586
G1 X122.097 Y88.088 E6.27645
G1 X122.713 Y88.773 E6.30709
G1 X123.267 Y89.508 E6.33771
G1 X123.755 Y90.289 E6.36834
G1 X124.173 Y91.109 E6.39895
G1 X124.519 Y91.962 E6.42956
G1 X124.789 Y92.842 E6.46018
G1 X124.982 Y93.743 E6.49083
G1 X125.071 Y94.385 E6.51238
G1 X125.206 Y95.648 E6.55463
G1 X125.517 Y98.214 E6.6406
G1 X125.895 Y100.737 E6.72545
G1 X126.182 Y102.398 E6.78152
G1 X126.883 Y106.304 E6.91351
G1 X127.522 Y109.736 E7.02962
G1 X128.881 Y116.835 E7.27002
G1 X132.032 Y132.916 E7.81505
G1 X132.161 Y133.641 E7.83954
G1 X132.283 Y134.554 E7.87017
G1 X132.325 Y135.473 E7.90077
G1 X132.287 Y136.393 E7.9314
G1 X132.17 Y137.306 E7.96201
G1 X131.973 Y138.206 E7.99266
G1 X131.7 Y139.085 E8.02327
G1 X131.351 Y139.937 E8.05389
G1 X130.96 Y140.702 E8.08247
G1 X129.186 Y143.85 E8.20265
G1 X128.804 Y144.553 E8.22926
G1 X128.33 Y145.342 E8.25987
G1 X127.789 Y146.087 E8.2905
G1 X127.185 Y146.782 E8.32112
G1 X126.523 Y147.422 E8.35175
G1 X125.809 Y148.003 E8.38236
G1 X125.046 Y148.519 E8.413
G1 X124.242 Y148.967 E8.44361
G1 X123.402 Y149.343 E8.47422
G1 X122.532 Y149.645 E8.50485
G1 X121.64 Y149.871 E8.53546
G1 X120.731 Y150.018 E8.56608
G1 X119.788 Y150.087 E8.59753
G1 X119.17 Y150.1 E8.61809
G1 X116.056 Y150.099 E8.72166
G1 X115.355 Y150.089 E8.74498
G1 X114.436 Y150.036 E8.7756
G1 X113.525 Y149.903 E8.80622
G1 X112.629 Y149.692 E8.83684
G1 X111.754 Y149.404 E8.86747
G1 X110.908 Y149.041 E8.89809
G1 X110.097 Y148.606 E8.9287
G1 X109.326 Y148.102 E8.95934
G1 X108.602 Y147.533 E8.98997
G1 X107.93 Y146.904 E9.02058
G1 X107.315 Y146.219 E9.0512
G1 X106.762 Y145.483 E9.08182
G1 X106.257 Y144.669 E9.11368
G1 X105.916 Y144.057 E9.13698
G1 X105.146 Y142.633 E9.19082
G1 X104.298 Y141.163 E9.24727
G1 X104.034 Y140.691 E9.26526
G1 X103.62 Y139.869 E9.29587
G1 X103.278 Y139.014 E9.3265
G1 X103.013 Y138.133 E9.35709
G1 X102.825 Y137.231 E9.38774
G1 X102.715 Y136.317 E9.41836
G1 X102.685 Y135.457 E9.44698
G1 X102.694 Y134.19 E9.48912
G1 X103.681 Y95.819 E10.76577
G0 F6000 X104.08 Y95.834
G1 F900 X104.107 Y95.122 E10.78947
G1 X104.181 Y94.222 E10.8195
G1 X104.335 Y93.332 E10.84954
G1 X104.567 Y92.46 E10.87956
G1 X104.874 Y91.611 E10.90958
G1 X105.256 Y90.792 E10.93964
G1 X105.709 Y90.011 E10.96967
G1 X106.229 Y89.272 E10.99972
G1 X106.812 Y88.583 E11.02974
G1 X107.454 Y87.948 E11.05978
G1 X108.15 Y87.372 E11.08982
G1 X108.894 Y86.86 E11.11986
G1 X109.68 Y86.415 E11.14991
G1 X110.502 Y86.042 E11.17993
G1 X111.355 Y85.744 E11.20998
G1 X112.23 Y85.521 E11.24001
G1 X113.122 Y85.377 E11.27007
G1 X114.432 Y85.31 E11.31369
G1 X114.663 Y85.313 E11.32138
G1 X115.565 Y85.365 E11.35143
G1 X116.459 Y85.496 E11.38148
G1 X117.337 Y85.706 E11.41151
G1 X118.193 Y85.992 E11.44152
G1 X119.021 Y86.353 E11.47157
G1 X119.814 Y86.787 E11.50163
G1 X120.565 Y87.288 E11.53166
G1 X121.268 Y87.854 E11.56168
G1 X121.919 Y88.48 E11.59172
G1 X122.513 Y89.161 E11.62177
G1 X123.043 Y89.892 E11.6518
G1 X123.507 Y90.667 E11.68185
G1 X123.9 Y91.48 E11.71188
G1 X124.22 Y92.324 E11.7419
G1 X124.464 Y93.194 E11.77196
G1 X124.673 Y94.428 E11.81358
G1 X124.805 Y95.663 E11.85489
G1 X125.122 Y98.284 E11.9427
G1 X125.496 Y100.777 E12.02655
G1 X125.777 Y102.403 E12.08143
G1 X126.49 Y106.377 E12.21572
G1 X127.139 Y109.863 E12.33365
G1 X128.497 Y116.956 E12.57385
G1 X131.638 Y132.986 E13.11715
G1 X131.767 Y133.711 E13.14164
G1 X131.886 Y134.606 E13.17167
G1 X131.925 Y135.509 E13.20174
G1 X131.884 Y136.411 E13.23177
G1 X131.764 Y137.306 E13.2618
G1 X131.564 Y138.187 E13.29185
G1 X131.288 Y139.047 E13.32189
G1 X130.936 Y139.878 E13.35191
G1 X130.611 Y140.505 E13.3754
G1 X128.873 Y143.59 E13.49317
G1 X128.453 Y144.362 E13.5224
G1 X127.987 Y145.136 E13.55245
G1 X127.454 Y145.865 E13.58248
G1 X126.859 Y146.544 E13.61251
G1 X126.206 Y147.168 E13.64255
G1 X125.501 Y147.732 E13.67258
G1 X124.748 Y148.232 E13.70264
G1 X123.955 Y148.662 E13.73265
G1 X123.126 Y149.021 E13.76269
G1 X122.269 Y149.305 E13.79272
G1 X121.39 Y149.513 E13.82276
G1 X120.496 Y149.641 E13.8528
G1 X119.777 Y149.687 E13.87677
G1 X119.17 Y149.7 E13.89696
G1 X116.062 Y149.699 E14.00033
G1 X115.361 Y149.689 E14.02365
G1 X114.459 Y149.636 E14.0537
G1 X113.566 Y149.504 E14.08373
G1 X112.687 Y149.293 E14.11379
G1 X111.831 Y149.005 E14.14383
G1 X111.004 Y148.643 E14.17386
G1 X110.212 Y148.209 E14.20389
G1 X109.462 Y147.706 E14.23393
G1 X108.759 Y147.139 E14.26397
G1 X108.109 Y146.513 E14.29398
G1 X107.516 Y145.831 E14.32404
G1 X106.987 Y145.099 E14.35408
G1 X106.606 Y144.474 E14.37843
G1 X106.268 Y143.867 E14.40154
G1 X105.501 Y142.449 E14.45516
G1 X104.647 Y140.968 E14.51202
G1 X104.383 Y140.496 E14.53
G1 X103.977 Y139.689 E14.56005
G1 X103.645 Y138.85 E14.59006
G1 X103.388 Y137.984 E14.62011
G1 X103.208 Y137.099 E14.65014
G1 X103.108 Y136.201 E14.6802
G1 X103.085 Y135.459 E14.70489
G1 X103.094 Y134.2 E14.74676
G1 X104.08 Y95.834 E16.02324
G1 F2700 E11.02324
;MESH:TE_Mid (1).stl
G0 F6000 X113.623 Y95.61
G0 X114.417 Y95.63
;TYPE:WALL-OUTER
G1 F2700 E16.02324
G1 F1328.4 X114.421 Y95.981 E16.03115
G1 F1212.1 X114.425 Y96.332 E16.03982
G1 F1111.1 X114.431 Y96.65 E16.04839
G1 F1019.8 X114.438 Y96.969 E16.05775
G1 F944.9 X114.444 Y97.288 E16.06786
G1 F869.6 X114.454 Y97.609 E16.07892
G1 F798.2 X114.464 Y97.929 E16.09092
G1 F739.2 X114.474 Y98.249 E16.10389
G1 F687 X114.485 Y98.504 E16.11501
G1 F642.9 X114.497 Y98.759 E16.1269
G1 F604 X114.509 Y99.014 E16.13955
G1 F565.1 X114.531 Y99.321 E16.15585
G1 F651 X114.423 Y99.614 E16.17021
G1 F882.4 X114.379 Y99.784 E16.17617
G1 F967.7 X114.374 Y100.037 E16.18399
G1 F957.4 X114.368 Y100.29 E16.19191
G1 F947.4 X114.362 Y100.543 E16.1999
G1 F935.1 X114.356 Y100.796 E16.208
G1 F925.4 X114.35 Y101.049 E16.21619
G1 F916 X114.344 Y101.302 E16.22446
G1 F906.8 X114.338 Y101.555 E16.23281
G1 F900 X113.469 Y135.3 E17.35555
G1 X115.527 Y135.301 E17.424
G1 X115.649 Y135.366 E17.4286
G1 X115.7 Y135.5 E17.43336
G1 X115.7 Y139.3 E17.55975
G1 X119.3 Y139.3 E17.67949
G1 X119.3 Y135.5 E17.80588
G1 X119.365 Y135.351 E17.81129
G1 X119.5 Y135.3 E17.81608
G1 X121.491 Y135.3 E17.88231
G1 X120.038 Y127.829 E18.13545
G1 X116.878 Y111.584 E18.68589
G1 X116.197 Y107.915 E18.81
G1 X115.045 Y101.506 E19.02658
G1 F906.8 X115.003 Y101.256 E19.03495
G1 F916 X114.96 Y101.006 E19.04324
G1 F925.4 X114.917 Y100.755 E19.05148
G1 F935.1 X114.875 Y100.505 E19.05959
G1 F947.4 X114.832 Y100.254 E19.06764
G1 F957.4 X114.789 Y100.004 E19.07557
G1 F967.7 X114.746 Y99.753 E19.08345
G1 F699 X114.531 Y99.321 E19.10411
G1 F2700 E14.10411
G0 F6000 X116.076 Y131.045
G1 F2700 E19.10411
G1 F900 X115.656 Y130.79 E19.12045
G1 X115.3 Y130.442 E19.13701
G1 X115.034 Y130.028 E19.15338
G1 F902.3 X114.868 Y129.568 E19.1696
G1 X114.805 Y129.079 E19.18596
G1 F900 X114.853 Y128.591 E19.20227
G1 X115.009 Y128.124 E19.21865
G1 X115.266 Y127.703 E19.23505
G1 X115.612 Y127.348 E19.25154
G1 X116.026 Y127.082 E19.26791
G1 X116.486 Y126.914 E19.28419
G1 X116.828 Y126.87 E19.29566
G1 X117.023 Y126.852 E19.30218
G1 X117.466 Y126.902 E19.317
G1 X117.932 Y127.057 E19.33334
G1 X118.352 Y127.313 E19.3497
G1 X118.707 Y127.66 E19.36621
G1 F902.3 X118.973 Y128.074 E19.38253
G1 X119.141 Y128.531 E19.39869
G1 F900 X119.203 Y129.022 E19.41515
G1 X119.155 Y129.511 E19.43149
G1 X118.999 Y129.978 E19.44787
G1 X118.742 Y130.398 E19.46424
G1 X118.396 Y130.754 E19.48076
G1 X117.982 Y131.02 E19.49712
G1 X117.522 Y131.188 E19.51341
G1 X117.214 Y131.228 E19.52374
G1 X116.985 Y131.25 E19.53139
G1 X116.52 Y131.197 E19.54696
G1 X116.076 Y131.045 E19.56257
G1 F2700 E14.56257
G0 F6000 X118.68 Y131.036
;TYPE:WALL-INNER
G1 F2700 E19.56257
G1 F900 X118.195 Y131.359 E19.58195
G1 X117.655 Y131.565 E19.60117
G1 X117.26 Y131.626 E19.61447
G1 X116.94 Y131.648 E19.62513
G1 X116.477 Y131.595 E19.64063
G1 X116.232 Y131.522 E19.64914
G1 X115.946 Y131.423 E19.6592
G1 X115.445 Y131.13 E19.67851
G1 X115.018 Y130.726 E19.69806
G1 X114.695 Y130.241 E19.71744
G1 F893.3 X114.589 Y129.972 E19.72713
G1 F878 X114.482 Y129.703 E19.737
G1 F882.4 X114.447 Y129.414 E19.74687
G1 F906.8 X114.412 Y129.125 E19.75648
G1 F911.4 X114.432 Y128.836 E19.766
G1 F893.3 X114.452 Y128.547 E19.77571
G1 X114.631 Y127.994 E19.79518
G1 F900 X114.926 Y127.492 E19.81455
G1 X115.328 Y127.066 E19.83403
G1 X115.813 Y126.743 E19.85341
G1 X116.352 Y126.537 E19.8726
G1 X116.782 Y126.472 E19.88707
G1 X117.068 Y126.454 E19.8966
G1 X117.511 Y126.504 E19.91143
G1 X118.062 Y126.679 E19.93066
G1 X118.564 Y126.973 E19.95
G1 X118.99 Y127.377 E19.96953
G1 F816.3 X119.186 Y127.596 E19.98031
G1 F687 X119.383 Y127.816 E19.99318
G1 F581.6 X119.51 Y127.914 E20.00143
G1 F596 X119.518 Y127.608 E20.01681
G1 F769.2 X119.526 Y127.302 E20.02872
G1 F900 X119.357 Y126.426 E20.05839
G1 X116.485 Y111.657 E20.55881
G1 X115.803 Y107.986 E20.683
G1 X114.727 Y101.991 E20.88558
G1 X114.06 Y127.892 E21.74734
G1 F893.3 X114.046 Y128.52 E21.76838
G1 F906.8 X114.026 Y128.963 E21.78302
G1 F909.1 X114.026 Y129.277 E21.79336
G1 F869.6 X114.027 Y129.591 E21.80417
G1 F863.3 X114.014 Y129.907 E21.81514
G1 F888.9 X114 Y130.223 E21.82579
G1 F900 X113.879 Y134.9 E21.9814
G1 X115.543 Y134.901 E22.03674
G1 X115.809 Y134.985 E22.04602
G1 X115.947 Y135.098 E22.05195
G1 X116.048 Y135.253 E22.05811
G1 X116.1 Y135.5 E22.0665
G1 X116.1 Y138.9 E22.17959
G1 X118.9 Y138.9 E22.27272
G1 X118.9 Y135.5 E22.3858
G1 X118.952 Y135.253 E22.3942
G1 X119.147 Y135.013 E22.40448
G1 X119.321 Y134.927 E22.41094
G1 X119.5 Y134.9 E22.41696
G1 X121.005 Y134.9 E22.46701
G1 X120.126 Y130.379 E22.6202
G1 X119.961 Y129.538 E22.6487
G1 F762.7 X119.806 Y129.116 E22.66635
G1 F604 X119.724 Y128.962 E22.67499
G1 F614.3 X119.639 Y129.258 E22.69
G1 F779.2 X119.553 Y129.555 E22.70188
G1 F900 X119.377 Y130.108 E22.72118
G1 X119.082 Y130.61 E22.74055
G1 X118.68 Y131.036 E22.76003
G0 F6000 X119.724 Y128.962
G1 F561.6 X119.673 Y128.661 E22.7763
G1 F573.2 X119.622 Y128.36 E22.79224
G1 F550.5 X119.505 Y127.932 E22.81637
G1 F2700 E17.81637
G0 F6000 X118.203 Y128.471
G0 X115.96 Y128.224
G0 X114.762 Y127.123
;TYPE:SKIN
G1 F2700 E22.81637
G1 F900 X115.211 Y126.701 E22.83686
G1 X115.247 Y126.674 E22.83836
G1 X115.781 Y126.361 E22.85895
G1 X115.822 Y126.343 E22.86044
G1 X116.416 Y126.153 E22.88118
G1 X116.724 Y126.117 E22.89149
G1 X117.075 Y126.096 E22.90319
G1 X117.114 Y126.097 E22.90449
G1 X117.718 Y126.182 E22.92477
G1 X117.761 Y126.193 E22.92625
G1 X118.337 Y126.411 E22.94673
G1 X118.378 Y126.432 E22.94827
G1 X118.897 Y126.781 E22.96907
G1 X119.095 Y126.984 E22.9785
G1 X116.131 Y111.73 E23.49534
G1 X115.446 Y108.039 E23.6202
G1 X114.996 Y105.529 E23.70501
G1 X114.436 Y127.248 E24.42763
G1 X114.43 Y127.612 E24.43974
G1 X114.733 Y127.158 E24.45789
G1 X114.762 Y127.123 E24.4594
G0 F6000 X114.868 Y126.747
G1 F900 X114.655 Y126.534 E24.46942
G0 F6000 X115.171 Y126.485
G1 F900 X114.669 Y125.983 E24.49304
G0 F6000 X114.683 Y125.431
G1 F900 X115.527 Y126.275 E24.53273
G0 F6000 X115.918 Y126.1
G1 F900 X114.697 Y124.88 E24.59014
G0 F6000 X114.711 Y124.328
G1 F900 X116.346 Y125.963 E24.66705
G0 F6000 X116.857 Y125.908
G1 F900 X114.725 Y123.776 E24.76733
G0 F6000 X114.74 Y123.225
G1 F900 X117.457 Y125.942 E24.89513
G0 F6000 X118.238 Y126.158
G1 F900 X114.754 Y122.673 E25.05903
G0 F6000 X114.768 Y122.122
G1 F900 X118.714 Y126.067 E25.24461
G0 F6000 X118.577 Y125.365
G1 F900 X114.782 Y121.57 E25.42312
G0 F6000 X114.797 Y121.019
G1 F900 X118.441 Y124.663 E25.59452
G0 F6000 X118.304 Y123.961
G1 F900 X114.811 Y120.468 E25.75882
G0 F6000 X114.825 Y119.916
G1 F900 X118.168 Y123.259 E25.91607
G0 F6000 X118.031 Y122.557
G1 F900 X114.839 Y119.365 E26.06621
