;FLAVOR:Marlin
;TIME:14504
;Filament used: 9.88338m
;Layer height: 0.2
;MINX:69.501
;MINY:76.842
;MINZ:0.2
;MAXX:165.499
;MAXY:159.187
;MAXZ:17.2
;Generated with Cura_SteamEngine 5.0.0
M140 S70
M105
M190 S70
M104 S200
M105
M109 S200
M82 ;absolute extrusion mode
; Ender 3 Custom Start G-code
G28 ; Home all axes
M420 S1; Bed Leveling On
G92 E0 ; Reset Extruder
G1 Z2.0 F3000 ; Move Z Axis up little to prevent scratching of Heat Bed
G1 X0.1 Y20 Z0.3 F5000.0 ; Move to start position
G1 X0.1 Y200.0 Z0.3 F1500.0 E15 ; Draw the first line
G1 X0.4 Y200.0 Z0.3 F5000.0 ; Move to side a little
G1 X0.4 Y20 Z0.3 F1500.0 E30 ; Draw the second line
G92 E0 ; Reset Extruder
G1 Z2.0 F3000 ; Move Z Axis up little to prevent scratching of Heat Bed
G1 X5 Y20 Z0.3 F5000.0 ; Move over to prevent blob squish
G92 E0
G92 E0
G1 F2700 E-5
;LAYER_COUNT:86
;LAYER:0
M107
G0 F6000 X73.364 Y79.488 Z0.2
G0 X69.502 Y88.561
;TYPE:SKIRT
G1 F2700 E0
G1 F900 X69.511 Y87.732 E0.02757
G1 X69.561 Y86.795 E0.05878
G1 X69.691 Y85.866 E0.08998
G1 X69.899 Y84.952 E0.12116
G1 X70.184 Y84.058 E0.15237
G1 X70.545 Y83.193 E0.18354
G1 X70.978 Y82.361 E0.21474
G1 X71.48 Y81.569 E0.24593
G1 X72.048 Y80.822 E0.27714
G1 X72.678 Y80.127 E0.30834
G1 X73.364 Y79.488 E0.33952
G1 X74.103 Y78.91 E0.37072
G1 X74.888 Y78.396 E0.40193
G1 X75.713 Y77.952 E0.43309
G1 X76.574 Y77.579 E0.4643
G1 X77.463 Y77.281 E0.49549
G1 X78.375 Y77.06 E0.5267
G1 X79.302 Y76.918 E0.55789
G1 X80.273 Y76.854 E0.59026
G1 X80.938 Y76.842 E0.61238
G1 X89.166 Y76.85 E0.88604
G1 X90.639 Y76.872 E0.93504
G1 X92.09 Y76.883 E0.9833
G1 X153.949 Y76.883 E3.04074
G1 X154.648 Y76.893 E3.06399
G1 X155.585 Y76.947 E3.09521
G1 X156.513 Y77.079 E3.12638
G1 X157.427 Y77.291 E3.15759
G1 X158.319 Y77.58 E3.18878
G1 X159.184 Y77.943 E3.21998
G1 X160.014 Y78.379 E3.25116
G1 X160.804 Y78.884 E3.28235
G1 X161.549 Y79.455 E3.31357
G1 X162.242 Y80.087 E3.34476
G1 X162.879 Y80.775 E3.37595
G1 X163.454 Y81.516 E3.40714
G1 X163.965 Y82.302 E3.43832
G1 X164.407 Y83.13 E3.46954
G1 X164.776 Y83.991 E3.5007
G1 X165.071 Y84.882 E3.53191
G1 X165.289 Y85.794 E3.5631
G1 X165.429 Y86.721 E3.59428
G1 X165.486 Y87.572 E3.62265
G1 X165.498 Y88.328 E3.6478
G1 X165.48 Y89.245 E3.6783
G1 X165.445 Y90.063 E3.70554
G1 X165.365 Y91.473 E3.75251
G1 X165.295 Y93.992 E3.83632
G1 X165.297 Y96.517 E3.92031
G1 X165.37 Y99.052 E4.00465
G1 X165.485 Y101.373 E4.08195
G1 X165.498 Y102.038 E4.10407
G1 X165.489 Y102.874 E4.13188
G1 X165.473 Y103.361 E4.14808
G1 X165.341 Y105.762 E4.22806
G1 X165.269 Y108.263 E4.31128
G1 X165.269 Y110.788 E4.39526
G1 X165.34 Y113.344 E4.48031
G1 X165.486 Y116.131 E4.57313
G1 X165.499 Y117.007 E4.60227
G1 X165.489 Y117.712 E4.62572
G1 X165.473 Y118.161 E4.64066
G1 X165.341 Y120.562 E4.72064
G1 X165.269 Y123.063 E4.80386
G1 X165.269 Y125.588 E4.88784
G1 X165.34 Y128.144 E4.97289
G1 X165.486 Y130.931 E5.06571
G1 X165.499 Y131.808 E5.09488
G1 X165.489 Y132.507 E5.11813
G1 X165.472 Y132.984 E5.13401
G1 X165.303 Y135.917 E5.23172
G1 X165.232 Y138.383 E5.31377
G1 X165.232 Y140.907 E5.39772
G1 X165.302 Y143.43 E5.48167
G1 X165.486 Y146.772 E5.59299
G1 X165.498 Y147.53 E5.61821
G1 X165.489 Y148.137 E5.6384
G1 X165.435 Y149.073 E5.66958
G1 X165.301 Y150.002 E5.7008
G1 X165.089 Y150.915 E5.73198
G1 X164.8 Y151.808 E5.76319
G1 X164.436 Y152.672 E5.79438
G1 X164 Y153.502 E5.82556
G1 X163.495 Y154.292 E5.85675
G1 X162.924 Y155.036 E5.88794
G1 X162.291 Y155.729 E5.91916
G1 X161.602 Y156.365 E5.95034
G1 X160.862 Y156.941 E5.98153
G1 X160.075 Y157.451 E6.01272
G1 X159.247 Y157.892 E6.04393
G1 X158.385 Y158.261 E6.07511
G1 X157.495 Y158.556 E6.1063
G1 X156.582 Y158.773 E6.13751
G1 X155.655 Y158.912 E6.16869
G1 X154.817 Y158.969 E6.19662
G1 X154.187 Y158.983 E6.21758
G1 X95.859 Y158.984 E8.15758
G1 X93.263 Y159.021 E8.24393
G1 X90.309 Y159.145 E8.34227
G1 X88.674 Y159.179 E8.39666
G1 X81.03 Y159.187 E8.6509
G1 X80.362 Y159.178 E8.67312
G1 X79.425 Y159.125 E8.70434
G1 X78.497 Y158.993 E8.73551
G1 X77.583 Y158.782 E8.76671
G1 X76.69 Y158.495 E8.79791
G1 X75.826 Y158.132 E8.82908
G1 X74.995 Y157.697 E8.86028
G1 X74.204 Y157.192 E8.89149
G1 X73.459 Y156.622 E8.92269
G1 X72.766 Y155.991 E8.95386
G1 X72.128 Y155.303 E8.98507
G1 X71.552 Y154.563 E9.01626
G1 X71.041 Y153.777 E9.04744
G1 X70.598 Y152.95 E9.07864
G1 X70.228 Y152.088 E9.10984
G1 X69.932 Y151.198 E9.14104
G1 X69.714 Y150.286 E9.17223
G1 X69.573 Y149.359 E9.20341
G1 X69.513 Y148.42 E9.23471
G1 X69.501 Y147.561 E9.26328
G1 X69.511 Y146.88 E9.28593
G1 X69.528 Y146.406 E9.30171
G1 X69.697 Y143.478 E9.39926
G1 X69.768 Y141.017 E9.48114
G1 X69.768 Y138.493 E9.56509
G1 X69.698 Y135.97 E9.64904
G1 X69.514 Y132.628 E9.76036
G1 X69.504 Y131.792 E9.78817
G1 X69.537 Y130.584 E9.82837
G1 X69.667 Y128.308 E9.90419
G1 X69.738 Y125.824 E9.98684
G1 X69.738 Y123.3 E10.07079
G1 X69.667 Y120.753 E10.15554
G1 X69.515 Y117.797 E10.25398
G1 X69.503 Y117.004 E10.28036
G1 X69.534 Y115.845 E10.31892
G1 X69.668 Y113.471 E10.39801
G1 X69.738 Y111.018 E10.47963
G1 X69.738 Y108.493 E10.56361
G1 X69.666 Y105.928 E10.64896
G1 X69.515 Y103.049 E10.74484
G1 X69.502 Y102.255 E10.77126
G1 X69.52 Y101.351 E10.80133
G1 X69.555 Y100.537 E10.82843
G1 X69.635 Y99.127 E10.8754
G1 X69.705 Y96.608 E10.95922
G1 X69.703 Y94.084 E11.04316
G1 X69.63 Y91.547 E11.12758
G1 X69.515 Y89.227 E11.20484
G1 X69.502 Y88.561 E11.22699
G0 F6000 X69.902 Y88.565
G1 F900 X69.911 Y87.736 E11.25457
G1 X69.961 Y86.817 E11.28518
G1 X70.09 Y85.905 E11.31581
G1 X70.298 Y85.008 E11.34644
G1 X70.583 Y84.133 E11.37705
G1 X70.944 Y83.286 E11.40767
G1 X71.376 Y82.473 E11.43829
G1 X71.877 Y81.7 E11.46893
G1 X72.443 Y80.975 E11.49952
G1 X73.07 Y80.3 E11.53016
G1 X73.753 Y79.683 E11.56078
G1 X74.488 Y79.128 E11.59141
G1 X75.267 Y78.638 E11.62202
G1 X76.087 Y78.218 E11.65266
G1 X76.939 Y77.871 E11.68326
G1 X77.819 Y77.598 E11.7139
G1 X78.718 Y77.404 E11.74449
G1 X79.632 Y77.287 E11.77514
G1 X80.282 Y77.253 E11.79679
G1 X80.937 Y77.242 E11.81858
G1 X89.16 Y77.25 E12.09208
G1 X90.63 Y77.272 E12.14097
G1 X92.087 Y77.283 E12.18944
G1 X153.944 Y77.283 E14.24681
G1 X154.643 Y77.293 E14.27006
G1 X155.562 Y77.346 E14.30068
G1 X156.473 Y77.479 E14.3313
G1 X157.369 Y77.69 E14.36191
G1 X158.243 Y77.978 E14.39252
G1 X159.089 Y78.341 E14.42314
G1 X159.901 Y78.776 E14.45378
G1 X160.671 Y79.28 E14.48439
G1 X161.395 Y79.849 E14.51501
G1 X162.067 Y80.478 E14.54563
G1 X162.682 Y81.164 E14.57627
G1 X163.235 Y81.9 E14.60689
G1 X163.722 Y82.681 E14.6375
G1 X164.139 Y83.502 E14.66813
G1 X164.484 Y84.356 E14.69876
G1 X164.753 Y85.236 E14.72937
G1 X164.945 Y86.136 E14.75998
G1 X165.058 Y87.05 E14.79061
G1 X165.095 Y87.859 E14.81754
G1 X165.098 Y88.322 E14.83294
G1 X165.081 Y89.228 E14.86308
G1 X165.045 Y90.041 E14.89015
G1 X164.966 Y91.441 E14.93679
G1 X164.895 Y93.981 E15.0213
G1 X164.897 Y96.493 E15.10485
G1 X164.971 Y99.085 E15.1911
G1 X165.086 Y101.393 E15.26796
G1 X165.098 Y102.034 E15.28928
G1 X165.089 Y102.87 E15.31709
G1 X165.074 Y103.339 E15.33269
G1 X164.942 Y105.728 E15.41227
G1 X164.869 Y108.287 E15.49742
G1 X164.869 Y110.799 E15.58097
G1 X164.94 Y113.337 E15.66542
G1 X165.086 Y116.141 E15.75881
G1 X165.099 Y117.001 E15.78741
G1 X165.089 Y117.706 E15.81086
G1 X165.074 Y118.139 E15.82527
G1 X164.942 Y120.528 E15.90485
G1 X164.869 Y123.087 E15.99
G1 X164.869 Y125.599 E16.07355
G1 X164.94 Y128.137 E16.158
G1 X165.086 Y130.941 E16.25138
G1 X165.099 Y131.803 E16.28006
G1 X165.089 Y132.502 E16.30331
G1 X165.072 Y132.961 E16.31859
G1 X164.905 Y135.848 E16.41477
G1 X164.832 Y138.407 E16.49992
G1 X164.832 Y140.918 E16.58343
G1 X164.903 Y143.464 E16.66815
G1 X165.087 Y146.784 E16.77874
G1 X165.098 Y147.524 E16.80335
G1 X165.089 Y148.131 E16.82354
G1 X165.035 Y149.05 E16.85416
G1 X164.902 Y149.961 E16.88478
G1 X164.69 Y150.857 E16.91541
G1 X164.402 Y151.731 E16.94602
G1 X164.038 Y152.577 E16.97665
G1 X163.603 Y153.388 E17.00726
G1 X163.099 Y154.159 E17.03789
G1 X162.529 Y154.882 E17.06851
G1 X161.9 Y155.554 E17.09913
G1 X161.214 Y156.168 E17.12975
G1 X160.478 Y156.721 E17.16037
G1 X159.696 Y157.207 E17.19099
G1 X158.875 Y157.624 E17.22162
G1 X158.021 Y157.968 E17.25224
G1 X157.141 Y158.237 E17.28285
G1 X156.24 Y158.429 E17.31349
G1 X155.326 Y158.541 E17.34411
G1 X154.502 Y158.578 E17.37155
G1 X95.853 Y158.584 E19.32222
G1 X93.24 Y158.621 E19.40914
G1 X90.301 Y158.745 E19.50698
G1 X88.674 Y158.779 E19.5611
G1 X81.035 Y158.787 E19.81518
G1 X80.367 Y158.778 E19.8374
G1 X79.448 Y158.726 E19.86801
G1 X78.537 Y158.594 E19.89863
G1 X77.641 Y158.383 E19.92925
G1 X76.766 Y158.096 E19.95987
G1 X75.92 Y157.733 E19.99049
G1 X75.108 Y157.299 E20.02112
G1 X74.337 Y156.796 E20.05173
G1 X73.612 Y156.228 E20.08237
G1 X72.94 Y155.599 E20.11298
G1 X72.325 Y154.914 E20.1436
G1 X71.771 Y154.178 E20.17424
G1 X71.284 Y153.398 E20.20482
G1 X70.866 Y152.577 E20.23546
G1 X70.52 Y151.724 E20.26608
G1 X70.25 Y150.844 E20.2967
G1 X70.058 Y149.943 E20.32734
G1 X69.944 Y149.03 E20.35794
G1 X69.913 Y148.411 E20.37855
G1 X69.901 Y147.567 E20.40663
G1 X69.911 Y146.886 E20.42928
G1 X69.928 Y146.429 E20.44449
G1 X70.095 Y143.547 E20.54051
G1 X70.168 Y140.993 E20.62549
G1 X70.168 Y138.482 E20.709
G1 X70.097 Y135.936 E20.79372
G1 X69.913 Y132.616 E20.90431
G1 X69.904 Y131.801 E20.93142
G1 X69.936 Y130.607 E20.97115
G1 X70.065 Y128.342 E21.0466
G1 X70.138 Y125.801 E21.13115
G1 X70.138 Y123.289 E21.2147
G1 X70.066 Y120.722 E21.30011
G1 X69.915 Y117.777 E21.39819
G1 X69.903 Y117.012 E21.42364
G1 X69.934 Y115.868 E21.4617
G1 X70.065 Y113.554 E21.53879
G1 X70.138 Y110.994 E21.62397
G1 X70.138 Y108.482 E21.70752
G1 X70.067 Y105.933 E21.79233
G1 X69.915 Y103.037 E21.88879
G1 X69.902 Y102.261 E21.9146
G1 X69.919 Y101.368 E21.94431
G1 X69.955 Y100.559 E21.97124
G1 X70.034 Y99.159 E22.01788
G1 X70.105 Y96.619 E22.10239
G1 X70.103 Y94.107 E22.18594
G1 X70.029 Y91.517 E22.27212
G1 X69.914 Y89.207 E22.34905
G1 X69.902 Y88.565 E22.3704
G0 F6000 X70.302 Y88.569
G1 F900 X70.311 Y87.74 E22.39798
G1 X70.36 Y86.839 E22.42799
G1 X70.49 Y85.945 E22.45804
G1 X70.698 Y85.066 E22.48808
G1 X70.982 Y84.209 E22.51811
G1 X71.342 Y83.38 E22.54817
G1 X71.773 Y82.587 E22.57819
G1 X72.273 Y81.835 E22.60822
G1 X72.838 Y81.13 E22.63827
G1 X73.462 Y80.478 E22.66829
G1 X74.142 Y79.883 E22.69834
G1 X74.872 Y79.351 E22.72839
G1 X75.646 Y78.886 E22.75842
G1 X76.458 Y78.49 E22.78847
G1 X77.302 Y78.169 E22.8185
G1 X78.171 Y77.923 E22.84854
G1 X79.058 Y77.755 E22.87856
G1 X80.29 Y77.653 E22.91968
G1 X80.937 Y77.642 E22.9412
G1 X89.154 Y77.65 E23.2145
G1 X90.621 Y77.672 E23.2633
G1 X92.084 Y77.683 E23.31196
G1 X153.938 Y77.683 E25.36923
G1 X154.637 Y77.693 E25.39249
G1 X155.538 Y77.746 E25.4225
G1 X156.432 Y77.878 E25.45256
G1 X157.31 Y78.089 E25.4826
G1 X158.166 Y78.377 E25.51263
G1 X158.993 Y78.739 E25.54266
G1 X159.785 Y79.173 E25.5727
G1 X160.536 Y79.676 E25.60276
G1 X161.239 Y80.243 E25.6328
G1 X161.889 Y80.87 E25.66284
G1 X162.481 Y81.552 E25.69288
G1 X163.01 Y82.283 E25.72289
G1 X163.473 Y83.059 E25.75294
G1 X163.865 Y83.872 E25.78296
G1 X164.184 Y84.717 E25.813
G1 X164.427 Y85.587 E25.84305
G1 X164.592 Y86.475 E25.87309
G1 X164.687 Y87.595 E25.91047
G1 X164.698 Y88.316 E25.93446
G1 X164.681 Y89.211 E25.96423
G1 X164.646 Y90.018 E25.99109
G1 X164.566 Y91.441 E26.0385
G1 X164.495 Y93.97 E26.12265
G1 X164.497 Y96.505 E26.20696
G1 X164.572 Y99.116 E26.29384
G1 X164.686 Y101.413 E26.37033
G1 X164.698 Y102.03 E26.39086
G1 X164.689 Y102.866 E26.41866
G1 X164.675 Y103.317 E26.43367
G1 X164.542 Y105.733 E26.51415
G1 X164.469 Y108.275 E26.59873
G1 X164.469 Y110.81 E26.68305
G1 X164.541 Y113.371 E26.76826
G1 X164.686 Y116.15 E26.86081
G1 X164.699 Y116.996 E26.88896
G1 X164.675 Y118.117 E26.92625
G1 X164.542 Y120.533 E27.00673
G1 X164.469 Y123.075 E27.09131
G1 X164.469 Y125.61 E27.17562
G1 X164.541 Y128.171 E27.26084
G1 X164.686 Y130.95 E27.35339
G1 X164.699 Y131.797 E27.38157
G1 X164.689 Y132.496 E27.40482
G1 X164.673 Y132.938 E27.41953
G1 X164.505 Y135.849 E27.51651
G1 X164.432 Y138.395 E27.60123
G1 X164.432 Y140.929 E27.68551
G1 X164.503 Y143.464 E27.76985
G1 X164.687 Y146.795 E27.88081
G1 X164.698 Y147.518 E27.90486
G1 X164.689 Y148.125 E27.92505
G1 X164.636 Y149.027 E27.95511
G1 X164.503 Y149.92 E27.98513
G1 X164.291 Y150.798 E28.01518
G1 X164.003 Y151.654 E28.04522
G1 X163.64 Y152.481 E28.07525
G1 X163.206 Y153.273 E28.10529
G1 X162.703 Y154.023 E28.13533
G1 X162.136 Y154.726 E28.16537
G1 X161.509 Y155.375 E28.19538
G1 X160.826 Y155.967 E28.22544
G1 X160.094 Y156.496 E28.25548
G1 X159.319 Y156.959 E28.28551
G1 X158.505 Y157.351 E28.31556
G1 X157.66 Y157.669 E28.34559
G1 X156.79 Y157.911 E28.37562
G1 X155.902 Y158.076 E28.40566
G1 X154.793 Y158.17 E28.44268
G1 X154.187 Y158.183 E28.46284
G1 X95.847 Y158.184 E30.40324
G1 X93.253 Y158.221 E30.48952
G1 X90.292 Y158.346 E30.58809
G1 X88.673 Y158.379 E30.64195
G1 X81.041 Y158.387 E30.89579
G1 X80.373 Y158.378 E30.91801
G1 X79.471 Y158.326 E30.94806
G1 X78.578 Y158.194 E30.97809
G1 X77.699 Y157.984 E31.00815
G1 X76.843 Y157.697 E31.03818
G1 X76.015 Y157.335 E31.06823
G1 X75.223 Y156.902 E31.09825
G1 X74.472 Y156.4 E31.1283
G1 X73.769 Y155.834 E31.15832
G1 X73.118 Y155.208 E31.18836
G1 X72.525 Y154.526 E31.21841
G1 X71.995 Y153.795 E31.24845
G1 X71.532 Y153.02 E31.27847
G1 X71.139 Y152.207 E31.30851
G1 X70.819 Y151.362 E31.33856
G1 X70.576 Y150.492 E31.3686
G1 X70.41 Y149.605 E31.39862
G1 X70.312 Y148.403 E31.43873
G1 X70.301 Y147.573 E31.46634
G1 X70.311 Y146.892 E31.48899
G1 X70.327 Y146.453 E31.5036
G1 X70.495 Y143.549 E31.60035
G1 X70.568 Y141.005 E31.685
G1 X70.568 Y138.471 E31.76928
G1 X70.497 Y135.936 E31.85363
G1 X70.313 Y132.605 E31.96458
G1 X70.303 Y131.81 E31.99103
G1 X70.336 Y130.63 E32.03029
G1 X70.465 Y128.377 E32.10535
G1 X70.538 Y125.812 E32.1907
G1 X70.538 Y123.278 E32.27498
G1 X70.467 Y120.732 E32.35969
G1 X70.314 Y117.756 E32.4588
G1 X70.303 Y117.021 E32.48325
G1 X70.333 Y115.89 E32.52088
G1 X70.465 Y113.55 E32.59883
G1 X70.538 Y111.006 E32.68348
G1 X70.538 Y108.471 E32.7678
G1 X70.466 Y105.901 E32.85331
G1 X70.315 Y103.025 E32.9491
G1 X70.302 Y102.267 E32.97431
G1 X70.319 Y101.385 E33.00365
G1 X70.354 Y100.582 E33.03039
G1 X70.434 Y99.159 E33.07779
G1 X70.505 Y96.63 E33.16194
G1 X70.503 Y94.096 E33.24622
G1 X70.428 Y91.484 E33.33313
G1 X70.314 Y89.187 E33.40962
G1 X70.302 Y88.569 E33.43018
G1 F2700 E28.43018
G0 F6000 X80.7 Y88.042
G1 F2700 E33.43018
G1 F900 X89.5 Y88.05 E33.72287
G1 X89.5 Y88.778 E33.74708
G1 X80.7 Y88.789 E34.03977
G1 X80.7 Y88.042 E34.06462
G1 F2700 E29.06462
G0 F6000 X79.847 Y101.164
G0 X79.847 Y132.971
G0 X80.7 Y147.242
G1 F2700 E34.06462
G1 F900 X89.5 Y147.25 E34.35731
G1 X89.5 Y147.978 E34.38152
G1 X80.7 Y147.989 E34.67421
G1 X80.7 Y147.242 E34.69906
G1 F2700 E29.69906
G0 F6000 X145.153 Y132.97
G0 X145.5 Y131.422
G1 F2700 E34.69906
G1 F900 X154.3 Y131.411 E34.99175
G1 X154.3 Y132.158 E35.01659
G1 X145.5 Y132.15 E35.30928
G1 X145.5 Y131.422 E35.33349
G1 F2700 E30.33349
G0 F6000 X145.5 Y116.622
G1 F2700 E35.33349
G1 F900 X154.3 Y116.611 E35.62618
G1 X154.3 Y117.358 E35.65103
G1 X145.5 Y117.35 E35.94372
G1 X145.5 Y116.622 E35.96793
G1 F2700 E30.96793
G0 F6000 X145.5 Y101.822
G1 F2700 E35.96793
G1 F900 X154.3 Y101.811 E36.26062
G1 X154.3 Y102.558 E36.28547
G1 X145.5 Y102.55 E36.57816
G1 X145.5 Y101.822 E36.60237
G1 F2700 E31.60237
;MESH:R_LE_Mid.stl(3)
G0 F6000 X154.276 Y89.448
G0 X154.275 Y88.558
;TYPE:WALL-OUTER
G1 F2700 E36.60237
G1 F800 X154.275 Y88.108 E36.61921
G1 X146.331 Y88.108 E36.91645
G1 X138.387 Y88.108 E37.2137
G1 X130.443 Y88.108 E37.51094
G1 X122.499 Y88.108 E37.80819
G1 X114.555 Y88.108 E38.10544
G1 X106.611 Y88.108 E38.40268
G1 X98.667 Y88.108 E38.69993
G1 X90.723 Y88.108 E38.99717
G1 F798.2 X90.725 Y88.108 E38.99725
G1 X90.725 Y88.559 E39.01416
G1 F800 X98.669 Y88.559 E39.31141
G1 X106.613 Y88.559 E39.60865
G1 X114.557 Y88.559 E39.9059
G1 X122.501 Y88.559 E40.20314
G1 X130.445 Y88.559 E40.50039
G1 X138.389 Y88.559 E40.79764
G1 X146.333 Y88.559 E41.09488
G1 X154.277 Y88.558 E41.39213
G1 F2700 E36.39213
;MESH:R_LE_Mid.stl(1)
G0 F6000 X154.278 Y89.448
G0 X79.847 Y101.164
G0 X79.847 Y103.371
G0 X80.726 Y103.382
G0 X80.725 Y102.493
