;FLAVOR:Marlin
;TIME:6642
;Filament used: 4.25558m
;Layer height: 0.2
;MINX:37.304
;MINY:37.344
;MINZ:0.2
;MAXX:197.634
;MAXY:197.637
;MAXZ:13.4
;Generated with Cura_SteamEngine 5.0.0
M140 S70
M105
M190 S70
M104 S200
M105
M109 S200
M82 ;absolute extrusion mode
; Ender 3 Custom Start G-code
G28 ; Home all axes
M420 S1; Bed Leveling On
G92 E0 ; Reset Extruder
G1 Z2.0 F3000 ; Move Z Axis up little to prevent scratching of Heat Bed
G1 X0.1 Y20 Z0.3 F5000.0 ; Move to start position
G1 X0.1 Y200.0 Z0.3 F1500.0 E15 ; Draw the first line
G1 X0.4 Y200.0 Z0.3 F5000.0 ; Move to side a little
G1 X0.4 Y20 Z0.3 F1500.0 E30 ; Draw the second line
G92 E0 ; Reset Extruder
G1 Z2.0 F3000 ; Move Z Axis up little to prevent scratching of Heat Bed
G1 X5 Y20 Z0.3 F5000.0 ; Move over to prevent blob squish
G92 E0
G92 E0
G1 F2700 E-5
;LAYER_COUNT:67
;LAYER:0
M107
G0 F6000 X41.045 Y40.73 Z0.2
G0 X37.304 Y48.996
;TYPE:SKIRT
G1 F2700 E0
G1 F900 X37.348 Y48.059 E0.0312
G1 X37.471 Y47.13 E0.06237
G1 X37.674 Y46.214 E0.09357
G1 X37.953 Y45.319 E0.12475
G1 X38.308 Y44.45 E0.15598
G1 X38.735 Y43.615 E0.18717
G1 X39.232 Y42.82 E0.21835
G1 X39.795 Y42.07 E0.24954
G1 X40.393 Y41.398 E0.27946
G1 X41.045 Y40.73 E0.31051
G1 X41.305 Y40.476 E0.3226
G1 X42.003 Y39.849 E0.3538
G1 X42.752 Y39.285 E0.38499
G1 X43.547 Y38.786 E0.41621
G1 X44.381 Y38.357 E0.4474
G1 X45.248 Y38.001 E0.47858
G1 X46.143 Y37.719 E0.50979
G1 X47.058 Y37.515 E0.54097
G1 X47.988 Y37.39 E0.57218
G1 X48.924 Y37.344 E0.60334
G1 X49.862 Y37.378 E0.63456
G1 X50.793 Y37.492 E0.66576
G1 X51.71 Y37.685 E0.69693
G1 X52.608 Y37.955 E0.72812
G1 X53.48 Y38.301 E0.75932
G1 X54.319 Y38.72 E0.79051
G1 X55.12 Y39.209 E0.82172
G1 X55.876 Y39.764 E0.85292
G1 X56.374 Y40.189 E0.87469
G1 X57.295 Y41.026 E0.91608
G1 X59.361 Y42.977 E1.0106
G1 X96.379 Y78.139 E2.70872
G1 X97.989 Y79.677 E2.78278
G1 X98.645 Y80.29 E2.81264
G1 X140.393 Y119.939 E4.72761
G1 X152.522 Y131.482 E5.28451
G1 X158.685 Y137.373 E5.56807
G1 X162.177 Y140.743 E5.72948
G1 X162.603 Y141.167 E5.74947
G1 X164.63 Y143.126 E5.84323
G1 X167.871 Y146.299 E5.99409
G1 X172.029 Y150.417 E6.18873
G1 X175.33 Y153.729 E6.34425
G1 X178.251 Y156.696 E6.48274
G1 X181.323 Y159.872 E6.6297
G1 X184.029 Y162.722 E6.76041
G1 X185.977 Y164.827 E6.8558
G1 X188.424 Y167.559 E6.97779
G1 X189.71 Y169.04 E7.04303
G1 X191.159 Y170.772 E7.11813
G1 X192.234 Y172.136 E7.1759
G1 X192.908 Y173.021 E7.2129
G1 X193.534 Y173.872 E7.24803
G1 X194.042 Y174.605 E7.2777
G1 X194.493 Y175.299 E7.30523
G1 X194.881 Y175.93 E7.32986
G1 X195.15 Y176.392 E7.34764
G1 X195.492 Y177.014 E7.37125
G1 X195.773 Y177.559 E7.39165
G1 X196.043 Y178.145 E7.41311
G1 X196.495 Y179.225 E7.45205
G1 X196.676 Y179.697 E7.46886
G1 X196.978 Y180.599 E7.5005
G1 X197.088 Y180.982 E7.51375
G1 X197.269 Y181.707 E7.5386
G1 X197.355 Y182.107 E7.55221
G1 X197.513 Y183.031 E7.58339
G1 X197.57 Y183.592 E7.60215
G1 X197.604 Y184.043 E7.61719
G1 X197.634 Y184.98 E7.64837
G1 X197.6 Y185.749 E7.67397
G1 X197.568 Y186.148 E7.68729
G1 X197.453 Y187.079 E7.71849
G1 X197.21 Y188.183 E7.75608
G1 X197.135 Y188.456 E7.7655
G1 X196.848 Y189.349 E7.7967
G1 X196.486 Y190.214 E7.82789
G1 X196.052 Y191.046 E7.8591
G1 X195.668 Y191.663 E7.88327
G1 X195.522 Y191.881 E7.89199
G1 X194.967 Y192.637 E7.92319
G1 X194.35 Y193.344 E7.9544
G1 X193.646 Y194.02 E7.98686
G1 X193.422 Y194.217 E7.99678
G1 X192.692 Y194.806 E8.02798
G1 X191.534 Y195.554 E8.07383
G1 X191.218 Y195.731 E8.08588
G1 X190.062 Y196.292 E8.12861
G1 X189.66 Y196.459 E8.14309
G1 X188.357 Y196.907 E8.18892
G1 X188.037 Y196.995 E8.19996
G1 X187.091 Y197.211 E8.23223
G1 X186.141 Y197.384 E8.26435
G1 X185.082 Y197.524 E8.29988
G1 X184.205 Y197.597 E8.32915
G1 X183.501 Y197.633 E8.35259
G1 X182.683 Y197.637 E8.3798
G1 X181.78 Y197.613 E8.40985
G1 X181.015 Y197.566 E8.43534
G1 X179.824 Y197.445 E8.47516
G1 X178.895 Y197.325 E8.50631
G1 X178.472 Y197.262 E8.52053
G1 X177.667 Y197.126 E8.54769
G1 X177.244 Y197.046 E8.56201
G1 X175.514 Y196.678 E8.62083
G1 X174.948 Y196.535 E8.64025
G1 X173.577 Y196.161 E8.68752
G1 X173.19 Y196.048 E8.70093
G1 X171.68 Y195.576 E8.75355
G1 X171.288 Y195.445 E8.76729
G1 X169.634 Y194.855 E8.8257
G1 X167.881 Y194.179 E8.88819
G1 X166.511 Y193.604 E8.93761
G1 X165.361 Y193.101 E8.97935
G1 X164.2 Y192.572 E9.02179
G1 X162.831 Y191.914 E9.07231
G1 X161.191 Y191.09 E9.13335
G1 X159.172 Y190.026 E9.20926
G1 X157.503 Y189.104 E9.27268
G1 X155.75 Y188.092 E9.34
G1 X153.875 Y186.965 E9.41276
G1 X152.335 Y186.007 E9.47308
G1 X150.175 Y184.614 E9.55857
G1 X148.897 Y183.763 E9.60964
G1 X146.552 Y182.154 E9.70423
G1 X145.475 Y181.392 E9.74811
G1 X143.057 Y179.637 E9.84748
G1 X141.889 Y178.765 E9.89596
G1 X139.47 Y176.915 E9.99725
G1 X138.429 Y176.098 E10.04126
G1 X135.849 Y174.029 E10.15126
G1 X134.891 Y173.242 E10.1925
G1 X132.348 Y171.11 E10.30287
G1 X131.389 Y170.29 E10.34484
G1 X128.742 Y167.976 E10.46177
G1 X127.864 Y167.193 E10.5009
G1 X125.09 Y164.672 E10.62557
G1 X124.362 Y163.998 E10.65857
G1 X121.603 Y161.398 E10.78466
G1 X120.868 Y160.693 E10.81854
G1 X117.986 Y157.882 E10.95244
G1 X114.551 Y154.429 E11.11443
G1 X113.879 Y153.742 E11.1464
G1 X111.047 Y150.8 E11.28222
G1 X110.345 Y150.059 E11.31617
G1 X106.941 Y146.405 E11.48226
G1 X103.442 Y142.543 E11.65559
G1 X99.99 Y138.625 E11.82927
G1 X96.527 Y134.588 E12.00618
G1 X93.46 Y130.923 E12.16513
G1 X87.165 Y123.144 E12.49796
G1 X86.411 Y122.19 E12.5384
G1 X80.805 Y114.948 E12.84301
G1 X80.136 Y114.066 E12.87983
G1 X74.78 Y106.877 E13.178
G1 X71.615 Y102.526 E13.35695
G1 X68.663 Y98.39 E13.52596
G1 X66.133 Y94.792 E13.67225
G1 X63.515 Y91.014 E13.82513
G1 X61.015 Y87.36 E13.97239
G1 X58.369 Y83.444 E14.12958
G1 X58.292 Y83.319 E14.13446
G1 X49.369 Y70.056 E14.66613
G1 X45.556 Y64.437 E14.89199
G1 X42.886 Y60.537 E15.04919
G1 X39.591 Y55.795 E15.24125
G1 X39.182 Y55.188 E15.26559
G1 X38.691 Y54.388 E15.29681
G1 X38.271 Y53.55 E15.32799
G1 X37.923 Y52.679 E15.35918
G1 X37.651 Y51.781 E15.39039
G1 X37.456 Y50.864 E15.42157
G1 X37.34 Y49.933 E15.45278
G1 X37.304 Y48.996 E15.48396
G0 F6000 X37.705 Y48.879
G1 F900 X37.759 Y47.96 E15.51458
G1 X37.893 Y47.049 E15.54521
G1 X38.105 Y46.154 E15.5758
G1 X38.394 Y45.279 E15.60645
G1 X38.758 Y44.434 E15.63705
G1 X39.193 Y43.623 E15.66766
G1 X39.698 Y42.853 E15.69829
G1 X40.267 Y42.129 E15.72891
G1 X40.681 Y41.676 E15.74933
G1 X41.325 Y41.016 E15.78
G1 X41.585 Y40.762 E15.79209
G1 X42.271 Y40.148 E15.82271
G1 X43.007 Y39.595 E15.85333
G1 X43.789 Y39.109 E15.88395
G1 X44.61 Y38.692 E15.91458
G1 X45.464 Y38.348 E15.9452
G1 X46.344 Y38.08 E15.97579
G1 X47.245 Y37.889 E16.00643
G1 X48.159 Y37.777 E16.03705
G1 X49.079 Y37.744 E16.06767
G1 X49.998 Y37.792 E16.09828
G1 X50.91 Y37.919 E16.12891
G1 X51.808 Y38.125 E16.15955
G1 X52.684 Y38.408 E16.19017
G1 X53.532 Y38.765 E16.22077
G1 X54.346 Y39.196 E16.25141
G1 X55.12 Y39.695 E16.28204
G1 X56.106 Y40.485 E16.32406
G1 X57.02 Y41.317 E16.36517
G1 X59.085 Y43.267 E16.45963
G1 X96.103 Y78.428 E18.15773
G1 X97.723 Y79.975 E18.23224
G1 X98.37 Y80.58 E18.2617
G1 X140.118 Y120.229 E20.17667
G1 X152.246 Y131.771 E20.73352
G1 X158.408 Y137.66 E21.01701
G1 X161.895 Y141.027 E21.17823
G1 X162.326 Y141.455 E21.19844
G1 X164.351 Y143.412 E21.2921
G1 X167.59 Y146.583 E21.44286
G1 X171.746 Y150.699 E21.63741
G1 X175.045 Y154.01 E21.79287
G1 X177.963 Y156.975 E21.93123
G1 X181.033 Y160.147 E22.07805
G1 X183.735 Y162.994 E22.2086
G1 X185.679 Y165.094 E22.30378
G1 X188.122 Y167.821 E22.42555
G1 X189.404 Y169.297 E22.49058
G1 X190.85 Y171.026 E22.56554
G1 X191.916 Y172.379 E22.62283
G1 X192.587 Y173.259 E22.65964
G1 X193.207 Y174.102 E22.69445
G1 X193.708 Y174.825 E22.7237
G1 X194.153 Y175.509 E22.75084
G1 X194.541 Y176.14 E22.77548
G1 X194.8 Y176.585 E22.79261
G1 X195.142 Y177.207 E22.81621
G1 X195.415 Y177.737 E22.83604
G1 X195.675 Y178.301 E22.8567
G1 X196.121 Y179.369 E22.89519
G1 X196.302 Y179.841 E22.91201
G1 X196.593 Y180.71 E22.94249
G1 X196.703 Y181.093 E22.95574
G1 X196.878 Y181.791 E22.97968
G1 X196.964 Y182.191 E22.99328
G1 X197.118 Y183.099 E23.02392
G1 X197.171 Y183.622 E23.0414
G1 X197.205 Y184.073 E23.05644
G1 X197.234 Y184.993 E23.08706
G1 X197.201 Y185.717 E23.11116
G1 X197.169 Y186.116 E23.12448
G1 X197.056 Y187.03 E23.15511
G1 X196.824 Y188.077 E23.19078
G1 X196.749 Y188.35 E23.20019
G1 X196.467 Y189.226 E23.2308
G1 X196.11 Y190.075 E23.26143
G1 X195.68 Y190.889 E23.29205
G1 X195.335 Y191.44 E23.31367
G1 X195.189 Y191.658 E23.3224
G1 X194.644 Y192.4 E23.35302
G1 X194.037 Y193.092 E23.38364
G1 X193.382 Y193.72 E23.41382
G1 X193.158 Y193.917 E23.42374
G1 X192.441 Y194.494 E23.45435
G1 X191.338 Y195.205 E23.498
G1 X191.022 Y195.382 E23.51004
G1 X189.909 Y195.923 E23.5512
G1 X189.507 Y196.09 E23.56568
G1 X188.251 Y196.522 E23.60986
G1 X187.931 Y196.61 E23.6209
G1 X187.019 Y196.817 E23.652
G1 X186.069 Y196.99 E23.68412
G1 X185.049 Y197.125 E23.71834
G1 X184.172 Y197.198 E23.74761
G1 X183.493 Y197.233 E23.77022
G1 X182.693 Y197.237 E23.79683
G1 X181.79 Y197.213 E23.82688
G1 X181.053 Y197.168 E23.85144
G1 X179.875 Y197.049 E23.89082
G1 X178.946 Y196.929 E23.92197
G1 X178.538 Y196.868 E23.93569
G1 X177.733 Y196.732 E23.96285
G1 X177.326 Y196.655 E23.97662
G1 X175.609 Y196.289 E24.03501
G1 X175.053 Y196.149 E24.05408
G1 X173.682 Y195.775 E24.10135
G1 X173.31 Y195.666 E24.11424
G1 X171.8 Y195.194 E24.16686
G1 X171.422 Y195.068 E24.18011
G1 X169.777 Y194.482 E24.23819
G1 X168.036 Y193.81 E24.30026
G1 X166.671 Y193.237 E24.3495
G1 X165.526 Y192.737 E24.39106
G1 X164.373 Y192.212 E24.4332
G1 X163.01 Y191.556 E24.48351
G1 X161.378 Y190.736 E24.54425
G1 X159.365 Y189.675 E24.61994
G1 X157.703 Y188.757 E24.68309
G1 X155.956 Y187.749 E24.75017
G1 X154.086 Y186.626 E24.82272
G1 X152.552 Y185.671 E24.88282
G1 X150.397 Y184.281 E24.96811
G1 X149.123 Y183.433 E25.01902
G1 X146.783 Y181.827 E25.11341
G1 X145.71 Y181.068 E25.15712
G1 X143.296 Y179.316 E25.25633
G1 X142.132 Y178.448 E25.30463
G1 X139.717 Y176.6 E25.40577
G1 X138.679 Y175.786 E25.44964
G1 X136.102 Y173.72 E25.5595
G1 X135.148 Y172.936 E25.60057
G1 X132.608 Y170.806 E25.71082
G1 X131.653 Y169.988 E25.75264
G1 X129.008 Y167.677 E25.86947
G1 X128.133 Y166.897 E25.90845
G1 X125.362 Y164.378 E26.03301
G1 X124.636 Y163.706 E26.06591
G1 X121.88 Y161.109 E26.19186
G1 X121.147 Y160.406 E26.22564
G1 X118.27 Y157.6 E26.35931
G1 X114.837 Y154.149 E26.52121
G1 X114.167 Y153.464 E26.55308
G1 X111.338 Y150.525 E26.68876
G1 X110.637 Y149.786 E26.72263
G1 X107.237 Y146.137 E26.88852
G1 X103.742 Y142.279 E27.06166
G1 X100.293 Y138.364 E27.2352
G1 X96.834 Y134.331 E27.41191
G1 X93.771 Y130.671 E27.57065
G1 X87.478 Y122.896 E27.90334
G1 X86.728 Y121.945 E27.94362
G1 X81.124 Y114.707 E28.24808
G1 X80.456 Y113.827 E28.28483
G1 X75.103 Y106.642 E28.58283
G1 X71.941 Y102.294 E28.76165
G1 X68.99 Y98.16 E28.93058
G1 X66.462 Y94.564 E29.07678
G1 X63.845 Y90.788 E29.22959
G1 X61.346 Y87.136 E29.37677
G1 X58.7 Y83.22 E29.53396
G1 X58.622 Y83.093 E29.53892
G1 X49.701 Y69.833 E30.07047
G1 X45.911 Y64.248 E30.29496
G1 X43.216 Y60.311 E30.45365
G1 X39.922 Y55.571 E30.64563
G1 X39.513 Y54.964 E30.66997
G1 X39.033 Y54.179 E30.70058
G1 X38.622 Y53.355 E30.7312
G1 X38.284 Y52.499 E30.76181
G1 X38.022 Y51.616 E30.79245
G1 X37.837 Y50.714 E30.82307
G1 X37.731 Y49.8 E30.85368
G1 X37.705 Y48.879 E30.88432
G0 F6000 X38.108 Y48.765
G1 F900 X38.172 Y47.864 E30.91436
G1 X38.316 Y46.973 E30.94438
G1 X38.538 Y46.097 E30.97444
G1 X38.837 Y45.245 E31.00447
G1 X39.21 Y44.423 E31.03449
G1 X39.654 Y43.636 E31.06455
G1 X40.166 Y42.892 E31.09459
G1 X40.968 Y41.954 E31.13563
G1 X41.604 Y41.302 E31.16593
G1 X41.864 Y41.048 E31.17802
G1 X42.537 Y40.446 E31.20805
G1 X43.261 Y39.906 E31.23809
G1 X44.03 Y39.432 E31.26814
G1 X44.838 Y39.028 E31.29818
G1 X45.678 Y38.697 E31.32821
G1 X46.545 Y38.442 E31.35827
G1 X47.43 Y38.264 E31.38829
G1 X48.328 Y38.166 E31.41834
G1 X49.231 Y38.147 E31.44838
G1 X50.132 Y38.208 E31.47842
G1 X51.024 Y38.348 E31.50845
G1 X51.9 Y38.567 E31.53848
G1 X52.753 Y38.863 E31.56851
G1 X53.577 Y39.233 E31.59855
G1 X54.365 Y39.674 E31.62859
G1 X55.111 Y40.183 E31.65862
G1 X55.837 Y40.782 E31.68993
G1 X56.746 Y41.607 E31.73076
G1 X58.81 Y43.557 E31.8252
G1 X95.826 Y78.717 E33.52323
G1 X97.395 Y80.216 E33.5954
G1 X98.094 Y80.87 E33.62724
G1 X139.842 Y120.518 E35.54219
G1 X151.97 Y132.06 E36.09904
G1 X158.13 Y137.948 E36.38246
G1 X161.613 Y141.31 E36.54347
G1 X162.049 Y141.743 E36.56391
G1 X164.071 Y143.698 E36.65746
G1 X167.308 Y146.867 E36.80812
G1 X171.463 Y150.982 E37.00262
G1 X174.76 Y154.29 E37.15796
G1 X177.676 Y157.253 E37.29623
G1 X180.743 Y160.423 E37.44294
G1 X183.442 Y163.266 E37.57332
G1 X185.381 Y165.361 E37.66826
G1 X187.821 Y168.084 E37.78987
G1 X189.097 Y169.555 E37.85464
G1 X190.541 Y171.28 E37.92946
G1 X191.598 Y172.621 E37.98625
G1 X192.265 Y173.497 E38.02287
G1 X192.879 Y174.331 E38.05732
G1 X193.374 Y175.046 E38.08624
G1 X193.812 Y175.718 E38.11292
G1 X194.2 Y176.349 E38.13756
G1 X194.449 Y176.778 E38.15406
G1 X194.791 Y177.4 E38.17767
G1 X195.057 Y177.915 E38.19695
G1 X195.307 Y178.458 E38.21683
G1 X195.748 Y179.512 E38.25483
G1 X195.929 Y179.984 E38.27164
G1 X196.209 Y180.82 E38.30097
G1 X196.319 Y181.203 E38.31422
G1 X196.487 Y181.875 E38.33726
G1 X196.573 Y182.275 E38.35087
G1 X196.724 Y183.165 E38.38089
G1 X196.772 Y183.652 E38.39717
G1 X196.806 Y184.103 E38.41221
G1 X196.834 Y185.006 E38.44226
G1 X196.802 Y185.685 E38.46487
G1 X196.77 Y186.084 E38.47818
G1 X196.658 Y186.981 E38.50825
G1 X196.439 Y187.971 E38.54197
G1 X196.364 Y188.244 E38.55139
G1 X196.086 Y189.103 E38.58142
G1 X195.734 Y189.935 E38.61146
G1 X195.309 Y190.732 E38.64151
G1 X194.857 Y191.436 E38.66933
G1 X194.322 Y192.163 E38.69935
G1 X193.724 Y192.84 E38.7294
G1 X193.118 Y193.419 E38.75727
G1 X192.894 Y193.616 E38.7672
G1 X192.19 Y194.182 E38.79724
G1 X191.143 Y194.856 E38.83865
G1 X190.827 Y195.033 E38.8507
G1 X189.755 Y195.554 E38.89034
G1 X189.353 Y195.721 E38.90482
G1 X188.145 Y196.136 E38.94731
G1 X187.825 Y196.224 E38.95834
G1 X186.947 Y196.424 E38.98829
G1 X185.997 Y196.597 E39.02041
G1 X185.016 Y196.727 E39.05332
G1 X184.139 Y196.8 E39.08259
G1 X183.485 Y196.833 E39.10437
G1 X182.704 Y196.837 E39.13035
G1 X181.801 Y196.813 E39.1604
G1 X181.092 Y196.77 E39.18402
G1 X179.926 Y196.652 E39.223
G1 X178.997 Y196.532 E39.25415
G1 X177.8 Y196.337 E39.29449
G1 X177.408 Y196.263 E39.30776
G1 X175.704 Y195.901 E39.3657
G1 X175.159 Y195.763 E39.3844
G1 X173.788 Y195.389 E39.43166
G1 X173.429 Y195.284 E39.44411
G1 X171.919 Y194.812 E39.49672
G1 X171.555 Y194.691 E39.50948
G1 X169.919 Y194.108 E39.56725
G1 X168.19 Y193.441 E39.62889
G1 X166.831 Y192.87 E39.67791
G1 X165.691 Y192.372 E39.71929
G1 X164.546 Y191.851 E39.76113
G1 X163.189 Y191.199 E39.8112
G1 X161.564 Y190.382 E39.8717
G1 X159.558 Y189.325 E39.94711
G1 X157.903 Y188.411 E40.01
G1 X156.162 Y187.406 E40.07686
G1 X154.297 Y186.286 E40.14921
G1 X152.768 Y185.335 E40.2091
G1 X150.618 Y183.948 E40.2942
G1 X149.349 Y183.103 E40.34491
G1 X147.013 Y181.5 E40.43914
G1 X145.945 Y180.745 E40.48264
G1 X143.535 Y178.995 E40.5817
G1 X142.375 Y178.13 E40.62983
G1 X139.964 Y176.285 E40.7308
G1 X138.929 Y175.474 E40.77454
G1 X136.356 Y173.41 E40.88425
G1 X135.405 Y172.629 E40.92518
G1 X132.868 Y170.502 E41.03529
G1 X131.916 Y169.687 E41.07697
G1 X129.274 Y167.379 E41.19365
G1 X128.402 Y166.601 E41.23252
G1 X125.634 Y164.085 E41.35693
G1 X124.911 Y163.415 E41.38972
G1 X122.156 Y160.82 E41.5156
G1 X121.426 Y160.12 E41.54924
G1 X118.553 Y157.317 E41.68274
G1 X115.123 Y153.87 E41.84448
G1 X114.455 Y153.187 E41.87625
G1 X111.628 Y150.25 E42.01184
G1 X110.93 Y149.513 E42.0456
G1 X107.533 Y145.868 E42.21132
G1 X104.043 Y142.014 E42.38425
G1 X100.597 Y138.104 E42.55759
G1 X97.141 Y134.075 E42.73415
G1 X94.082 Y130.419 E42.89269
G1 X87.792 Y122.648 E43.22522
G1 X87.044 Y121.7 E43.26538
G1 X81.442 Y114.465 E43.56972
G1 X80.777 Y113.588 E43.60633
G1 X75.427 Y106.406 E43.90419
G1 X72.266 Y102.062 E44.08288
G1 X69.317 Y97.93 E44.25172
G1 X66.791 Y94.336 E44.39783
G1 X64.175 Y90.562 E44.55056
G1 X61.677 Y86.912 E44.69767
G1 X59.031 Y82.996 E44.85486
G1 X58.951 Y82.866 E44.85994
