;FLAVOR:Marlin
;TIME:2726
;Filament used: 1.89756m
;Layer height: 0.2
;MINX:52.326
;MINY:55.941
;MINZ:0.2
;MAXX:182.61
;MAXY:179.223
;MAXZ:2
;Generated with Cura_SteamEngine 5.0.0
M140 S70
M105
M190 S70
M104 S200
M105
M109 S200
M82 ;absolute extrusion mode
; Ender 3 Custom Start G-code
G28 ; Home all axes
M420 S1; Bed Leveling On
G92 E0 ; Reset Extruder
G1 Z2.0 F3000 ; Move Z Axis up little to prevent scratching of Heat Bed
G1 X0.1 Y20 Z0.3 F5000.0 ; Move to start position
G1 X0.1 Y200.0 Z0.3 F1500.0 E15 ; Draw the first line
G1 X0.4 Y200.0 Z0.3 F5000.0 ; Move to side a little
G1 X0.4 Y20 Z0.3 F1500.0 E30 ; Draw the second line
G92 E0 ; Reset Extruder
G1 Z2.0 F3000 ; Move Z Axis up little to prevent scratching of Heat Bed
G1 X5 Y20 Z0.3 F5000.0 ; Move over to prevent blob squish
G92 E0
G92 E0
G1 F2700 E-5
;LAYER_COUNT:10
;LAYER:0
M107
G0 F6000 X58.564 Y61.731 Z0.2
G0 X52.485 Y74.066
;TYPE:SKIRT
G1 F2700 E0
G1 F900 X52.593 Y73.234 E0.0279
G1 X52.7 Y72.643 E0.04788
G1 X52.854 Y71.909 E0.07283
G1 X53.06 Y71.086 E0.10104
G1 X53.278 Y70.339 E0.12692
G1 X53.525 Y69.595 E0.153
G1 X53.735 Y69.029 E0.17308
G1 X54.014 Y68.348 E0.19755
G1 X54.463 Y67.367 E0.23344
G1 X54.795 Y66.723 E0.25754
G1 X55.057 Y66.25 E0.27552
G1 X55.339 Y65.769 E0.29407
G1 X55.701 Y65.199 E0.31652
G1 X55.948 Y64.83 E0.33129
G1 X56.269 Y64.375 E0.34981
G1 X56.742 Y63.756 E0.37572
G1 X57.148 Y63.255 E0.39717
G1 X57.629 Y62.7 E0.4216
G1 X58.026 Y62.272 E0.44102
G1 X58.564 Y61.731 E0.46639
G1 X59.05 Y61.275 E0.48856
G1 X59.669 Y60.732 E0.51594
G1 X60.448 Y60.115 E0.549
G1 X61.04 Y59.685 E0.57333
G1 X61.65 Y59.273 E0.59782
G1 X62.431 Y58.792 E0.62832
G1 X63.129 Y58.401 E0.65493
G1 X63.749 Y58.077 E0.6782
G1 X64.515 Y57.728 E0.7062
G1 X65.529 Y57.312 E0.74265
G1 X66.27 Y57.037 E0.76894
G1 X66.898 Y56.838 E0.79085
G1 X67.528 Y56.659 E0.81263
G1 X68.051 Y56.524 E0.8306
G1 X68.905 Y56.339 E0.85966
G1 X69.602 Y56.213 E0.88322
G1 X70.38 Y56.101 E0.90936
G1 X71.113 Y56.022 E0.93388
G1 X71.845 Y55.968 E0.9583
G1 X72.563 Y55.945 E0.98219
G1 X73.165 Y55.941 E1.00221
G1 X73.929 Y55.963 E1.02763
G1 X74.961 Y56.028 E1.06203
G1 X75.62 Y56.089 E1.08404
G1 X76.468 Y56.209 E1.11252
G1 X77.262 Y56.35 E1.13935
G1 X78.007 Y56.509 E1.16468
G1 X78.552 Y56.651 E1.18341
G1 X79.415 Y56.895 E1.21324
G1 X80.113 Y57.118 E1.23761
G1 X80.753 Y57.346 E1.26021
G1 X81.365 Y57.585 E1.28206
G1 X81.972 Y57.843 E1.304
G1 X82.588 Y58.127 E1.32656
G1 X83.33 Y58.498 E1.35415
G1 X84 Y58.863 E1.37953
G1 X84.678 Y59.263 E1.40571
G1 X85.313 Y59.667 E1.43074
G1 X86.062 Y60.181 E1.46096
G1 X86.67 Y60.63 E1.4861
G1 X87.258 Y61.096 E1.51105
G1 X87.686 Y61.453 E1.52959
G1 X88.283 Y61.983 E1.55614
G1 X88.835 Y62.506 E1.58143
G1 X90.637 Y64.299 E1.66598
G1 X133.797 Y107.458 E3.69607
G1 X135.242 Y108.913 E3.76428
G1 X135.953 Y109.614 E3.79748
G1 X178.98 Y152.64 E5.82132
G1 X179.492 Y153.166 E5.84573
G1 X180.117 Y153.866 E5.87695
G1 X180.68 Y154.616 E5.90814
G1 X181.178 Y155.411 E5.93934
G1 X181.605 Y156.246 E5.97053
G1 X181.96 Y157.114 E6.00172
G1 X182.24 Y158.009 E6.03291
G1 X182.442 Y158.925 E6.06411
G1 X182.566 Y159.855 E6.09532
G1 X182.61 Y160.791 E6.12648
G1 X182.574 Y161.729 E6.1577
G1 X182.458 Y162.659 E6.18887
G1 X182.264 Y163.577 E6.22008
G1 X181.992 Y164.474 E6.25126
G1 X181.645 Y165.345 E6.28244
G1 X181.224 Y166.184 E6.31366
G1 X180.734 Y166.983 E6.34484
G1 X180.177 Y167.738 E6.37604
G1 X179.616 Y168.382 E6.40445
G1 X179.16 Y168.859 E6.4264
G1 X174.689 Y173.329 E6.63668
G1 X174.194 Y173.809 E6.65961
G1 X173.493 Y174.433 E6.69082
G1 X172.742 Y174.994 E6.722
G1 X171.946 Y175.49 E6.7532
G1 X171.11 Y175.916 E6.7844
G1 X170.241 Y176.269 E6.8156
G1 X169.346 Y176.547 E6.84677
G1 X168.43 Y176.748 E6.87796
G1 X167.234 Y176.89 E6.91802
G1 X166.78 Y176.919 E6.93315
G1 X164.2 Y177.122 E7.01923
G1 X161.714 Y177.388 E7.10239
G1 X159.21 Y177.727 E7.18643
G1 X156.744 Y178.134 E7.26956
G1 X154.257 Y178.616 E7.35381
G1 X153.401 Y178.805 E7.38297
G1 X152.416 Y179.006 E7.41641
G1 X151.49 Y179.154 E7.4476
G1 X150.555 Y179.223 E7.47878
G1 X149.617 Y179.212 E7.50998
G1 X148.684 Y179.121 E7.54116
G1 X147.761 Y178.95 E7.57238
G1 X146.857 Y178.702 E7.60356
G1 X145.977 Y178.378 E7.63475
G1 X145.128 Y177.98 E7.66593
G1 X144.316 Y177.511 E7.69712
G1 X143.546 Y176.974 E7.72835
G1 X142.612 Y176.175 E7.76923
G1 X142.16 Y175.739 E7.79012
G1 X59.355 Y92.93 E11.6851
G1 X58.515 Y92.058 E11.72537
G1 X58.18 Y91.695 E11.7418
G1 X57.82 Y91.286 E11.75992
G1 X57.402 Y90.782 E11.7817
G1 X56.698 Y89.869 E11.82005
G1 X56.539 Y89.651 E11.82902
G1 X56.154 Y89.087 E11.85174
G1 X55.458 Y87.986 E11.89506
G1 X55.329 Y87.768 E11.90348
G1 X55.006 Y87.181 E11.92577
G1 X54.462 Y86.106 E11.96584
G1 X54.286 Y85.731 E11.97962
G1 X54.031 Y85.142 E12.00097
G1 X53.711 Y84.319 E12.03033
G1 X53.527 Y83.801 E12.04862
G1 X53.311 Y83.127 E12.07216
G1 X53.056 Y82.23 E12.10317
G1 X52.87 Y81.502 E12.12817
G1 X52.732 Y80.853 E12.15023
G1 X52.586 Y80.003 E12.17892
G1 X52.488 Y79.315 E12.20203
G1 X52.405 Y78.536 E12.22809
G1 X52.353 Y77.703 E12.25585
G1 X52.331 Y77.11 E12.27559
G1 X52.326 Y76.465 E12.29704
G1 X52.337 Y75.955 E12.31401
G1 X52.382 Y75.167 E12.34026
G1 X52.485 Y74.066 E12.37704
G0 F6000 X52.725 Y76.473
G1 F900 X52.736 Y75.963 E12.394
G1 X52.78 Y75.205 E12.41926
G1 X52.883 Y74.104 E12.45604
G1 X52.989 Y73.294 E12.48321
G1 X53.092 Y72.725 E12.50244
G1 X53.246 Y71.991 E12.52738
G1 X53.444 Y71.198 E12.55457
G1 X53.662 Y70.451 E12.58045
G1 X53.9 Y69.734 E12.60558
G1 X54.11 Y69.168 E12.62566
G1 X54.379 Y68.512 E12.64924
G1 X54.821 Y67.544 E12.68463
G1 X55.144 Y66.917 E12.70809
G1 X55.406 Y66.444 E12.72608
G1 X55.842 Y65.719 E12.75421
G1 X56.28 Y65.053 E12.78073
G1 X56.59 Y64.614 E12.7986
G1 X57.053 Y64.008 E12.82397
G1 X57.459 Y63.507 E12.84541
G1 X57.923 Y62.972 E12.86897
G1 X58.32 Y62.544 E12.88838
G1 X58.838 Y62.023 E12.91282
G1 X59.324 Y61.567 E12.93499
G1 X59.928 Y61.038 E12.96169
G1 X60.276 Y60.755 E12.97661
G1 X60.693 Y60.431 E12.99417
G1 X61.264 Y60.017 E13.01763
G1 X61.874 Y59.605 E13.04211
G1 X62.627 Y59.141 E13.07153
G1 X63.325 Y58.75 E13.09814
G1 X63.929 Y58.434 E13.12081
G1 X64.667 Y58.098 E13.14778
G1 X65.681 Y57.682 E13.18424
G1 X66.402 Y57.414 E13.20982
G1 X67.007 Y57.223 E13.23092
G1 X67.637 Y57.044 E13.25271
G1 X68.469 Y56.838 E13.28121
G1 X68.976 Y56.733 E13.29843
G1 X69.673 Y56.607 E13.32199
G1 X70.423 Y56.499 E13.3472
G1 X71.156 Y56.42 E13.37172
G1 X71.861 Y56.368 E13.39523
G1 X72.566 Y56.345 E13.41869
G1 X73.168 Y56.341 E13.43871
G1 X73.904 Y56.362 E13.4632
G1 X74.936 Y56.427 E13.49759
G1 X75.571 Y56.486 E13.51881
G1 X76.398 Y56.603 E13.54659
G1 X77.192 Y56.744 E13.57341
G1 X77.91 Y56.897 E13.59782
G1 X78.443 Y57.036 E13.61614
G1 X79.306 Y57.28 E13.64597
G1 X79.979 Y57.495 E13.66947
G1 X80.619 Y57.723 E13.69207
G1 X81.208 Y57.953 E13.7131
G1 X81.815 Y58.211 E13.73504
G1 X82.409 Y58.485 E13.75679
G1 X83.151 Y58.856 E13.78439
G1 X83.797 Y59.207 E13.80884
G1 X84.475 Y59.607 E13.83502
G1 X85.087 Y59.997 E13.85916
G1 X85.836 Y60.511 E13.88937
G1 X86.422 Y60.944 E13.91361
G1 X87.01 Y61.41 E13.93856
G1 X87.422 Y61.753 E13.95639
G1 X88.01 Y62.276 E13.98256
G1 X88.553 Y62.79 E14.00743
G1 X90.354 Y64.582 E14.09193
G1 X133.513 Y107.74 E16.12198
G1 X134.936 Y109.172 E16.18912
G1 X135.67 Y109.896 E16.22341
G1 X178.694 Y152.919 E18.24711
G1 X179.206 Y153.445 E18.27152
G1 X179.819 Y154.132 E18.30215
G1 X180.37 Y154.87 E18.33278
G1 X180.855 Y155.653 E18.36341
G1 X181.27 Y156.474 E18.39401
G1 X181.612 Y157.329 E18.42464
G1 X181.879 Y158.21 E18.45526
G1 X182.068 Y159.111 E18.48587
G1 X182.179 Y160.025 E18.5165
G1 X182.209 Y160.945 E18.54711
G1 X182.16 Y161.865 E18.57776
G1 X182.031 Y162.776 E18.60836
G1 X181.824 Y163.673 E18.63898
G1 X181.54 Y164.549 E18.66961
G1 X181.18 Y165.396 E18.70022
G1 X180.749 Y166.21 E18.73085
G1 X180.248 Y166.982 E18.76146
G1 X179.683 Y167.709 E18.79208
G1 X179.097 Y168.35 E18.82097
G1 X174.41 Y173.042 E19.04155
G1 X173.915 Y173.522 E19.06448
G1 X173.227 Y174.133 E19.09509
G1 X172.488 Y174.683 E19.12573
G1 X171.705 Y175.166 E19.15633
G1 X170.882 Y175.58 E19.18697
G1 X170.027 Y175.921 E19.21758
G1 X169.145 Y176.186 E19.24821
G1 X168.244 Y176.373 E19.27882
G1 X167.209 Y176.491 E19.31347
G1 X166.724 Y176.522 E19.32963
G1 X164.198 Y176.721 E19.41391
G1 X161.655 Y176.993 E19.49897
G1 X159.158 Y177.331 E19.58278
G1 X156.674 Y177.741 E19.66651
G1 X154.174 Y178.225 E19.75121
G1 X153.321 Y178.413 E19.78026
G1 X152.336 Y178.614 E19.8137
G1 X151.427 Y178.759 E19.84431
G1 X150.509 Y178.824 E19.87492
G1 X149.588 Y178.809 E19.90556
G1 X148.673 Y178.715 E19.93615
G1 X147.768 Y178.541 E19.9668
G1 X146.883 Y178.29 E19.9974
G1 X146.022 Y177.963 E20.02803
G1 X145.193 Y177.562 E20.05866
G1 X144.402 Y177.091 E20.08928
G1 X143.655 Y176.553 E20.1199
G1 X142.888 Y175.886 E20.15371
G1 X142.443 Y175.456 E20.17429
G1 X59.643 Y92.653 E24.06902
G1 X58.803 Y91.781 E24.10929
G1 X58.48 Y91.431 E24.12513
G1 X58.12 Y91.022 E24.14325
G1 X57.718 Y90.536 E24.16423
G1 X57.021 Y89.633 E24.20217
G1 X56.862 Y89.415 E24.21114
G1 X56.491 Y88.872 E24.23302
G1 X55.803 Y87.782 E24.27589
G1 X55.674 Y87.564 E24.28431
G1 X55.362 Y86.999 E24.30578
G1 X54.824 Y85.936 E24.3454
G1 X54.648 Y85.561 E24.35918
G1 X54.402 Y84.994 E24.37974
G1 X54.087 Y84.185 E24.40861
G1 X53.903 Y83.667 E24.4269
G1 X53.696 Y83.018 E24.44955
G1 X53.441 Y82.121 E24.48057
G1 X53.259 Y81.407 E24.50508
G1 X53.126 Y80.781 E24.52636
G1 X52.982 Y79.947 E24.55451
G1 X52.884 Y79.259 E24.57763
G1 X52.804 Y78.508 E24.60275
G1 X52.752 Y77.688 E24.63008
G1 X52.73 Y77.095 E24.64981
G1 X52.725 Y76.473 E24.6705
G0 F6000 X53.125 Y76.482
G1 F900 X53.136 Y75.972 E24.68747
G1 X53.178 Y75.242 E24.71179
G1 X53.281 Y74.141 E24.74857
G1 X53.384 Y73.355 E24.77493
G1 X53.483 Y72.808 E24.79342
G1 X53.637 Y72.074 E24.81837
G1 X53.828 Y71.31 E24.84456
G1 X54.046 Y70.563 E24.87044
G1 X54.275 Y69.873 E24.89462
G1 X54.485 Y69.307 E24.9147
G1 X54.744 Y68.676 E24.93739
G1 X55.18 Y67.722 E24.97227
G1 X55.494 Y67.111 E24.99512
G1 X55.756 Y66.638 E25.01311
G1 X56.181 Y65.93 E25.04057
G1 X56.613 Y65.275 E25.06667
G1 X57.11 Y64.587 E25.0949
G1 X57.363 Y64.26 E25.10865
G1 X57.769 Y63.759 E25.1301
G1 X58.216 Y63.244 E25.15278
G1 X58.613 Y62.816 E25.17219
G1 X59.112 Y62.315 E25.19571
G1 X59.598 Y61.859 E25.21788
G1 X60.186 Y61.343 E25.2439
G1 X60.522 Y61.07 E25.2583
G1 X60.939 Y60.746 E25.27586
G1 X61.488 Y60.348 E25.29841
G1 X62.098 Y59.936 E25.3229
G1 X62.822 Y59.49 E25.35118
G1 X63.52 Y59.099 E25.37779
G1 X64.109 Y58.792 E25.39988
G1 X64.819 Y58.468 E25.42584
G1 X65.833 Y58.052 E25.46229
G1 X66.534 Y57.792 E25.48716
G1 X67.116 Y57.607 E25.50747
G1 X67.746 Y57.428 E25.52925
G1 X68.56 Y57.227 E25.55714
G1 X69.048 Y57.127 E25.57371
G1 X69.745 Y57.001 E25.59727
G1 X70.466 Y56.897 E25.6215
G1 X71.199 Y56.818 E25.64602
G1 X71.877 Y56.767 E25.66863
G1 X72.568 Y56.745 E25.69163
G1 X73.17 Y56.741 E25.71165
G1 X73.879 Y56.761 E25.73524
G1 X74.911 Y56.826 E25.76963
G1 X75.522 Y56.883 E25.79004
G1 X76.328 Y56.997 E25.81712
G1 X77.122 Y57.138 E25.84394
G1 X77.813 Y57.286 E25.86744
G1 X78.334 Y57.421 E25.88534
G1 X79.197 Y57.665 E25.91517
G1 X79.845 Y57.872 E25.9378
G1 X80.485 Y58.1 E25.96039
G1 X81.052 Y58.321 E25.98063
G1 X81.659 Y58.579 E26.00257
G1 X82.231 Y58.843 E26.02352
G1 X82.973 Y59.214 E26.05112
G1 X83.594 Y59.552 E26.07463
G1 X84.272 Y59.952 E26.10081
G1 X84.86 Y60.327 E26.12401
G1 X85.609 Y60.841 E26.15422
G1 X86.173 Y61.257 E26.17753
G1 X86.761 Y61.723 E26.20249
G1 X87.158 Y62.054 E26.21968
G1 X87.738 Y62.569 E26.24548
G1 X88.271 Y63.073 E26.26988
G1 X90.071 Y64.864 E26.35433
G1 X133.229 Y108.021 E28.38433
G1 X134.679 Y109.481 E28.45277
G1 X135.387 Y110.179 E28.48583
G1 X178.407 Y153.198 E30.50934
G1 X178.919 Y153.724 E30.53375
G1 X179.52 Y154.399 E30.56381
G1 X180.058 Y155.124 E30.59384
G1 X180.531 Y155.893 E30.62387
G1 X180.933 Y156.702 E30.65392
G1 X181.263 Y157.543 E30.68396
G1 X181.516 Y158.409 E30.71397
G1 X181.693 Y159.295 E30.74402
G1 X181.79 Y160.193 E30.77406
G1 X181.807 Y161.096 E30.8041
G1 X181.744 Y161.997 E30.83414
G1 X181.602 Y162.889 E30.86418
G1 X181.381 Y163.765 E30.89423
G1 X181.084 Y164.617 E30.92424
G1 X180.713 Y165.441 E30.9543
G1 X180.27 Y166.228 E30.98434
G1 X179.76 Y166.973 E31.01437
G1 X179.034 Y167.834 E31.05182
G1 X178.594 Y168.293 E31.07297
G1 X174.132 Y172.755 E31.28285
G1 X173.637 Y173.235 E31.30578
G1 X172.961 Y173.834 E31.33583
G1 X172.235 Y174.371 E31.36586
G1 X171.465 Y174.842 E31.39588
G1 X170.655 Y175.243 E31.42594
G1 X169.814 Y175.571 E31.45597
G1 X168.947 Y175.823 E31.486
G1 X168.061 Y175.997 E31.51603
G1 X167.183 Y176.091 E31.5454
G1 X164.122 Y176.326 E31.64751
G1 X161.63 Y176.593 E31.73086
G1 X159.076 Y176.939 E31.81659
G1 X156.605 Y177.347 E31.89989
G1 X154.082 Y177.835 E31.98536
G1 X153.241 Y178.021 E32.014
G1 X152.256 Y178.222 E32.04744
G1 X151.364 Y178.363 E32.07748
G1 X150.463 Y178.425 E32.10751
G1 X149.56 Y178.407 E32.13755
G1 X148.663 Y178.309 E32.16757
G1 X147.777 Y178.132 E32.19762
G1 X146.911 Y177.877 E32.22764
G1 X146.07 Y177.547 E32.25769
G1 X145.262 Y177.144 E32.28772
G1 X144.493 Y176.67 E32.31777
G1 X143.769 Y176.131 E32.34779
G1 X143.165 Y175.597 E32.3746
G1 X142.725 Y175.173 E32.39493
G1 X59.931 Y92.375 E36.2894
G1 X59.091 Y91.503 E36.32967
G1 X58.78 Y91.166 E36.34492
G1 X58.42 Y90.757 E36.36304
G1 X58.033 Y90.29 E36.38322
G1 X57.344 Y89.398 E36.4207
G1 X57.185 Y89.18 E36.42968
G1 X56.828 Y88.656 E36.45077
G1 X56.147 Y87.578 E36.49318
G1 X56.018 Y87.36 E36.5016
G1 X55.718 Y86.816 E36.52226
G1 X55.186 Y85.766 E36.56141
G1 X55.01 Y85.391 E36.57519
G1 X54.774 Y84.845 E36.59498
G1 X54.464 Y84.051 E36.62333
G1 X54.28 Y83.533 E36.64161
G1 X54.081 Y82.908 E36.66342
G1 X53.729 Y81.647 E36.70697
G1 X53.647 Y81.312 E36.71844
G1 X53.519 Y80.71 E36.73891
G1 X53.378 Y79.89 E36.76658
G1 X53.28 Y79.202 E36.7897
G1 X53.203 Y78.48 E36.81385
G1 X53.152 Y77.673 E36.84074
G1 X53.13 Y77.08 E36.86048
G1 X53.125 Y76.482 E36.88037
G1 F2700 E31.88037
;MESH:Right_Front_Spar_Outter.stl
G0 F6000 X62.887 Y78.978
G0 X63.74 Y78.843
;TYPE:WALL-OUTER
G1 F2700 E36.88037
G1 F900 X64.017 Y79.892 E36.91645
G1 X64.416 Y80.975 E36.95484
G1 X64.899 Y81.964 E36.99145
G1 X65.493 Y82.935 E37.02931
G1 X66.153 Y83.815 E37.0659
G1 X66.897 Y84.636 E37.10275
G1 X150.219 Y167.959 E41.02198
G1 X159.4 Y158.778 E41.45383
G1 X159.531 Y158.72 E41.45859
G1 X159.684 Y158.778 E41.46403
G1 X166.542 Y165.637 E41.78664
G1 X168.94 Y163.238 E41.89946
G1 X171.34 Y160.839 E42.01232
G1 X127.853 Y117.354 E44.05777
G1 X120.851 Y124.355 E44.3871
G1 X120.71 Y124.401 E44.39203
G1 X120.58 Y124.343 E44.39677
G1 X119.165 Y122.929 E44.4633
G1 X119.107 Y122.772 E44.46887
G1 X119.165 Y122.645 E44.47351
G1 X126.156 Y115.655 E44.80232
G1 X82.598 Y72.1 E46.85109
G1 X75.596 Y79.101 E47.18041
G1 X75.455 Y79.147 E47.18535
G1 X75.325 Y79.089 E47.19008
G1 X73.904 Y77.667 E47.25695
G1 X73.853 Y77.52 E47.26212
G1 X73.911 Y77.39 E47.26685
G1 X80.899 Y70.401 E47.59557
G1 X80.339 Y69.894 E47.6207
G1 X79.797 Y69.458 E47.64383
G1 X79.172 Y69.014 E47.66933
G1 X78.514 Y68.61 E47.69501
G1 X77.822 Y68.246 E47.72102
G1 X77.129 Y67.94 E47.74622
G1 X76.502 Y67.706 E47.76847
G1 X75.781 Y67.489 E47.79352
G1 X75.049 Y67.319 E47.81851
G1 X74.269 Y67.198 E47.84477
G1 X73.481 Y67.134 E47.87106
G1 X72.838 Y67.128 E47.89245
G1 X72.277 Y67.157 E47.91113
G1 X71.921 Y67.19 E47.92302
G1 X71.371 Y67.262 E47.94147
G1 X70.594 Y67.422 E47.96786
G1 X69.87 Y67.63 E47.99291
G1 X69.203 Y67.885 E48.01666
G1 X68.61 Y68.159 E48.03839
G1 X67.897 Y68.559 E48.06558
G1 X67.282 Y68.975 E48.09028
G1 X66.695 Y69.448 E48.11535
G1 X66.168 Y69.946 E48.13947
G1 X65.698 Y70.47 E48.16288
G1 X65.233 Y71.074 E48.18823
G1 X64.82 Y71.715 E48.21359
G1 X64.492 Y72.331 E48.2368
G1 X64.184 Y73.032 E48.26227
G1 X63.949 Y73.709 E48.28611
G1 X63.758 Y74.425 E48.31075
G1 X63.62 Y75.152 E48.33536
G1 X63.539 Y75.897 E48.36029
G1 X63.511 Y76.623 E48.38445
G1 X63.555 Y77.491 E48.41336
G1 X63.57 Y77.761 E48.42235
G1 X63.74 Y78.843 E48.45878
G1 F2700 E43.45878
G0 F6000 X62.904 Y79.063
G0 X62.709 Y77.853
G0 X62.644 Y76.631
G0 X62.764 Y75.027
G0 X63.12 Y73.455
G0 X63.713 Y71.955
G0 X64.526 Y70.575
