;FLAVOR:Marlin
;TIME:5858
;Filament used: 3.37843m
;Layer height: 0.2
;MINX:102.281
;MINY:84.51
;MINZ:0.2
;MAXX:132.725
;MAXY:150.5
;MAXZ:66
;Generated with Cura_SteamEngine 5.0.0
M140 S70
M105
M190 S70
M104 S200
M105
M109 S200
M82 ;absolute extrusion mode
; Ender 3 Custom Start G-code
G28 ; Home all axes
M420 S1; Bed Leveling On
G92 E0 ; Reset Extruder
G1 Z2.0 F3000 ; Move Z Axis up little to prevent scratching of Heat Bed
G1 X0.1 Y20 Z0.3 F5000.0 ; Move to start position
G1 X0.1 Y200.0 Z0.3 F1500.0 E15 ; Draw the first line
G1 X0.4 Y200.0 Z0.3 F5000.0 ; Move to side a little
G1 X0.4 Y20 Z0.3 F1500.0 E30 ; Draw the second line
G92 E0 ; Reset Extruder
G1 Z2.0 F3000 ; Move Z Axis up little to prevent scratching of Heat Bed
G1 X5 Y20 Z0.3 F5000.0 ; Move over to prevent blob squish
G92 E0
G92 E0
G1 F2700 E-5
;LAYER_COUNT:330
;LAYER:0
M107
G0 F6000 X112.119 Y88.349 Z0.2
G0 X109.537 Y94.281
;TYPE:SKIRT
G1 F2700 E0
G1 F900 X109.682 Y93.354 E0.03121
G1 X109.904 Y92.443 E0.06239
G1 X110.204 Y91.555 E0.09357
G1 X110.578 Y90.695 E0.12476
G1 X111.025 Y89.87 E0.15597
G1 X111.54 Y89.086 E0.18717
G1 X112.119 Y88.349 E0.21834
G1 X112.76 Y87.663 E0.24957
G1 X113.456 Y87.035 E0.28075
G1 X114.204 Y86.469 E0.31194
G1 X114.997 Y85.968 E0.34314
G1 X115.83 Y85.537 E0.37434
G1 X116.696 Y85.178 E0.40552
G1 X117.59 Y84.894 E0.43672
G1 X118.505 Y84.688 E0.46791
G1 X119.434 Y84.56 E0.4991
G1 X120.421 Y84.511 E0.53197
G1 X120.653 Y84.51 E0.53969
G1 X121.59 Y84.546 E0.57087
G1 X122.52 Y84.662 E0.60205
G1 X123.438 Y84.856 E0.63325
G1 X124.336 Y85.128 E0.66446
G1 X125.207 Y85.476 E0.69566
G1 X126.045 Y85.896 E0.72683
G1 X126.845 Y86.386 E0.75804
G1 X127.599 Y86.943 E0.78921
G1 X128.304 Y87.562 E0.82042
G1 X128.954 Y88.238 E0.85161
G1 X129.543 Y88.968 E0.88281
G1 X130.068 Y89.745 E0.914
G1 X130.525 Y90.564 E0.94519
G1 X130.911 Y91.419 E0.97639
G1 X131.222 Y92.303 E1.00756
G1 X131.457 Y93.211 E1.03876
G1 X131.614 Y94.136 E1.06996
G1 X131.686 Y94.956 E1.09734
G1 X131.715 Y95.605 E1.11895
G1 X132.717 Y134.686 E2.41921
G1 X132.725 Y135.369 E2.44193
G1 X132.696 Y136.307 E2.47314
G1 X132.587 Y137.238 E2.50432
G1 X132.4 Y138.157 E2.53551
G1 X132.134 Y139.057 E2.56673
G1 X131.794 Y139.93 E2.59789
G1 X131.242 Y141.016 E2.63841
G1 X130.965 Y141.494 E2.65678
G1 X129.515 Y144.081 E2.75542
G1 X129.157 Y144.741 E2.78039
G1 X128.675 Y145.546 E2.8116
G1 X128.126 Y146.306 E2.84278
G1 X127.514 Y147.017 E2.87399
G1 X126.844 Y147.673 E2.90517
G1 X126.12 Y148.269 E2.93636
G1 X125.348 Y148.802 E2.96756
G1 X124.534 Y149.267 E2.99874
G1 X123.682 Y149.661 E3.02997
G1 X122.801 Y149.981 E3.06114
G1 X121.895 Y150.225 E3.09235
G1 X120.972 Y150.391 E3.12354
G1 X119.799 Y150.487 E3.16268
G1 X119.17 Y150.5 E3.18361
G1 X116.05 Y150.499 E3.28738
G1 X115.349 Y150.489 E3.3107
G1 X114.413 Y150.436 E3.34188
G1 X113.484 Y150.303 E3.37309
G1 X112.571 Y150.091 E3.40427
G1 X111.678 Y149.803 E3.43548
G1 X110.814 Y149.439 E3.46666
G1 X109.983 Y149.003 E3.49787
G1 X109.193 Y148.498 E3.52906
G1 X108.449 Y147.928 E3.56023
G1 X107.756 Y147.296 E3.59142
G1 X107.119 Y146.607 E3.62263
G1 X106.543 Y145.867 E3.65382
G1 X105.908 Y144.865 E3.69328
G1 X105.564 Y144.247 E3.7168
G1 X104.791 Y142.817 E3.77087
G1 X103.954 Y141.369 E3.8265
G1 X103.686 Y140.891 E3.84472
G1 X103.263 Y140.054 E3.87592
G1 X102.912 Y139.184 E3.90712
G1 X102.637 Y138.287 E3.93832
G1 X102.439 Y137.37 E3.96953
G1 X102.32 Y136.44 E4.00071
G1 X102.281 Y135.503 E4.0319
G1 X102.322 Y134.566 E4.0631
G1 X102.446 Y133.615 E4.09499
G1 X102.654 Y132.436 E4.13481
G1 X105.817 Y116.294 E4.68191
G1 X107.177 Y109.174 E4.923
G1 X107.85 Y105.543 E5.04583
G1 X108.48 Y102.033 E5.16444
G1 X108.906 Y99.448 E5.25157
G1 X109.241 Y96.989 E5.33411
G1 X109.537 Y94.281 E5.42472
G1 F2700 E0.42472
G0 F6000 X109.298 Y99.531
G1 F2700 E5.42472
G1 F900 X109.636 Y97.052 E5.50793
G1 X109.934 Y94.326 E5.59914
G1 X110.077 Y93.416 E5.62978
G1 X110.298 Y92.522 E5.66041
G1 X110.596 Y91.651 E5.69103
G1 X110.968 Y90.809 E5.72164
G1 X111.412 Y90.002 E5.75228
G1 X111.924 Y89.237 E5.7829
G1 X112.5 Y88.52 E5.81349
G1 X113.137 Y87.855 E5.84411
G1 X113.829 Y87.247 E5.87475
G1 X114.571 Y86.703 E5.90535
G1 X115.358 Y86.224 E5.936
G1 X116.183 Y85.816 E5.96661
G1 X117.04 Y85.48 E5.99722
G1 X117.924 Y85.221 E6.02786
G1 X118.826 Y85.039 E6.05847
G1 X119.741 Y84.936 E6.08909
G1 X120.422 Y84.911 E6.11176
G1 X120.654 Y84.91 E6.11947
G1 X121.574 Y84.946 E6.1501
G1 X122.488 Y85.062 E6.18074
G1 X123.387 Y85.256 E6.21133
G1 X124.267 Y85.528 E6.24196
G1 X125.12 Y85.875 E6.27259
G1 X125.939 Y86.295 E6.30321
G1 X126.719 Y86.785 E6.33384
G1 X127.453 Y87.34 E6.36445
G1 X128.137 Y87.957 E6.39509
G1 X128.764 Y88.63 E6.42568
G1 X129.331 Y89.356 E6.45632
G1 X129.832 Y90.128 E6.48693
G1 X130.265 Y90.941 E6.51757
G1 X130.625 Y91.788 E6.54818
G1 X130.911 Y92.663 E6.57879
G1 X131.119 Y93.56 E6.60942
G1 X131.249 Y94.472 E6.64006
G1 X131.287 Y94.976 E6.65687
G1 X131.316 Y95.615 E6.67815
G1 X132.317 Y134.691 E7.97824
G1 X132.325 Y135.374 E8.00096
G1 X132.296 Y136.294 E8.03158
G1 X132.187 Y137.208 E8.06219
G1 X131.999 Y138.11 E8.09284
G1 X131.734 Y138.991 E8.12344
G1 X131.393 Y139.846 E8.15405
G1 X130.896 Y140.815 E8.19027
G1 X130.626 Y141.28 E8.20816
G1 X129.172 Y143.876 E8.30712
G1 X128.806 Y144.55 E8.33263
G1 X128.332 Y145.34 E8.36327
G1 X127.791 Y146.085 E8.3939
G1 X127.187 Y146.78 E8.42452
G1 X126.526 Y147.42 E8.45512
G1 X125.811 Y148.001 E8.48577
G1 X125.049 Y148.517 E8.51637
G1 X124.245 Y148.965 E8.54699
G1 X123.405 Y149.342 E8.57761
G1 X122.535 Y149.644 E8.60824
G1 X121.643 Y149.87 E8.63885
G1 X120.734 Y150.018 E8.66948
G1 X119.788 Y150.087 E8.70102
G1 X119.17 Y150.1 E8.72158
G1 X116.056 Y150.099 E8.82516
G1 X115.355 Y150.089 E8.84847
G1 X114.436 Y150.036 E8.87909
G1 X113.525 Y149.903 E8.90971
G1 X112.629 Y149.692 E8.94033
G1 X111.754 Y149.404 E8.97097
G1 X110.908 Y149.041 E9.00159
G1 X110.097 Y148.606 E9.03219
G1 X109.326 Y148.102 E9.06283
G1 X108.602 Y147.533 E9.09346
G1 X107.93 Y146.904 E9.12407
G1 X107.315 Y146.219 E9.15469
G1 X106.762 Y145.483 E9.18531
G1 X106.257 Y144.669 E9.21717
G1 X105.916 Y144.057 E9.24047
G1 X105.146 Y142.633 E9.29432
G1 X104.303 Y141.173 E9.35039
G1 X104.035 Y140.695 E9.36862
G1 X103.62 Y139.873 E9.39924
G1 X103.278 Y139.018 E9.42987
G1 X103.011 Y138.137 E9.46049
G1 X102.822 Y137.236 E9.49111
G1 X102.712 Y136.322 E9.52173
G1 X102.682 Y135.402 E9.55234
G1 X102.731 Y134.483 E9.58295
G1 X102.84 Y133.684 E9.60977
G1 X103.047 Y132.513 E9.64932
G1 X106.199 Y116.419 E10.19478
G1 X107.582 Y109.189 E10.43961
G1 X108.233 Y105.673 E10.55854
G1 X108.875 Y102.103 E10.67919
G1 X109.298 Y99.531 E10.76588
G0 F6000 X109.269 Y102.173
G1 F900 X109.691 Y99.613 E10.85218
G1 X110.036 Y97.082 E10.93714
G1 X110.332 Y94.37 E11.02787
G1 X110.473 Y93.478 E11.05791
G1 X110.692 Y92.602 E11.08794
G1 X110.987 Y91.749 E11.11796
G1 X111.357 Y90.925 E11.148
G1 X111.799 Y90.137 E11.17806
G1 X112.308 Y89.391 E11.20809
G1 X112.881 Y88.693 E11.23813
G1 X113.514 Y88.049 E11.26816
G1 X114.201 Y87.463 E11.2982
G1 X114.938 Y86.94 E11.32825
G1 X115.717 Y86.485 E11.35826
G1 X116.534 Y86.1 E11.3883
G1 X117.382 Y85.789 E11.41834
G1 X118.254 Y85.554 E11.44838
G1 X119.144 Y85.397 E11.47844
G1 X120.424 Y85.311 E11.52111
G1 X120.656 Y85.31 E11.52882
G1 X121.558 Y85.346 E11.55885
G1 X122.454 Y85.462 E11.5889
G1 X123.336 Y85.656 E11.61893
G1 X124.197 Y85.928 E11.64896
G1 X125.031 Y86.275 E11.67901
G1 X125.831 Y86.694 E11.70905
G1 X126.591 Y87.183 E11.7391
G1 X127.304 Y87.737 E11.76914
G1 X127.966 Y88.351 E11.79917
G1 X128.57 Y89.022 E11.82919
G1 X129.114 Y89.743 E11.85923
G1 X129.591 Y90.51 E11.88928
G1 X129.998 Y91.316 E11.91931
G1 X130.333 Y92.155 E11.94935
G1 X130.591 Y93.02 E11.97938
G1 X130.773 Y93.905 E12.00943
G1 X130.887 Y94.997 E12.04595
G1 X130.916 Y95.625 E12.06686
G1 X131.917 Y134.696 E13.36679
G1 X131.925 Y135.379 E13.38951
G1 X131.896 Y136.281 E13.41952
G1 X131.787 Y137.178 E13.44958
G1 X131.599 Y138.061 E13.4796
G1 X131.333 Y138.924 E13.50964
G1 X130.993 Y139.761 E13.53969
G1 X130.55 Y140.615 E13.57169
G1 X130.272 Y141.094 E13.59011
G1 X128.799 Y143.723 E13.69034
G1 X128.454 Y144.359 E13.7144
G1 X127.988 Y145.133 E13.74445
G1 X127.456 Y145.863 E13.77449
G1 X126.861 Y146.542 E13.80452
G1 X126.209 Y147.167 E13.83456
G1 X125.503 Y147.731 E13.86462
G1 X124.751 Y148.23 E13.89463
G1 X123.957 Y148.661 E13.92468
G1 X123.129 Y149.02 E13.9547
G1 X122.272 Y149.305 E13.98474
G1 X121.393 Y149.512 E14.01477
G1 X120.499 Y149.641 E14.04482
G1 X119.777 Y149.687 E14.06888
G1 X119.17 Y149.7 E14.08907
G1 X116.062 Y149.699 E14.19244
G1 X115.361 Y149.689 E14.21576
G1 X114.459 Y149.636 E14.24581
G1 X113.566 Y149.504 E14.27584
G1 X112.687 Y149.293 E14.3059
G1 X111.831 Y149.005 E14.33594
G1 X111.004 Y148.643 E14.36597
G1 X110.212 Y148.209 E14.39601
G1 X109.462 Y147.706 E14.42604
G1 X108.759 Y147.139 E14.45608
G1 X108.109 Y146.513 E14.4861
G1 X107.516 Y145.831 E14.51616
G1 X106.987 Y145.099 E14.54619
G1 X106.606 Y144.474 E14.57054
G1 X106.268 Y143.867 E14.59365
G1 X105.501 Y142.449 E14.64727
G1 X104.652 Y140.977 E14.70379
G1 X104.384 Y140.499 E14.72201
G1 X103.978 Y139.693 E14.75203
G1 X103.644 Y138.853 E14.7821
G1 X103.386 Y137.988 E14.81212
G1 X103.206 Y137.103 E14.84216
G1 X103.105 Y136.206 E14.87218
G1 X103.083 Y135.303 E14.90222
G1 X103.142 Y134.402 E14.93225
G1 X103.234 Y133.753 E14.95405
G1 X103.439 Y132.59 E14.99333
G1 X106.601 Y116.448 E15.54042
G1 X107.974 Y109.264 E15.78369
G1 X108.637 Y105.689 E15.90462
G1 X109.269 Y102.173 E16.02344
G1 F2700 E11.02344
;MESH:R_TE_Start.stl
G0 F6000 X119.417 Y99.607
G0 X120.446 Y99.616
;TYPE:WALL-OUTER
G1 F2700 E16.02344
G1 F521.7 X120.466 Y99.35 E16.03874
G1 F556.4 X120.487 Y99.084 E16.0531
G1 F578.8 X120.491 Y99.017 E16.05657
G1 F601 X120.502 Y98.762 E16.06928
G1 F639.4 X120.514 Y98.507 E16.08123
G1 F684.4 X120.525 Y98.252 E16.09239
G1 F734.7 X120.535 Y97.93 E16.10552
G1 F793 X120.545 Y97.609 E16.11764
G1 F861.2 X120.554 Y97.288 E16.1288
G1 F930.2 X120.559 Y97.009 E16.13778
G1 F991.7 X120.564 Y96.731 E16.14618
G1 F1061.9 X120.569 Y96.453 E16.15401
G1 F1146.5 X120.574 Y96.175 E16.16127
G1 F1241.4 X120.579 Y95.897 E16.16798
G1 F1343.3 X120.583 Y95.628 E16.17397
G1 F2700 E11.17397
G0 F6000 X119.793 Y95.818
G0 X119.832 Y94.847
G0 X121.345 Y94.847
G0 X121.694 Y108.047
G0 X120.831 Y108.07
G1 F2700 E16.17397
G1 F900 X120.663 Y101.557 E16.39067
G1 X120.602 Y99.617 E16.45522
G1 X120.294 Y99.597 E16.46549
G1 X120.268 Y99.76 E16.47098
G1 X118.803 Y107.916 E16.74659
G1 X118.122 Y111.586 E16.87074
G1 X113.508 Y135.3 E17.67426
G1 X115.5 Y135.3 E17.74052
G1 X115.649 Y135.366 E17.74594
G1 X115.7 Y135.5 E17.7507
G1 X115.7 Y139.3 E17.87709
G1 X119.3 Y139.3 E17.99683
G1 X119.3 Y135.5 E18.12322
G1 X119.378 Y135.341 E18.12911
G1 X119.5 Y135.3 E18.13339
G1 X121.531 Y135.3 E18.20094
G1 X121.298 Y126.198 E18.50377
G1 X120.831 Y108.07 E19.10691
G1 F2700 E14.10691
G0 F6000 X116.292 Y130.441
G1 F2700 E19.10691
G1 F900 X116.025 Y130.028 E19.12327
G1 X115.857 Y129.564 E19.13968
G1 X115.797 Y129.08 E19.1559
G1 X115.846 Y128.59 E19.17228
G1 X116.002 Y128.123 E19.18866
G1 X116.262 Y127.699 E19.2052
G1 X116.601 Y127.35 E19.22138
G1 X117.018 Y127.081 E19.23789
G1 X117.481 Y126.913 E19.25427
G1 X117.969 Y126.852 E19.27063
G1 X118.459 Y126.902 E19.28701
G1 X118.925 Y127.059 E19.30337
G1 X119.344 Y127.314 E19.31968
G1 X119.7 Y127.661 E19.33621
G1 X119.967 Y128.074 E19.35257
G1 F902.3 X120.134 Y128.538 E19.36893
G1 X120.195 Y129.022 E19.38512
G1 F900 X120.146 Y129.511 E19.40146
G1 X119.989 Y129.979 E19.41788
G1 X119.733 Y130.399 E19.43424
G1 X119.387 Y130.754 E19.45073
G1 X118.974 Y131.021 E19.46709
G1 X118.627 Y131.148 E19.47938
G1 X118.023 Y131.25 E19.49975
G1 X117.778 Y131.228 E19.50793
G1 X117.512 Y131.197 E19.51684
G1 X117.059 Y131.041 E19.53277
G1 X116.648 Y130.788 E19.54883
G1 X116.292 Y130.441 E19.56536
G0 F6000 X115.274 Y128.977
;TYPE:WALL-INNER
G1 F567.8 X115.341 Y128.535 E19.58893
G1 F569.6 X115.416 Y128.241 E19.60487
G1 F541.4 X115.491 Y127.946 E19.6217
G1 F2700 E14.6217
G0 F6000 X121.001 Y130.208
G1 F2700 E19.6217
G1 F886.7 X120.983 Y129.761 E19.63681
G1 F884.5 X120.981 Y129.444 E19.64753
G1 F909.1 X120.978 Y129.127 E19.65797
G1 F911.4 X120.966 Y128.818 E19.66813
G1 F893.3 X120.953 Y128.508 E19.67853
G1 F891.1 X120.936 Y127.671 E19.70665
G1 F900 X120.431 Y108.08 E20.35846
G1 X120.274 Y101.98 E20.56142
G1 X119.196 Y107.989 E20.76447
G1 X118.515 Y111.662 E20.88872
G1 X115.47 Y127.309 E21.4189
G1 F750 X115.464 Y127.768 E21.43722
G1 F579.7 X115.491 Y127.946 E21.44652
G1 F589.2 X115.707 Y127.717 E21.46251
G1 F766 X115.923 Y127.487 E21.47484
G1 F900 X116.317 Y127.068 E21.49397
G1 X116.805 Y126.742 E21.51349
G1 X117.348 Y126.536 E21.53281
G1 X117.923 Y126.454 E21.55213
G1 X118.225 Y126.472 E21.56219
G1 X118.504 Y126.504 E21.57153
G1 X119.057 Y126.681 E21.59084
G1 X119.555 Y126.974 E21.61006
G1 X119.982 Y127.377 E21.62959
G1 X120.305 Y127.861 E21.64894
G1 F895.5 X120.515 Y128.405 E21.66843
G1 F900 X120.551 Y128.691 E21.67802
G1 F918.4 X120.587 Y128.977 E21.68741
G1 F906.8 X120.571 Y129.267 E21.697
G1 F871.7 X120.554 Y129.557 E21.70698
G1 F865.4 X120.461 Y129.833 E21.71705
G1 F888.9 X120.367 Y130.11 E21.7269
G1 F900 X120.072 Y130.611 E21.74624
G1 X119.671 Y131.036 E21.76568
G1 X119.187 Y131.359 E21.78503
G1 X118.76 Y131.526 E21.80028
G1 X118.513 Y131.597 E21.80883
G1 X118.069 Y131.648 E21.82369
G1 X117.733 Y131.625 E21.83489
G1 X117.424 Y131.587 E21.84525
G1 X116.936 Y131.421 E21.86239
G1 X116.436 Y131.128 E21.88167
G1 X116.01 Y130.725 E21.90117
G1 X115.687 Y130.242 E21.9205
G1 X115.479 Y129.697 E21.9399
G1 F823.8 X115.402 Y129.416 E21.95049
G1 F704.5 X115.325 Y129.134 E21.96291
G1 F600 X115.274 Y128.977 E21.97114
G1 F611.2 X115.155 Y129.263 E21.98631
G1 F777.5 X115.035 Y129.549 E21.99825
G1 F900 X113.994 Y134.9 E22.17957
G1 X115.5 Y134.9 E22.22966
G1 X115.793 Y134.975 E22.23971
G1 X115.947 Y135.098 E22.24627
G1 X116.048 Y135.253 E22.25242
G1 X116.1 Y135.5 E22.26082
G1 X116.1 Y138.9 E22.3739
G1 X118.9 Y138.9 E22.46703
G1 X118.9 Y135.5 E22.58012
G1 X118.952 Y135.253 E22.58851
G1 X119.135 Y135.023 E22.59829
G1 X119.414 Y134.905 E22.60836
G1 X119.5 Y134.9 E22.61123
G1 X121.121 Y134.9 E22.66514
G1 X121.001 Y130.208 E22.82125
G1 F2700 E17.82125
G0 F6000 X116.2 Y126.702
;TYPE:SKIN
G1 F2700 E22.82125
G1 F900 X116.236 Y126.675 E22.82275
G1 X116.769 Y126.362 E22.84331
G1 X116.81 Y126.344 E22.84479
G1 X117.412 Y126.152 E22.86581
G1 X117.884 Y126.097 E22.88162
G1 X118.252 Y126.113 E22.89387
G1 X118.716 Y126.184 E22.90948
G1 X118.757 Y126.195 E22.91089
G1 X119.332 Y126.414 E22.93136
G1 X119.372 Y126.435 E22.93286
G1 X119.895 Y126.787 E22.95383
G1 X119.929 Y126.815 E22.95529
G1 X120.348 Y127.259 E22.9756
G1 X120.573 Y127.638 E22.99026
G1 X120.522 Y125.573 E23.05896
G1 X120.003 Y105.527 E23.72592
G1 X119.554 Y108.039 E23.81079
G1 X118.873 Y111.718 E23.93523
G1 X118.844 Y111.831 E23.93911
G1 X115.904 Y126.983 E24.45247
G1 X116.2 Y126.702 E24.46604
G0 F6000 X116.606 Y126.223
G1 F900 X116.312 Y125.929 E24.47987
G0 F6000 X116.404 Y125.455
G1 F900 X117.015 Y126.066 E24.50861
G0 F6000 X117.456 Y125.941
G1 F900 X116.496 Y124.981 E24.55377
G0 F6000 X116.588 Y124.508
G1 F900 X117.977 Y125.897 E24.6191
G0 F6000 X118.616 Y125.97
G1 F900 X116.68 Y124.034 E24.71016
G0 F6000 X116.772 Y123.56
G1 F900 X119.474 Y126.263 E24.83728
G0 F6000 X120.331 Y125.988
G1 F900 X116.956 Y122.613 E24.99603
G0 F6000 X116.864 Y123.086
G1 F900 X120.346 Y126.569 E25.15984
G0 F6000 X120.316 Y125.407
G1 F900 X117.048 Y122.139 E25.31355
G0 F6000 X117.14 Y121.665
G1 F900 X120.301 Y124.826 E25.46224
G0 F6000 X120.286 Y124.246
G1 F900 X117.231 Y121.191 E25.60594
G0 F6000 X117.323 Y120.717
G1 F900 X120.271 Y123.665 E25.7446
G0 F6000 X120.256 Y123.085
G1 F900 X117.415 Y120.244 E25.87823
G0 F6000 X117.507 Y119.77
G1 F900 X120.241 Y122.504 E26.00683
G0 F6000 X120.226 Y121.923
G1 F900 X117.599 Y119.296 E26.1304
G0 F6000 X117.692 Y118.823
G1 F900 X120.211 Y121.343 E26.24891
G0 F6000 X120.196 Y120.762
G1 F900 X117.784 Y118.349 E26.36238
G0 F6000 X117.876 Y117.876
G1 F900 X120.181 Y120.181 E26.4708
G0 F6000 X120.166 Y119.6
