;FLAVOR:Marlin
;TIME:4595
;Filament used: 3.02792m
;Layer height: 0.2
;MINX:30.466
;MINY:31.826
;MINZ:0.2
;MAXX:204.524
;MAXY:203.148
;MAXZ:5.4
;Generated with Cura_SteamEngine 5.0.0
M140 S70
M105
M190 S70
M104 S200
M105
M109 S200
M82 ;absolute extrusion mode
; Ender 3 Custom Start G-code
G28 ; Home all axes
M420 S1; Bed Leveling On
G92 E0 ; Reset Extruder
G1 Z2.0 F3000 ; Move Z Axis up little to prevent scratching of Heat Bed
G1 X0.1 Y20 Z0.3 F5000.0 ; Move to start position
G1 X0.1 Y200.0 Z0.3 F1500.0 E15 ; Draw the first line
G1 X0.4 Y200.0 Z0.3 F5000.0 ; Move to side a little
G1 X0.4 Y20 Z0.3 F1500.0 E30 ; Draw the second line
G92 E0 ; Reset Extruder
G1 Z2.0 F3000 ; Move Z Axis up little to prevent scratching of Heat Bed
G1 X5 Y20 Z0.3 F5000.0 ; Move over to prevent blob squish
G92 E0
G92 E0
G1 F2700 E-5
;LAYER_COUNT:27
;LAYER:0
M107
G0 F6000 X39.927 Y35.403 Z0.2
;TYPE:SKIRT
G1 F2700 E0
G1 F900 X40.41 Y34.934 E0.02239
G1 X41.11 Y34.31 E0.05358
G1 X41.861 Y33.748 E0.08478
G1 X42.657 Y33.252 E0.11597
G1 X43.492 Y32.825 E0.14717
G1 X44.361 Y32.471 E0.17838
G1 X45.256 Y32.193 E0.20955
G1 X46.172 Y31.992 E0.24074
G1 X47.102 Y31.869 E0.27194
G1 X48.039 Y31.826 E0.30314
G1 X48.976 Y31.863 E0.33433
G1 X49.906 Y31.98 E0.3655
G1 X50.824 Y32.175 E0.39672
G1 X51.721 Y32.449 E0.42791
G1 X52.592 Y32.797 E0.45911
G1 X53.641 Y33.34 E0.49839
G1 X54.218 Y33.678 E0.52064
G1 X56.467 Y34.952 E0.60661
G1 X58.705 Y36.14 E0.69088
G1 X60.96 Y37.254 E0.77453
G1 X63.699 Y38.509 E0.87474
G1 X64.537 Y38.929 E0.90592
G1 X65.336 Y39.42 E0.93711
G1 X66.091 Y39.977 E0.96831
G1 X66.709 Y40.514 E0.99555
G1 X67.188 Y40.971 E1.01756
G1 X110.369 Y84.153 E3.04869
G1 X111.788 Y85.582 E3.11567
G1 X112.519 Y86.303 E3.14982
G1 X155.556 Y129.339 E5.17413
G1 X157.078 Y130.872 E5.24598
G1 X157.763 Y131.547 E5.27796
G1 X200.905 Y174.689 E7.30723
G1 X201.408 Y175.206 E7.33122
G1 X202.033 Y175.906 E7.36243
G1 X202.596 Y176.656 E7.39362
G1 X203.093 Y177.451 E7.42481
G1 X203.52 Y178.286 E7.456
G1 X203.875 Y179.154 E7.48719
G1 X204.154 Y180.05 E7.5184
G1 X204.357 Y180.965 E7.54958
G1 X204.48 Y181.895 E7.58078
G1 X204.524 Y182.832 E7.61198
G1 X204.488 Y183.769 E7.64316
G1 X204.372 Y184.7 E7.67437
G1 X204.177 Y185.617 E7.70555
G1 X203.905 Y186.515 E7.73676
G1 X203.557 Y187.386 E7.76795
G1 X203.137 Y188.224 E7.79913
G1 X202.646 Y189.024 E7.83035
G1 X202.09 Y189.778 E7.86151
G1 X201.528 Y190.422 E7.88994
G1 X201.072 Y190.899 E7.91189
G1 X192.393 Y199.577 E8.3201
G1 X191.915 Y200.041 E8.34225
G1 X191.215 Y200.665 E8.37344
G1 X190.464 Y201.227 E8.40464
G1 X189.668 Y201.723 E8.43584
G1 X188.832 Y202.149 E8.46704
G1 X187.964 Y202.503 E8.49822
G1 X187.068 Y202.782 E8.52943
G1 X186.152 Y202.983 E8.56062
G1 X185.222 Y203.105 E8.59182
G1 X184.286 Y203.148 E8.62299
G1 X183.348 Y203.111 E8.65421
G1 X182.418 Y202.994 E8.68538
G1 X181.501 Y202.798 E8.71657
G1 X180.603 Y202.525 E8.74779
G1 X179.733 Y202.176 E8.77897
G1 X178.895 Y201.755 E8.81016
G1 X178.096 Y201.263 E8.84137
G1 X177.342 Y200.706 E8.87255
G1 X176.652 Y200.099 E8.90311
G1 X176.158 Y199.624 E8.92591
G1 X171.255 Y194.723 E9.15648
G1 X168.971 Y192.505 E9.26237
G1 X34.1 Y57.635 E15.60627
G1 X33.597 Y57.12 E15.63021
G1 X32.971 Y56.422 E15.6614
G1 X32.406 Y55.673 E15.6926
G1 X31.908 Y54.878 E15.7238
G1 X31.479 Y54.044 E15.755
G1 X31.122 Y53.177 E15.78618
G1 X30.841 Y52.282 E15.81738
G1 X30.637 Y51.367 E15.84856
G1 X30.512 Y50.437 E15.87977
G1 X30.466 Y49.5 E15.91097
G1 X30.501 Y48.563 E15.94216
G1 X30.615 Y47.632 E15.97336
G1 X30.808 Y46.714 E16.00456
G1 X31.078 Y45.816 E16.03575
G1 X31.424 Y44.945 E16.06692
G1 X31.843 Y44.105 E16.09814
G1 X32.332 Y43.305 E16.12932
G1 X32.887 Y42.549 E16.16052
G1 X33.446 Y41.905 E16.18888
G1 X33.918 Y41.411 E16.21161
G1 X39.927 Y35.403 E16.49423
G0 F6000 X40.206 Y35.69
G1 F900 X40.689 Y35.221 E16.51662
G1 X41.376 Y34.609 E16.54722
G1 X42.115 Y34.059 E16.57786
G1 X42.898 Y33.575 E16.60848
G1 X43.72 Y33.161 E16.63909
G1 X44.575 Y32.82 E16.6697
G1 X45.457 Y32.554 E16.70034
G1 X46.358 Y32.366 E16.73096
G1 X47.272 Y32.256 E16.76158
G1 X48.192 Y32.227 E16.79219
G1 X49.111 Y32.277 E16.8228
G1 X50.023 Y32.407 E16.85344
G1 X50.92 Y32.615 E16.88407
G1 X51.795 Y32.901 E16.91468
G1 X52.642 Y33.261 E16.9453
G1 X53.439 Y33.685 E16.97532
G1 X54.024 Y34.028 E16.99788
G1 X56.289 Y35.311 E17.08446
G1 X58.533 Y36.502 E17.16895
G1 X60.781 Y37.612 E17.25234
G1 X63.535 Y38.874 E17.3531
G1 X64.357 Y39.287 E17.38369
G1 X65.141 Y39.771 E17.41434
G1 X65.879 Y40.32 E17.44493
G1 X66.435 Y40.806 E17.46949
G1 X66.905 Y41.254 E17.49109
G1 X110.086 Y84.435 E19.52219
G1 X111.554 Y85.913 E19.59148
G1 X112.236 Y86.586 E19.62335
G1 X155.272 Y129.621 E21.6476
G1 X156.796 Y131.156 E21.71955
G1 X157.48 Y131.83 E21.75149
G1 X200.618 Y174.968 E23.78057
G1 X201.121 Y175.485 E23.80456
G1 X201.734 Y176.172 E23.83518
G1 X202.285 Y176.91 E23.86581
G1 X202.77 Y177.693 E23.89645
G1 X203.185 Y178.515 E23.92707
G1 X203.527 Y179.369 E23.95767
G1 X203.793 Y180.251 E23.98831
G1 X203.983 Y181.152 E24.01894
G1 X204.093 Y182.066 E24.04956
G1 X204.123 Y182.986 E24.08017
G1 X204.074 Y183.905 E24.11078
G1 X203.945 Y184.817 E24.14142
G1 X203.737 Y185.714 E24.17204
G1 X203.453 Y186.589 E24.20264
G1 X203.093 Y187.437 E24.23328
G1 X202.661 Y188.25 E24.2639
G1 X202.161 Y189.022 E24.29449
G1 X201.595 Y189.749 E24.32514
G1 X201.007 Y190.392 E24.35412
G1 X192.114 Y199.29 E24.77253
G1 X191.636 Y199.754 E24.79469
G1 X190.948 Y200.366 E24.82532
G1 X190.21 Y200.916 E24.85593
G1 X189.427 Y201.4 E24.88655
G1 X188.604 Y201.814 E24.91719
G1 X187.749 Y202.155 E24.9478
G1 X186.868 Y202.42 E24.9784
G1 X185.967 Y202.609 E25.00902
G1 X185.052 Y202.718 E25.03967
G1 X184.132 Y202.747 E25.07029
G1 X183.213 Y202.697 E25.1009
G1 X182.302 Y202.567 E25.1315
G1 X181.405 Y202.358 E25.16214
G1 X180.53 Y202.073 E25.19274
G1 X179.682 Y201.712 E25.2234
G1 X178.87 Y201.279 E25.25401
G1 X178.098 Y200.778 E25.28462
G1 X177.372 Y200.211 E25.31525
G1 X176.928 Y199.81 E25.33515
G1 X176.441 Y199.341 E25.35764
G1 X171.581 Y194.483 E25.58619
G1 X169.254 Y192.222 E25.69411
G1 X34.386 Y57.355 E32.03786
G1 X33.883 Y56.84 E32.0618
G1 X33.269 Y56.155 E32.0924
G1 X32.717 Y55.418 E32.12303
G1 X32.23 Y54.636 E32.15367
G1 X31.814 Y53.815 E32.18428
G1 X31.47 Y52.961 E32.2149
G1 X31.202 Y52.08 E32.24553
G1 X31.011 Y51.18 E32.27613
G1 X30.899 Y50.266 E32.30676
G1 X30.866 Y49.346 E32.33738
G1 X30.914 Y48.426 E32.36802
G1 X31.041 Y47.515 E32.39861
G1 X31.247 Y46.617 E32.42925
G1 X31.53 Y45.741 E32.45987
G1 X31.888 Y44.893 E32.49049
G1 X32.318 Y44.079 E32.52111
G1 X32.817 Y43.305 E32.55174
G1 X33.382 Y42.578 E32.58236
G1 X33.738 Y42.179 E32.60014
G1 X34.201 Y41.694 E32.62245
G1 X40.206 Y35.69 E32.90488
G0 F6000 X40.484 Y35.977
G1 F900 X40.967 Y35.508 E32.92727
G1 X41.642 Y34.908 E32.95731
G1 X42.368 Y34.371 E32.98734
G1 X43.138 Y33.899 E33.01738
G1 X43.947 Y33.498 E33.04741
G1 X44.789 Y33.169 E33.07748
G1 X45.656 Y32.917 E33.10751
G1 X46.542 Y32.742 E33.13755
G1 X47.44 Y32.646 E33.16759
G1 X48.343 Y32.63 E33.19763
G1 X49.243 Y32.693 E33.22763
G1 X50.135 Y32.837 E33.25768
G1 X51.011 Y33.058 E33.28773
G1 X51.863 Y33.356 E33.31775
G1 X52.686 Y33.729 E33.34781
G1 X53.236 Y34.029 E33.36865
G1 X53.85 Y34.389 E33.39232
G1 X56.084 Y35.655 E33.47772
G1 X58.348 Y36.856 E33.56296
G1 X60.616 Y37.976 E33.64709
G1 X63.371 Y39.239 E33.7479
G1 X64.177 Y39.645 E33.77791
G1 X64.945 Y40.121 E33.80796
G1 X65.667 Y40.663 E33.83799
G1 X66.162 Y41.098 E33.85991
G1 X66.623 Y41.537 E33.88108
G1 X109.802 Y84.717 E35.91211
G1 X111.272 Y86.197 E35.98149
G1 X111.953 Y86.868 E36.01329
G1 X154.988 Y129.903 E38.03753
G1 X156.49 Y131.415 E38.10841
G1 X157.197 Y132.112 E38.14143
G1 X200.332 Y175.247 E40.17037
G1 X200.835 Y175.764 E40.19436
G1 X201.435 Y176.439 E40.2244
G1 X201.974 Y177.164 E40.25445
G1 X202.446 Y177.934 E40.28448
G1 X202.848 Y178.742 E40.3145
G1 X203.177 Y179.583 E40.34454
G1 X203.431 Y180.45 E40.37459
G1 X203.607 Y181.336 E40.40463
G1 X203.704 Y182.234 E40.43467
G1 X203.721 Y183.137 E40.46471
G1 X203.658 Y184.037 E40.49472
G1 X203.515 Y184.929 E40.52477
G1 X203.295 Y185.805 E40.55481
G1 X202.997 Y186.658 E40.58486
G1 X202.626 Y187.481 E40.61488
G1 X202.183 Y188.268 E40.64492
G1 X201.672 Y189.013 E40.67497
G1 X200.946 Y189.873 E40.7124
G1 X200.506 Y190.333 E40.73357
G1 X191.836 Y199.003 E41.14138
G1 X191.358 Y199.467 E41.16354
G1 X190.682 Y200.067 E41.1936
G1 X189.957 Y200.604 E41.22361
G1 X189.186 Y201.076 E41.25368
G1 X188.377 Y201.477 E41.28371
G1 X187.536 Y201.805 E41.31373
G1 X186.669 Y202.058 E41.34377
G1 X185.783 Y202.233 E41.37381
G1 X184.885 Y202.328 E41.40385
G1 X183.982 Y202.344 E41.43388
G1 X183.081 Y202.28 E41.46393
G1 X182.189 Y202.137 E41.49397
G1 X181.314 Y201.915 E41.524
G1 X180.462 Y201.617 E41.55402
G1 X179.639 Y201.245 E41.58406
G1 X178.852 Y200.801 E41.61411
G1 X178.108 Y200.289 E41.64415
G1 X177.205 Y199.521 E41.68358
G1 X176.724 Y199.058 E41.70579
G1 X171.86 Y194.196 E41.93453
G1 X169.537 Y191.94 E42.04223
G1 X34.672 Y57.076 E48.38584
G1 X34.169 Y56.561 E48.40978
G1 X33.567 Y55.888 E48.43982
G1 X33.027 Y55.164 E48.46986
G1 X32.554 Y54.395 E48.49989
G1 X32.15 Y53.587 E48.52993
G1 X31.819 Y52.747 E48.55996
G1 X31.564 Y51.88 E48.59002
G1 X31.386 Y50.995 E48.62004
G1 X31.288 Y50.097 E48.65009
G1 X31.269 Y49.194 E48.68013
G1 X31.33 Y48.293 E48.71017
G1 X31.471 Y47.401 E48.7402
G1 X31.69 Y46.525 E48.77023
G1 X31.985 Y45.672 E48.80025
G1 X32.355 Y44.848 E48.8303
G1 X32.797 Y44.06 E48.86035
G1 X33.306 Y43.314 E48.89038
G1 X34.029 Y42.453 E48.92778
G1 X34.484 Y41.977 E48.94968
G1 X40.484 Y35.977 E49.2319
G1 F2700 E44.2319
G0 F6000 X40.528 Y49.433
G0 X177.076 Y185.979
G0 X183.379 Y184.884
G0 X183.566 Y185.071
G0 X183.05 Y185.587
G1 F2700 E49.2319
G1 F900 X183.566 Y185.071 E49.25617
G1 X183.738 Y184.986 E49.26255
G1 X184.897 Y186.145 E49.31707
G1 X184.253 Y186.789 E49.34736
G1 X183.05 Y185.587 E49.40392
G0 F6000 X182.484 Y185.586
G1 F900 X183.312 Y184.758 E49.44287
G1 X183.785 Y184.488 E49.46098
G1 X183.796 Y184.478 E49.46148
G1 X185.463 Y186.145 E49.53989
G1 X184.253 Y187.354 E49.59678
G1 X182.484 Y185.586 E49.67997
G0 F6000 X181.919 Y185.587
G1 F900 X183.097 Y184.409 E49.73538
G1 X183.371 Y184.278 E49.74548
G1 X183.772 Y183.997 E49.76176
G1 X183.829 Y183.945 E49.76433
G1 X186.029 Y186.145 E49.86781
G1 X184.253 Y187.92 E49.95132
G1 X181.919 Y185.587 E50.06108
G0 F6000 X181.353 Y185.587
G1 F900 X182.864 Y184.075 E50.13218
G1 X183.38 Y183.795 E50.15171
G1 X183.696 Y183.526 E50.16551
G1 X183.836 Y183.386 E50.17209
G1 X186.594 Y186.144 E50.30182
G1 X184.253 Y188.486 E50.41196
G1 X181.353 Y185.587 E50.54834
G0 F6000 X180.787 Y185.587
G1 F900 X182.628 Y183.746 E50.63494
G1 X183.021 Y183.554 E50.64949
G1 X183.413 Y183.243 E50.66613
G1 X183.835 Y182.821 E50.68598
G1 X187.159 Y186.145 E50.84233
G1 X184.252 Y189.051 E50.97904
G1 X180.787 Y185.587 E51.142
G0 F6000 X180.221 Y185.587
G1 F900 X182.417 Y183.392 E51.24527
G1 X182.701 Y183.278 E51.25545
G1 X183.13 Y182.96 E51.27321
G1 X183.835 Y182.255 E51.30637
G1 X187.725 Y186.145 E51.48935
G1 X184.253 Y189.616 E51.65263
G1 X180.221 Y185.587 E51.84222
G0 F6000 X179.655 Y185.587
G1 F900 X182.209 Y183.034 E51.96233
G1 X182.426 Y182.967 E51.96988
G1 X182.713 Y182.796 E51.98099
G1 X182.848 Y182.677 E51.98698
G1 X183.836 Y181.69 E52.03343
G1 X188.291 Y186.145 E52.24297
G1 X184.253 Y190.182 E52.43289
G1 X179.655 Y185.587 E52.64909
G0 F6000 X179.089 Y185.587
G1 F900 X182.01 Y182.667 E52.78646
G1 X182.205 Y182.625 E52.7931
G1 X182.453 Y182.491 E52.80247
G1 X182.565 Y182.394 E52.8074
G1 X183.836 Y181.124 E52.86716
G1 X188.857 Y186.145 E53.10333
G1 X184.253 Y190.748 E53.31987
G1 X179.089 Y185.587 E53.5627
G0 F6000 X178.523 Y185.587
G1 F900 X181.83 Y182.286 E53.71811
G1 X182.046 Y182.257 E53.72536
G1 X182.282 Y182.111 E53.73459
G1 X183.836 Y180.558 E53.80766
G1 X189.423 Y186.145 E54.07045
G1 X184.253 Y191.314 E54.31361
G1 X178.523 Y185.587 E54.58306
G0 F6000 X177.957 Y185.587
G1 F900 X181.718 Y181.829 E54.7599
G1 X181.829 Y181.885 E54.76403
G1 X181.999 Y181.828 E54.77
G1 X183.836 Y179.992 E54.85638
G1 X189.989 Y186.145 E55.1458
G1 X184.253 Y191.88 E55.41558
G1 X177.957 Y185.587 E55.71165
G1 F2700 E50.71165
G0 F6000 X183.053 Y185.209
G0 X183.571 Y185.727
;TYPE:SUPPORT
G1 F2700 E55.71165
G1 F962.6 X184.253 Y186.41 E55.74167
G1 F960 X184.385 Y186.277 E55.74751
G1 X184.518 Y186.144 E55.75337
G1 F962.6 X183.836 Y185.462 E55.78337
G1 X183.571 Y185.727 E55.79502
G1 F2700 E50.79502
;MESH:Right_Rear_Spar_Middle.stl
G0 F6000 X184.354 Y184.944
G0 X190.836 Y186.503
G0 X192.657 Y184.698
G0 X192.044 Y184.086
;TYPE:WALL-OUTER
G1 F2700 E55.79502
G1 F900 X193.254 Y182.877 E55.85191
G1 X149.697 Y139.321 E57.90068
G1 X145.087 Y143.931 E58.11752
G1 X144.931 Y143.989 E58.12305
G1 X144.803 Y143.931 E58.12773
G1 X143.389 Y142.517 E58.19424
G1 X143.331 Y142.389 E58.19891
G1 X143.389 Y142.233 E58.20445
G1 X147.999 Y137.623 E58.42129
G1 X104.442 Y94.066 E60.47008
G1 X99.832 Y98.676 E60.68692
G1 X99.676 Y98.734 E60.69245
G1 X99.548 Y98.676 E60.69713
G1 X98.134 Y97.262 E60.76364
G1 X98.076 Y97.134 E60.76831
G1 X98.134 Y96.978 E60.77385
G1 X102.744 Y92.368 E60.99069
G1 X59.187 Y48.811 E63.03947
G1 X54.506 Y53.492 E63.25965
G1 X54.35 Y53.55 E63.26519
G1 X54.222 Y53.492 E63.26986
G1 X52.808 Y52.078 E63.33637
G1 X52.75 Y51.937 E63.34144
G1 X52.808 Y51.794 E63.34658
G1 X54.788 Y49.815 E63.43969
G1 X48.071 Y43.098 E63.75563
G1 X41.736 Y49.433 E64.05361
G1 X172.58 Y180.274 E70.20804
G1 X177.076 Y184.771 E70.41954
G1 X181.592 Y180.257 E70.63192
G1 X181.654 Y180.226 E70.63422
G1 X181.855 Y180.274 E70.6411
G1 X183.694 Y178.436 E70.72757
G1 X183.842 Y178.378 E70.73286
G1 X183.978 Y178.436 E70.73778
G1 X190.836 Y185.295 E71.06038
G1 X192.044 Y184.086 E71.11722
G1 F2700 E66.11722
G0 F6000 X192.657 Y184.698
G0 X194.462 Y182.877
G0 X149.697 Y138.113
G0 X144.455 Y142.375
G0 X142.957 Y142.55
;TYPE:WALL-INNER
G1 F2700 E71.11722
G1 F900 X142.936 Y142.29 E71.1259
G1 X143.053 Y142.011 E71.13596
G1 X143.199 Y141.857 E71.14302
G1 X147.433 Y137.623 E71.34217
G1 X104.442 Y94.632 E73.36434
G1 X100.115 Y98.959 E73.56787
G1 X99.886 Y99.102 E73.57685
G1 X99.649 Y99.133 E73.5848
G1 X99.383 Y99.05 E73.59407
G1 X99.265 Y98.959 E73.59902
G1 X97.851 Y97.545 E73.66553
G1 X97.701 Y97.295 E73.67523
G1 X97.681 Y97.035 E73.6839
G1 X97.799 Y96.755 E73.69401
G1 X97.942 Y96.604 E73.70093
G1 X102.178 Y92.368 E73.90017
G1 X59.187 Y49.377 E75.92234
G1 X54.789 Y53.775 E76.12921
G1 X54.56 Y53.918 E76.13819
G1 X54.322 Y53.949 E76.14617
G1 X54.056 Y53.866 E76.15544
G1 X53.939 Y53.775 E76.16037
G1 X52.525 Y52.361 E76.22688
G1 X52.368 Y52.085 E76.23744
G1 X52.364 Y51.805 E76.24675
G1 X52.448 Y51.606 E76.25394
G1 X52.525 Y51.511 E76.258
G1 X54.222 Y49.815 E76.3378
G1 X48.071 Y43.664 E76.62713
G1 X42.302 Y49.433 E76.89848
G1 X50.682 Y57.813 E77.29265
G1 X90.135 Y97.265 E79.14838
G1 X135.964 Y143.093 E81.30401
G1 X139.388 Y146.517 E81.46506
G1 X177.076 Y184.205 E83.23779
G1 X181.291 Y179.99 E83.43605
G1 X181.534 Y179.844 E83.44548
G1 X181.683 Y179.879 E83.45057
G1 X183.411 Y178.153 E83.5318
G1 X183.661 Y178.003 E83.5415
G1 X183.852 Y177.978 E83.54791
G1 X184.182 Y178.086 E83.55946
G1 X184.261 Y178.153 E83.5629
G1 X190.836 Y184.729 E83.87219
G1 X191.761 Y183.803 E83.91573
G1 X192.688 Y182.877 E83.95931
G1 X149.697 Y139.887 E85.98145
G1 X145.37 Y144.214 E86.18498
G1 X145.141 Y144.357 E86.19396
G1 X144.904 Y144.388 E86.20191
G1 X144.638 Y144.305 E86.21117
G1 X144.52 Y144.214 E86.21613
G1 X143.106 Y142.8 E86.28264
G1 X142.957 Y142.55 E86.29232
G1 F2700 E81.29232
G0 F6000 X144.455 Y142.375
G0 X149.697 Y138.113
G0 X194.462 Y182.877
G0 X190.836 Y186.503
G0 X183.836 Y179.502
G0 X184.173 Y177.682
;TYPE:SKIN
G1 F2700 E86.29232
G1 F900 X184.495 Y177.882 E86.30493
G1 X184.524 Y177.906 E86.30618
G1 X190.836 Y184.219 E86.6031
G1 X191.506 Y183.548 E86.63464
G1 X192.178 Y182.877 E86.66622
G1 X149.695 Y140.396 E88.66445
G1 X145.548 Y144.537 E88.85937
G1 X145.286 Y144.685 E88.86938
G1 X144.919 Y144.747 E88.88175
G1 X144.489 Y144.631 E88.89657
G1 X144.273 Y144.476 E88.90541
G1 X142.86 Y143.063 E88.97187
G1 X142.692 Y142.844 E88.98105
